G90
G21
M4

(Name: Gerber_BottomLayer.GBL_iso_combined_cnc)
(Units: MM)

(Created on Wednesday, 19 March 2025 at 09:17)

(It is made to work with MACH3 compatible motion controllers.)

(Feedrate_XY: 60.0 mm/min)
(Feedrate_Z: 60.0 mm/min)
(Feedrate rapids 1500.0 mm/min)

(Z_Cut: 0.0 mm)
(Z_Move: 2.0 mm)
(Z Start: None mm)
(Z End: 15.0 mm)
(X,Y End: None mm)
(Steps per circle: 64)
(Preprocessor Geometry: default)

(X range:    0.0291 ...   50.1359  mm)
(Y range:    0.0291 ...   50.0089  mm)

(Spindle Speed: 0.0 RPM)
G21
G90
G94

S255
G1 F1000

S0
G0 Z15.0000
G0 X0.0000 Y0.0000
G0 Z15.0000

S255
G1 F1000
S0
G0 X0.3607 Y0.0891
S255
G1 F1000
G1 Z0.0000
S255
G1 F1000
S255
G1 X40.2250 Y0.0891
S255
G1 X40.2372 Y0.0895
S255
G1 X40.2534 Y0.0915
S255
G1 X40.2966 Y0.0998
S255
G1 X40.3091 Y0.1028
S255
G1 X40.3213 Y0.1066
S255
G1 X40.3332 Y0.1114
S255
G1 X40.3447 Y0.1171
S255
G1 X40.3558 Y0.1236
S255
G1 X40.3992 Y0.1531
S255
G1 X40.4120 Y0.1637
S255
G1 X40.4208 Y0.1725
S255
G1 X40.4291 Y0.1819
S255
G1 X40.4389 Y0.1953
S255
G1 X40.4630 Y0.2318
S255
G1 X40.4692 Y0.2425
S255
G1 X40.4729 Y0.2499
S255
G1 X40.4792 Y0.2652
S255
G1 X40.4839 Y0.2811
S255
G1 X40.4941 Y0.3318
S255
G1 X40.4961 Y0.3481
S255
G1 X40.4966 Y0.3605
S255
G1 X40.4961 Y0.3728
S255
G1 X40.4948 Y0.3851
S255
G1 X40.4840 Y0.4404
S255
G1 X40.4806 Y0.4524
S255
G1 X40.4747 Y0.4680
S255
G1 X40.4692 Y0.4793
S255
G1 X40.4630 Y0.4901
S255
G1 X40.4365 Y0.5301
S255
G1 X40.4288 Y0.5403
S255
G1 X40.4173 Y0.5530
S255
G1 X39.9234 Y1.0470
S255
G1 X39.8734 Y1.1048
S255
G1 X39.8616 Y1.1165
S255
G1 X39.8488 Y1.1271
S255
G1 X39.8132 Y1.1535
S255
G1 X39.8023 Y1.1610
S255
G1 X39.6709 Y1.2389
S255
G1 X39.5728 Y1.3157
S255
G1 X39.4848 Y1.4037
S255
G1 X39.4076 Y1.5023
S255
G1 X39.3429 Y1.6093
S255
G1 X39.2914 Y1.7233
S255
G1 X39.2493 Y1.8581
S255
G1 X39.2439 Y1.8730
S255
G1 X39.2371 Y1.8873
S255
G1 X39.2144 Y1.9278
S255
G1 X39.2079 Y1.9385
S255
G1 X39.2006 Y1.9487
S255
G1 X39.1953 Y1.9551
S255
G1 X39.1868 Y1.9644
S255
G1 X39.1808 Y1.9701
S255
G1 X39.1712 Y1.9782
S255
G1 X39.1304 Y2.0087
S255
G1 X39.1197 Y2.0157
S255
G1 X39.1084 Y2.0219
S255
G1 X39.0928 Y2.0288
S255
G1 X39.0806 Y2.0329
S255
G1 X39.0724 Y2.0351
S255
G1 X39.0220 Y2.0461
S255
G1 X39.0096 Y2.0480
S255
G1 X38.9971 Y2.0489
S255
G1 X38.9846 Y2.0490
S255
G1 X38.9762 Y2.0485
S255
G1 X38.9638 Y2.0471
S255
G1 X38.9555 Y2.0456
S255
G1 X38.9033 Y2.0345
S255
G1 X38.8876 Y2.0296
S255
G1 X38.8761 Y2.0250
S255
G1 X38.8614 Y2.0175
S255
G1 X38.8509 Y2.0110
S255
G1 X38.8101 Y1.9808
S255
G1 X38.8035 Y1.9756
S255
G1 X38.7942 Y1.9673
S255
G1 X38.7827 Y1.9552
S255
G1 X38.7749 Y1.9453
S255
G1 X38.7657 Y1.9314
S255
G1 X38.7408 Y1.8873
S255
G1 X38.7341 Y1.8730
S255
G1 X38.7287 Y1.8581
S255
G1 X38.6866 Y1.7233
S255
G1 X38.6351 Y1.6093
S255
G1 X38.5704 Y1.5023
S255
G1 X38.4932 Y1.4037
S255
G1 X38.4052 Y1.3157
S255
G1 X38.3066 Y1.2385
S255
G1 X38.1996 Y1.1738
S255
G1 X38.0857 Y1.1224
S255
G1 X37.9670 Y1.0854
S255
G1 X37.8437 Y1.0631
S255
G1 X37.7190 Y1.0553
S255
G1 X37.5942 Y1.0631
S255
G1 X37.4710 Y1.0854
S255
G1 X37.3523 Y1.1224
S255
G1 X37.2384 Y1.1738
S255
G1 X37.1314 Y1.2385
S255
G1 X37.0328 Y1.3157
S255
G1 X36.9448 Y1.4037
S255
G1 X36.8676 Y1.5023
S255
G1 X36.8029 Y1.6093
S255
G1 X36.7514 Y1.7233
S255
G1 X36.7093 Y1.8581
S255
G1 X36.7039 Y1.8730
S255
G1 X36.6971 Y1.8873
S255
G1 X36.6744 Y1.9278
S255
G1 X36.6679 Y1.9385
S255
G1 X36.6606 Y1.9487
S255
G1 X36.6553 Y1.9551
S255
G1 X36.6468 Y1.9644
S255
G1 X36.6408 Y1.9701
S255
G1 X36.6312 Y1.9782
S255
G1 X36.5869 Y2.0111
S255
G1 X36.5760 Y2.0179
S255
G1 X36.5646 Y2.0237
S255
G1 X36.5488 Y2.0302
S255
G1 X36.5406 Y2.0329
S255
G1 X36.5282 Y2.0361
S255
G1 X36.4779 Y2.0468
S255
G1 X36.4654 Y2.0484
S255
G1 X36.4529 Y2.0491
S255
G1 X36.4362 Y2.0485
S255
G1 X36.4238 Y2.0471
S255
G1 X36.4155 Y2.0456
S255
G1 X36.3633 Y2.0345
S255
G1 X36.3476 Y2.0296
S255
G1 X36.3361 Y2.0250
S255
G1 X36.3214 Y2.0175
S255
G1 X36.3109 Y2.0110
S255
G1 X36.2701 Y1.9808
S255
G1 X36.2635 Y1.9756
S255
G1 X36.2542 Y1.9673
S255
G1 X36.2427 Y1.9552
S255
G1 X36.2349 Y1.9453
S255
G1 X36.2257 Y1.9314
S255
G1 X36.2008 Y1.8873
S255
G1 X36.1941 Y1.8730
S255
G1 X36.1887 Y1.8581
S255
G1 X36.1466 Y1.7233
S255
G1 X36.0951 Y1.6093
S255
G1 X36.0304 Y1.5023
S255
G1 X35.9532 Y1.4037
S255
G1 X35.8652 Y1.3157
S255
G1 X35.7666 Y1.2385
S255
G1 X35.6596 Y1.1738
S255
G1 X35.5457 Y1.1224
S255
G1 X35.4270 Y1.0854
S255
G1 X35.3037 Y1.0631
S255
G1 X35.1790 Y1.0553
S255
G1 X35.0542 Y1.0631
S255
G1 X34.9310 Y1.0854
S255
G1 X34.8123 Y1.1224
S255
G1 X34.6984 Y1.1738
S255
G1 X34.5914 Y1.2385
S255
G1 X34.4928 Y1.3157
S255
G1 X34.4048 Y1.4037
S255
G1 X34.3276 Y1.5023
S255
G1 X34.2629 Y1.6093
S255
G1 X34.2114 Y1.7233
S255
G1 X34.1693 Y1.8581
S255
G1 X34.1639 Y1.8730
S255
G1 X34.1571 Y1.8873
S255
G1 X34.1344 Y1.9278
S255
G1 X34.1279 Y1.9385
S255
G1 X34.1206 Y1.9487
S255
G1 X34.1125 Y1.9583
S255
G1 X34.1068 Y1.9644
S255
G1 X34.0977 Y1.9729
S255
G1 X34.0912 Y1.9782
S255
G1 X34.0469 Y2.0111
S255
G1 X34.0360 Y2.0179
S255
G1 X34.0246 Y2.0237
S255
G1 X34.0128 Y2.0288
S255
G1 X34.0047 Y2.0316
S255
G1 X33.9882 Y2.0361
S255
G1 X33.9379 Y2.0468
S255
G1 X33.9254 Y2.0484
S255
G1 X33.9129 Y2.0491
S255
G1 X33.9004 Y2.0488
S255
G1 X33.8920 Y2.0481
S255
G1 X33.8755 Y2.0456
S255
G1 X33.8233 Y2.0345
S255
G1 X33.8115 Y2.0310
S255
G1 X33.7961 Y2.0250
S255
G1 X33.7850 Y2.0195
S255
G1 X33.7709 Y2.0110
S255
G1 X33.7301 Y1.9808
S255
G1 X33.7172 Y1.9701
S255
G1 X33.7083 Y1.9614
S255
G1 X33.7027 Y1.9552
S255
G1 X33.6925 Y1.9419
S255
G1 X33.6857 Y1.9314
S255
G1 X33.6608 Y1.8873
S255
G1 X33.6541 Y1.8730
S255
G1 X33.6487 Y1.8581
S255
G1 X33.6066 Y1.7233
S255
G1 X33.5551 Y1.6093
S255
G1 X33.4904 Y1.5023
S255
G1 X33.4132 Y1.4037
S255
G1 X33.3252 Y1.3157
S255
G1 X33.2266 Y1.2385
S255
G1 X33.1196 Y1.1738
S255
G1 X33.0057 Y1.1224
S255
G1 X32.8870 Y1.0854
S255
G1 X32.7637 Y1.0631
S255
G1 X32.6390 Y1.0553
S255
G1 X32.5142 Y1.0631
S255
G1 X32.3910 Y1.0854
S255
G1 X32.2723 Y1.1224
S255
G1 X32.1584 Y1.1738
S255
G1 X32.0514 Y1.2385
S255
G1 X31.9528 Y1.3157
S255
G1 X31.8648 Y1.4037
S255
G1 X31.7876 Y1.5023
S255
G1 X31.7229 Y1.6093
S255
G1 X31.6714 Y1.7233
S255
G1 X31.6293 Y1.8581
S255
G1 X31.6239 Y1.8730
S255
G1 X31.6171 Y1.8873
S255
G1 X31.5944 Y1.9278
S255
G1 X31.5879 Y1.9385
S255
G1 X31.5806 Y1.9487
S255
G1 X31.5753 Y1.9551
S255
G1 X31.5668 Y1.9644
S255
G1 X31.5577 Y1.9729
S255
G1 X31.5512 Y1.9782
S255
G1 X31.5069 Y2.0111
S255
G1 X31.4960 Y2.0179
S255
G1 X31.4846 Y2.0237
S255
G1 X31.4768 Y2.0272
S255
G1 X31.4647 Y2.0316
S255
G1 X31.4482 Y2.0361
S255
G1 X31.3979 Y2.0468
S255
G1 X31.3854 Y2.0484
S255
G1 X31.3729 Y2.0491
S255
G1 X31.3562 Y2.0485
S255
G1 X31.3438 Y2.0471
S255
G1 X31.3355 Y2.0456
S255
G1 X31.2833 Y2.0345
S255
G1 X31.2676 Y2.0296
S255
G1 X31.2561 Y2.0250
S255
G1 X31.2450 Y2.0195
S255
G1 X31.2309 Y2.0110
S255
G1 X31.1901 Y1.9808
S255
G1 X31.1772 Y1.9701
S255
G1 X31.1683 Y1.9614
S255
G1 X31.1627 Y1.9552
S255
G1 X31.1549 Y1.9453
S255
G1 X31.1457 Y1.9314
S255
G1 X31.1208 Y1.8873
S255
G1 X31.1141 Y1.8730
S255
G1 X31.1087 Y1.8581
S255
G1 X31.0666 Y1.7233
S255
G1 X31.0151 Y1.6093
S255
G1 X30.9504 Y1.5023
S255
G1 X30.8732 Y1.4037
S255
G1 X30.7852 Y1.3157
S255
G1 X30.6866 Y1.2385
S255
G1 X30.5796 Y1.1738
S255
G1 X30.4657 Y1.1224
S255
G1 X30.3470 Y1.0854
S255
G1 X30.2237 Y1.0631
S255
G1 X30.0990 Y1.0553
S255
G1 X29.9742 Y1.0631
S255
G1 X29.8510 Y1.0854
S255
G1 X29.7323 Y1.1224
S255
G1 X29.6184 Y1.1738
S255
G1 X29.5114 Y1.2385
S255
G1 X29.4128 Y1.3157
S255
G1 X29.3248 Y1.4037
S255
G1 X29.2476 Y1.5023
S255
G1 X29.1829 Y1.6093
S255
G1 X29.1314 Y1.7233
S255
G1 X29.0893 Y1.8581
S255
G1 X29.0839 Y1.8730
S255
G1 X29.0771 Y1.8873
S255
G1 X29.0544 Y1.9278
S255
G1 X29.0479 Y1.9385
S255
G1 X29.0406 Y1.9487
S255
G1 X29.0353 Y1.9551
S255
G1 X29.0268 Y1.9644
S255
G1 X29.0208 Y1.9701
S255
G1 X29.0112 Y1.9782
S255
G1 X28.9704 Y2.0087
S255
G1 X28.9597 Y2.0157
S255
G1 X28.9484 Y2.0219
S255
G1 X28.9328 Y2.0288
S255
G1 X28.9206 Y2.0329
S255
G1 X28.9124 Y2.0351
S255
G1 X28.8620 Y2.0461
S255
G1 X28.8496 Y2.0480
S255
G1 X28.8371 Y2.0489
S255
G1 X28.8287 Y2.0491
S255
G1 X28.8162 Y2.0485
S255
G1 X28.8038 Y2.0471
S255
G1 X28.7955 Y2.0456
S255
G1 X28.7433 Y2.0345
S255
G1 X28.7276 Y2.0296
S255
G1 X28.7161 Y2.0250
S255
G1 X28.7050 Y2.0195
S255
G1 X28.6909 Y2.0110
S255
G1 X28.6501 Y1.9808
S255
G1 X28.6404 Y1.9729
S255
G1 X28.6342 Y1.9673
S255
G1 X28.6227 Y1.9552
S255
G1 X28.6125 Y1.9419
S255
G1 X28.6057 Y1.9314
S255
G1 X28.5808 Y1.8873
S255
G1 X28.5741 Y1.8730
S255
G1 X28.5687 Y1.8581
S255
G1 X28.5266 Y1.7233
S255
G1 X28.4751 Y1.6093
S255
G1 X28.4104 Y1.5023
S255
G1 X28.3332 Y1.4037
S255
G1 X28.2452 Y1.3157
S255
G1 X28.1466 Y1.2385
S255
G1 X28.0396 Y1.1738
S255
G1 X27.9257 Y1.1224
S255
G1 X27.8070 Y1.0854
S255
G1 X27.6837 Y1.0631
S255
G1 X27.5590 Y1.0553
S255
G1 X27.4342 Y1.0631
S255
G1 X27.3110 Y1.0854
S255
G1 X27.1923 Y1.1224
S255
G1 X27.0784 Y1.1738
S255
G1 X26.9714 Y1.2385
S255
G1 X26.8728 Y1.3157
S255
G1 X26.7848 Y1.4037
S255
G1 X26.7076 Y1.5023
S255
G1 X26.6429 Y1.6093
S255
G1 X26.5914 Y1.7233
S255
G1 X26.5493 Y1.8581
S255
G1 X26.5439 Y1.8730
S255
G1 X26.5371 Y1.8873
S255
G1 X26.5144 Y1.9278
S255
G1 X26.5079 Y1.9385
S255
G1 X26.5006 Y1.9487
S255
G1 X26.4953 Y1.9551
S255
G1 X26.4868 Y1.9644
S255
G1 X26.4777 Y1.9729
S255
G1 X26.4712 Y1.9782
S255
G1 X26.4304 Y2.0087
S255
G1 X26.4197 Y2.0157
S255
G1 X26.4084 Y2.0219
S255
G1 X26.3928 Y2.0288
S255
G1 X26.3847 Y2.0316
S255
G1 X26.3724 Y2.0351
S255
G1 X26.3220 Y2.0461
S255
G1 X26.3096 Y2.0480
S255
G1 X26.2971 Y2.0489
S255
G1 X26.2887 Y2.0491
S255
G1 X26.2762 Y2.0485
S255
G1 X26.2638 Y2.0471
S255
G1 X26.2555 Y2.0456
S255
G1 X26.2033 Y2.0345
S255
G1 X26.1876 Y2.0296
S255
G1 X26.1761 Y2.0250
S255
G1 X26.1650 Y2.0195
S255
G1 X26.1509 Y2.0110
S255
G1 X26.1101 Y1.9808
S255
G1 X26.0972 Y1.9701
S255
G1 X26.0883 Y1.9614
S255
G1 X26.0827 Y1.9552
S255
G1 X26.0749 Y1.9453
S255
G1 X26.0657 Y1.9314
S255
G1 X26.0408 Y1.8873
S255
G1 X26.0341 Y1.8730
S255
G1 X26.0287 Y1.8581
S255
G1 X25.9866 Y1.7233
S255
G1 X25.9351 Y1.6093
S255
G1 X25.8704 Y1.5023
S255
G1 X25.7932 Y1.4037
S255
G1 X25.7052 Y1.3157
S255
G1 X25.6066 Y1.2385
S255
G1 X25.4996 Y1.1738
S255
G1 X25.3857 Y1.1224
S255
G1 X25.2670 Y1.0854
S255
G1 X25.1437 Y1.0631
S255
G1 X25.0190 Y1.0553
S255
G1 X24.8942 Y1.0631
S255
G1 X24.7710 Y1.0854
S255
G1 X24.6523 Y1.1224
S255
G1 X24.5384 Y1.1738
S255
G1 X24.4314 Y1.2385
S255
G1 X24.3328 Y1.3157
S255
G1 X24.2448 Y1.4037
S255
G1 X24.1676 Y1.5023
S255
G1 X24.1029 Y1.6093
S255
G1 X24.0514 Y1.7233
S255
G1 X24.0093 Y1.8581
S255
G1 X24.0039 Y1.8730
S255
G1 X23.9971 Y1.8873
S255
G1 X23.9744 Y1.9278
S255
G1 X23.9679 Y1.9385
S255
G1 X23.9606 Y1.9487
S255
G1 X23.9553 Y1.9551
S255
G1 X23.9468 Y1.9644
S255
G1 X23.9377 Y1.9729
S255
G1 X23.9312 Y1.9782
S255
G1 X23.8904 Y2.0087
S255
G1 X23.8797 Y2.0157
S255
G1 X23.8684 Y2.0219
S255
G1 X23.8528 Y2.0288
S255
G1 X23.8447 Y2.0316
S255
G1 X23.8324 Y2.0351
S255
G1 X23.7820 Y2.0461
S255
G1 X23.7696 Y2.0480
S255
G1 X23.7571 Y2.0489
S255
G1 X23.7487 Y2.0491
S255
G1 X23.7362 Y2.0485
S255
G1 X23.7238 Y2.0471
S255
G1 X23.7155 Y2.0456
S255
G1 X23.6633 Y2.0345
S255
G1 X23.6476 Y2.0296
S255
G1 X23.6361 Y2.0250
S255
G1 X23.6250 Y2.0195
S255
G1 X23.6109 Y2.0110
S255
G1 X23.5701 Y1.9808
S255
G1 X23.5604 Y1.9729
S255
G1 X23.5542 Y1.9673
S255
G1 X23.5454 Y1.9583
S255
G1 X23.5400 Y1.9520
S255
G1 X23.5325 Y1.9419
S255
G1 X23.5257 Y1.9314
S255
G1 X23.5008 Y1.8873
S255
G1 X23.4941 Y1.8730
S255
G1 X23.4887 Y1.8581
S255
G1 X23.4466 Y1.7233
S255
G1 X23.3951 Y1.6093
S255
G1 X23.3304 Y1.5023
S255
G1 X23.2532 Y1.4037
S255
G1 X23.1652 Y1.3157
S255
G1 X23.0666 Y1.2385
S255
G1 X22.9596 Y1.1738
S255
G1 X22.8457 Y1.1224
S255
G1 X22.7270 Y1.0854
S255
G1 X22.6037 Y1.0631
S255
G1 X22.4790 Y1.0553
S255
G1 X22.3542 Y1.0631
S255
G1 X22.2310 Y1.0854
S255
G1 X22.1123 Y1.1224
S255
G1 X21.9984 Y1.1738
S255
G1 X21.8914 Y1.2385
S255
G1 X21.7928 Y1.3157
S255
G1 X21.7048 Y1.4037
S255
G1 X21.6276 Y1.5023
S255
G1 X21.5629 Y1.6093
S255
G1 X21.5114 Y1.7233
S255
G1 X21.4693 Y1.8581
S255
G1 X21.4639 Y1.8730
S255
G1 X21.4571 Y1.8873
S255
G1 X21.4323 Y1.9314
S255
G1 X21.4255 Y1.9419
S255
G1 X21.4180 Y1.9519
S255
G1 X21.4068 Y1.9644
S255
G1 X21.4008 Y1.9701
S255
G1 X21.3912 Y1.9782
S255
G1 X21.3504 Y2.0087
S255
G1 X21.3397 Y2.0157
S255
G1 X21.3284 Y2.0219
S255
G1 X21.3128 Y2.0288
S255
G1 X21.3006 Y2.0329
S255
G1 X21.2924 Y2.0351
S255
G1 X21.2420 Y2.0461
S255
G1 X21.2337 Y2.0474
S255
G1 X21.2213 Y2.0487
S255
G1 X21.2129 Y2.0491
S255
G1 X21.2004 Y2.0488
S255
G1 X21.1920 Y2.0481
S255
G1 X21.1796 Y2.0464
S255
G1 X21.1233 Y2.0345
S255
G1 X21.1076 Y2.0296
S255
G1 X21.0961 Y2.0250
S255
G1 X21.0850 Y2.0195
S255
G1 X21.0709 Y2.0110
S255
G1 X21.0301 Y1.9808
S255
G1 X21.0204 Y1.9729
S255
G1 X21.0142 Y1.9673
S255
G1 X21.0054 Y1.9583
S255
G1 X21.0000 Y1.9520
S255
G1 X20.9925 Y1.9419
S255
G1 X20.9857 Y1.9314
S255
G1 X20.9608 Y1.8873
S255
G1 X20.9541 Y1.8730
S255
G1 X20.9487 Y1.8581
S255
G1 X20.9066 Y1.7233
S255
G1 X20.8551 Y1.6093
S255
G1 X20.7904 Y1.5023
S255
G1 X20.7132 Y1.4037
S255
G1 X20.6252 Y1.3157
S255
G1 X20.5266 Y1.2385
S255
G1 X20.4196 Y1.1738
S255
G1 X20.3057 Y1.1224
S255
G1 X20.1870 Y1.0854
S255
G1 X20.0637 Y1.0631
S255
G1 X19.9390 Y1.0553
S255
G1 X19.8142 Y1.0631
S255
G1 X19.6910 Y1.0854
S255
G1 X19.5723 Y1.1224
S255
G1 X19.4584 Y1.1738
S255
G1 X19.3514 Y1.2385
S255
G1 X19.2528 Y1.3157
S255
G1 X19.1648 Y1.4037
S255
G1 X19.0876 Y1.5023
S255
G1 X19.0229 Y1.6093
S255
G1 X18.9714 Y1.7233
S255
G1 X18.9293 Y1.8581
S255
G1 X18.9239 Y1.8730
S255
G1 X18.9171 Y1.8873
S255
G1 X18.8923 Y1.9314
S255
G1 X18.8855 Y1.9419
S255
G1 X18.8780 Y1.9519
S255
G1 X18.8668 Y1.9644
S255
G1 X18.8577 Y1.9729
S255
G1 X18.8512 Y1.9782
S255
G1 X18.8104 Y2.0087
S255
G1 X18.7997 Y2.0157
S255
G1 X18.7884 Y2.0219
S255
G1 X18.7728 Y2.0288
S255
G1 X18.7565 Y2.0341
S255
G1 X18.7061 Y2.0452
S255
G1 X18.6896 Y2.0480
S255
G1 X18.6813 Y2.0487
S255
G1 X18.6687 Y2.0491
S255
G1 X18.6562 Y2.0485
S255
G1 X18.6438 Y2.0471
S255
G1 X18.5873 Y2.0355
S255
G1 X18.5754 Y2.0323
S255
G1 X18.5599 Y2.0266
S255
G1 X18.5450 Y2.0195
S255
G1 X18.5309 Y2.0110
S255
G1 X18.4901 Y1.9808
S255
G1 X18.4804 Y1.9729
S255
G1 X18.4742 Y1.9673
S255
G1 X18.4654 Y1.9583
S255
G1 X18.4600 Y1.9520
S255
G1 X18.4525 Y1.9419
S255
G1 X18.4457 Y1.9314
S255
G1 X18.4208 Y1.8873
S255
G1 X18.4141 Y1.8730
S255
G1 X18.4087 Y1.8581
S255
G1 X18.3666 Y1.7233
S255
G1 X18.3151 Y1.6093
S255
G1 X18.2504 Y1.5023
S255
G1 X18.1732 Y1.4037
S255
G1 X18.0852 Y1.3157
S255
G1 X17.9866 Y1.2385
S255
G1 X17.8796 Y1.1738
S255
G1 X17.7657 Y1.1224
S255
G1 X17.6470 Y1.0854
S255
G1 X17.5237 Y1.0631
S255
G1 X17.3990 Y1.0553
S255
G1 X17.2742 Y1.0631
S255
G1 X17.1510 Y1.0854
S255
G1 X17.0323 Y1.1224
S255
G1 X16.9184 Y1.1738
S255
G1 X16.8114 Y1.2385
S255
G1 X16.7128 Y1.3157
S255
G1 X16.6248 Y1.4037
S255
G1 X16.5476 Y1.5023
S255
G1 X16.4829 Y1.6093
S255
G1 X16.4315 Y1.7231
S255
G1 X16.3944 Y1.8427
S255
G1 X16.3718 Y1.9651
S255
G1 X16.3640 Y2.0979
S255
G1 X16.3640 Y2.9821
S255
G1 X16.3718 Y3.1149
S255
G1 X16.3944 Y3.2373
S255
G1 X16.4315 Y3.3569
S255
G1 X16.4829 Y3.4707
S255
G1 X16.5476 Y3.5776
S255
G1 X16.6248 Y3.6762
S255
G1 X16.7128 Y3.7643
S255
G1 X16.8114 Y3.8415
S255
G1 X16.9184 Y3.9061
S255
G1 X17.0323 Y3.9576
S255
G1 X17.1510 Y3.9946
S255
G1 X17.2742 Y4.0169
S255
G1 X17.3990 Y4.0247
S255
G1 X17.5237 Y4.0169
S255
G1 X17.6470 Y3.9946
S255
G1 X17.7657 Y3.9576
S255
G1 X17.8796 Y3.9061
S255
G1 X17.9866 Y3.8415
S255
G1 X18.0852 Y3.7643
S255
G1 X18.1732 Y3.6762
S255
G1 X18.2504 Y3.5776
S255
G1 X18.3151 Y3.4707
S255
G1 X18.3666 Y3.3567
S255
G1 X18.4087 Y3.2219
S255
G1 X18.4141 Y3.2070
S255
G1 X18.4208 Y3.1927
S255
G1 X18.4457 Y3.1486
S255
G1 X18.4525 Y3.1380
S255
G1 X18.4600 Y3.1280
S255
G1 X18.4683 Y3.1186
S255
G1 X18.4742 Y3.1127
S255
G1 X18.4868 Y3.1017
S255
G1 X18.5276 Y3.0713
S255
G1 X18.5383 Y3.0643
S255
G1 X18.5496 Y3.0581
S255
G1 X18.5612 Y3.0528
S255
G1 X18.5692 Y3.0497
S255
G1 X18.5856 Y3.0449
S255
G1 X18.6360 Y3.0339
S255
G1 X18.6484 Y3.0320
S255
G1 X18.6567 Y3.0313
S255
G1 X18.6693 Y3.0309
S255
G1 X18.6776 Y3.0312
S255
G1 X18.6859 Y3.0319
S255
G1 X18.6983 Y3.0336
S255
G1 X18.7547 Y3.0454
S255
G1 X18.7665 Y3.0490
S255
G1 X18.7781 Y3.0534
S255
G1 X18.7894 Y3.0586
S255
G1 X18.7966 Y3.0625
S255
G1 X18.8037 Y3.0668
S255
G1 X18.8139 Y3.0738
S255
G1 X18.8545 Y3.1044
S255
G1 X18.8668 Y3.1156
S255
G1 X18.8753 Y3.1248
S255
G1 X18.8855 Y3.1380
S255
G1 X18.8923 Y3.1486
S255
G1 X18.9171 Y3.1927
S255
G1 X18.9239 Y3.2070
S255
G1 X18.9293 Y3.2219
S255
G1 X18.9714 Y3.3567
S255
G1 X19.0229 Y3.4707
S255
G1 X19.0876 Y3.5776
S255
G1 X19.1648 Y3.6762
S255
G1 X19.2528 Y3.7643
S255
G1 X19.3514 Y3.8415
S255
G1 X19.4584 Y3.9061
S255
G1 X19.5723 Y3.9576
S255
G1 X19.6910 Y3.9946
S255
G1 X19.8142 Y4.0169
S255
G1 X19.9390 Y4.0247
S255
G1 X20.0637 Y4.0169
S255
G1 X20.1870 Y3.9946
S255
G1 X20.3057 Y3.9576
S255
G1 X20.4196 Y3.9061
S255
G1 X20.5266 Y3.8415
S255
G1 X20.6252 Y3.7643
S255
G1 X20.7132 Y3.6762
S255
G1 X20.7904 Y3.5776
S255
G1 X20.8551 Y3.4707
S255
G1 X20.9066 Y3.3567
S255
G1 X20.9487 Y3.2219
S255
G1 X20.9541 Y3.2070
S255
G1 X20.9608 Y3.1927
S255
G1 X20.9836 Y3.1522
S255
G1 X20.9901 Y3.1415
S255
G1 X20.9974 Y3.1313
S255
G1 X21.0027 Y3.1248
S255
G1 X21.0112 Y3.1156
S255
G1 X21.0204 Y3.1071
S255
G1 X21.0268 Y3.1017
S255
G1 X21.0676 Y3.0713
S255
G1 X21.0783 Y3.0643
S255
G1 X21.0896 Y3.0581
S255
G1 X21.1052 Y3.0512
S255
G1 X21.1174 Y3.0471
S255
G1 X21.1256 Y3.0449
S255
G1 X21.1760 Y3.0339
S255
G1 X21.1843 Y3.0326
S255
G1 X21.1967 Y3.0313
S255
G1 X21.2051 Y3.0309
S255
G1 X21.2176 Y3.0312
S255
G1 X21.2301 Y3.0323
S255
G1 X21.2383 Y3.0336
S255
G1 X21.2947 Y3.0454
S255
G1 X21.3065 Y3.0490
S255
G1 X21.3181 Y3.0534
S255
G1 X21.3257 Y3.0567
S255
G1 X21.3366 Y3.0625
S255
G1 X21.3471 Y3.0690
S255
G1 X21.3539 Y3.0738
S255
G1 X21.3945 Y3.1044
S255
G1 X21.4068 Y3.1156
S255
G1 X21.4153 Y3.1248
S255
G1 X21.4231 Y3.1347
S255
G1 X21.4323 Y3.1486
S255
G1 X21.4571 Y3.1927
S255
G1 X21.4639 Y3.2070
S255
G1 X21.4693 Y3.2219
S255
G1 X21.5114 Y3.3567
S255
G1 X21.5629 Y3.4707
S255
G1 X21.6276 Y3.5776
S255
G1 X21.7048 Y3.6762
S255
G1 X21.7928 Y3.7643
S255
G1 X21.8914 Y3.8415
S255
G1 X21.9984 Y3.9061
S255
G1 X22.1123 Y3.9576
S255
G1 X22.2310 Y3.9946
S255
G1 X22.3542 Y4.0169
S255
G1 X22.4790 Y4.0247
S255
G1 X22.6037 Y4.0169
S255
G1 X22.7270 Y3.9946
S255
G1 X22.8457 Y3.9576
S255
G1 X22.9596 Y3.9061
S255
G1 X23.0666 Y3.8415
S255
G1 X23.1652 Y3.7643
S255
G1 X23.2532 Y3.6762
S255
G1 X23.3304 Y3.5776
S255
G1 X23.3951 Y3.4707
S255
G1 X23.4466 Y3.3567
S255
G1 X23.4887 Y3.2219
S255
G1 X23.4941 Y3.2070
S255
G1 X23.5008 Y3.1927
S255
G1 X23.5236 Y3.1522
S255
G1 X23.5301 Y3.1415
S255
G1 X23.5374 Y3.1313
S255
G1 X23.5427 Y3.1248
S255
G1 X23.5512 Y3.1156
S255
G1 X23.5604 Y3.1071
S255
G1 X23.5668 Y3.1017
S255
G1 X23.6076 Y3.0713
S255
G1 X23.6183 Y3.0643
S255
G1 X23.6296 Y3.0581
S255
G1 X23.6452 Y3.0512
S255
G1 X23.6615 Y3.0459
S255
G1 X23.7160 Y3.0339
S255
G1 X23.7326 Y3.0316
S255
G1 X23.7409 Y3.0310
S255
G1 X23.7534 Y3.0310
S255
G1 X23.7659 Y3.0319
S255
G1 X23.7783 Y3.0336
S255
G1 X23.8347 Y3.0454
S255
G1 X23.8465 Y3.0490
S255
G1 X23.8581 Y3.0534
S255
G1 X23.8694 Y3.0586
S255
G1 X23.8766 Y3.0625
S255
G1 X23.8837 Y3.0668
S255
G1 X23.8939 Y3.0738
S255
G1 X23.9345 Y3.1044
S255
G1 X23.9468 Y3.1156
S255
G1 X23.9553 Y3.1248
S255
G1 X23.9655 Y3.1380
S255
G1 X23.9723 Y3.1486
S255
G1 X23.9971 Y3.1927
S255
G1 X24.0039 Y3.2070
S255
G1 X24.0093 Y3.2219
S255
G1 X24.0514 Y3.3567
S255
G1 X24.1029 Y3.4707
S255
G1 X24.1676 Y3.5776
S255
G1 X24.2448 Y3.6762
S255
G1 X24.3328 Y3.7643
S255
G1 X24.4314 Y3.8415
S255
G1 X24.5384 Y3.9061
S255
G1 X24.6523 Y3.9576
S255
G1 X24.7710 Y3.9946
S255
G1 X24.8942 Y4.0169
S255
G1 X25.0190 Y4.0247
S255
G1 X25.1437 Y4.0169
S255
G1 X25.2670 Y3.9946
S255
G1 X25.3857 Y3.9576
S255
G1 X25.4996 Y3.9061
S255
G1 X25.6066 Y3.8415
S255
G1 X25.7052 Y3.7643
S255
G1 X25.7932 Y3.6762
S255
G1 X25.8704 Y3.5776
S255
G1 X25.9351 Y3.4707
S255
G1 X25.9866 Y3.3567
S255
G1 X26.0287 Y3.2219
S255
G1 X26.0341 Y3.2070
S255
G1 X26.0408 Y3.1927
S255
G1 X26.0636 Y3.1522
S255
G1 X26.0701 Y3.1415
S255
G1 X26.0774 Y3.1313
S255
G1 X26.0883 Y3.1186
S255
G1 X26.0942 Y3.1127
S255
G1 X26.1035 Y3.1044
S255
G1 X26.1476 Y3.0713
S255
G1 X26.1547 Y3.0665
S255
G1 X26.1658 Y3.0601
S255
G1 X26.1812 Y3.0528
S255
G1 X26.1933 Y3.0484
S255
G1 X26.2015 Y3.0459
S255
G1 X26.2519 Y3.0348
S255
G1 X26.2684 Y3.0320
S255
G1 X26.2809 Y3.0310
S255
G1 X26.2934 Y3.0310
S255
G1 X26.3059 Y3.0319
S255
G1 X26.3142 Y3.0329
S255
G1 X26.3707 Y3.0445
S255
G1 X26.3865 Y3.0490
S255
G1 X26.3981 Y3.0534
S255
G1 X26.4094 Y3.0586
S255
G1 X26.4166 Y3.0625
S255
G1 X26.4237 Y3.0668
S255
G1 X26.4339 Y3.0738
S255
G1 X26.4745 Y3.1044
S255
G1 X26.4868 Y3.1156
S255
G1 X26.4953 Y3.1248
S255
G1 X26.5055 Y3.1380
S255
G1 X26.5123 Y3.1486
S255
G1 X26.5371 Y3.1927
S255
G1 X26.5439 Y3.2070
S255
G1 X26.5493 Y3.2219
S255
G1 X26.5914 Y3.3567
S255
G1 X26.6429 Y3.4707
S255
G1 X26.7076 Y3.5776
S255
G1 X26.7848 Y3.6762
S255
G1 X26.8728 Y3.7643
S255
G1 X26.9714 Y3.8415
S255
G1 X27.0784 Y3.9061
S255
G1 X27.1923 Y3.9576
S255
G1 X27.3110 Y3.9946
S255
G1 X27.4342 Y4.0169
S255
G1 X27.5590 Y4.0247
S255
G1 X27.6837 Y4.0169
S255
G1 X27.8070 Y3.9946
S255
G1 X27.9257 Y3.9576
S255
G1 X28.0396 Y3.9061
S255
G1 X28.1466 Y3.8415
S255
G1 X28.2452 Y3.7643
S255
G1 X28.3332 Y3.6762
S255
G1 X28.4104 Y3.5776
S255
G1 X28.4751 Y3.4707
S255
G1 X28.5266 Y3.3567
S255
G1 X28.5687 Y3.2219
S255
G1 X28.5741 Y3.2070
S255
G1 X28.5808 Y3.1927
S255
G1 X28.6036 Y3.1522
S255
G1 X28.6101 Y3.1415
S255
G1 X28.6174 Y3.1313
S255
G1 X28.6283 Y3.1186
S255
G1 X28.6342 Y3.1127
S255
G1 X28.6435 Y3.1044
S255
G1 X28.6876 Y3.0713
S255
G1 X28.6947 Y3.0665
S255
G1 X28.7058 Y3.0601
S255
G1 X28.7134 Y3.0562
S255
G1 X28.7252 Y3.0512
S255
G1 X28.7415 Y3.0459
S255
G1 X28.7919 Y3.0348
S255
G1 X28.8043 Y3.0326
S255
G1 X28.8167 Y3.0313
S255
G1 X28.8293 Y3.0309
S255
G1 X28.8418 Y3.0315
S255
G1 X28.8542 Y3.0329
S255
G1 X28.9107 Y3.0445
S255
G1 X28.9226 Y3.0477
S255
G1 X28.9343 Y3.0518
S255
G1 X28.9457 Y3.0567
S255
G1 X28.9530 Y3.0605
S255
G1 X28.9602 Y3.0646
S255
G1 X28.9705 Y3.0714
S255
G1 X29.0145 Y3.1044
S255
G1 X29.0268 Y3.1156
S255
G1 X29.0353 Y3.1248
S255
G1 X29.0431 Y3.1347
S255
G1 X29.0523 Y3.1486
S255
G1 X29.0771 Y3.1927
S255
G1 X29.0839 Y3.2070
S255
G1 X29.0893 Y3.2219
S255
G1 X29.1314 Y3.3567
S255
G1 X29.1829 Y3.4707
S255
G1 X29.2476 Y3.5776
S255
G1 X29.3248 Y3.6762
S255
G1 X29.4128 Y3.7643
S255
G1 X29.5114 Y3.8415
S255
G1 X29.6184 Y3.9061
S255
G1 X29.7323 Y3.9576
S255
G1 X29.8510 Y3.9946
S255
G1 X29.9742 Y4.0169
S255
G1 X30.0990 Y4.0247
S255
G1 X30.2237 Y4.0169
S255
G1 X30.3470 Y3.9946
S255
G1 X30.4657 Y3.9576
S255
G1 X30.5796 Y3.9061
S255
G1 X30.6866 Y3.8415
S255
G1 X30.7852 Y3.7643
S255
G1 X30.8732 Y3.6762
S255
G1 X30.9504 Y3.5776
S255
G1 X31.0151 Y3.4707
S255
G1 X31.0666 Y3.3567
S255
G1 X31.1087 Y3.2219
S255
G1 X31.1141 Y3.2070
S255
G1 X31.1173 Y3.1998
S255
G1 X31.1227 Y3.1893
S255
G1 X31.1457 Y3.1486
S255
G1 X31.1525 Y3.1380
S255
G1 X31.1600 Y3.1280
S255
G1 X31.1654 Y3.1217
S255
G1 X31.1712 Y3.1156
S255
G1 X31.1804 Y3.1071
S255
G1 X31.1901 Y3.0992
S255
G1 X31.2276 Y3.0713
S255
G1 X31.2420 Y3.0621
S255
G1 X31.2573 Y3.0545
S255
G1 X31.2733 Y3.0484
S255
G1 X31.2856 Y3.0449
S255
G1 X31.3401 Y3.0332
S255
G1 X31.3526 Y3.0316
S255
G1 X31.3693 Y3.0309
S255
G1 X31.3859 Y3.0319
S255
G1 X31.3983 Y3.0336
S255
G1 X31.4547 Y3.0454
S255
G1 X31.4665 Y3.0490
S255
G1 X31.4819 Y3.0550
S255
G1 X31.4930 Y3.0605
S255
G1 X31.5037 Y3.0668
S255
G1 X31.5139 Y3.0738
S255
G1 X31.5512 Y3.1018
S255
G1 X31.5608 Y3.1099
S255
G1 X31.5697 Y3.1186
S255
G1 X31.5806 Y3.1313
S255
G1 X31.5902 Y3.1450
S255
G1 X31.6153 Y3.1893
S255
G1 X31.6223 Y3.2034
S255
G1 X31.6268 Y3.2144
S255
G1 X31.6293 Y3.2219
S255
G1 X31.6714 Y3.3567
S255
G1 X31.7229 Y3.4707
S255
G1 X31.7876 Y3.5776
S255
G1 X31.8648 Y3.6762
S255
G1 X31.9528 Y3.7643
S255
G1 X32.0514 Y3.8415
S255
G1 X32.1584 Y3.9061
S255
G1 X32.2723 Y3.9576
S255
G1 X32.3910 Y3.9946
S255
G1 X32.5142 Y4.0169
S255
G1 X32.6390 Y4.0247
S255
G1 X32.7637 Y4.0169
S255
G1 X32.8870 Y3.9946
S255
G1 X33.0057 Y3.9576
S255
G1 X33.1196 Y3.9061
S255
G1 X33.2266 Y3.8415
S255
G1 X33.3252 Y3.7643
S255
G1 X33.4132 Y3.6762
S255
G1 X33.4904 Y3.5777
S255
G1 X33.5551 Y3.4707
S255
G1 X33.6066 Y3.3567
S255
G1 X33.6487 Y3.2219
S255
G1 X33.6526 Y3.2107
S255
G1 X33.6573 Y3.1998
S255
G1 X33.6627 Y3.1893
S255
G1 X33.6836 Y3.1522
S255
G1 X33.6901 Y3.1415
S255
G1 X33.6974 Y3.1313
S255
G1 X33.7027 Y3.1248
S255
G1 X33.7142 Y3.1127
S255
G1 X33.7268 Y3.1017
S255
G1 X33.7676 Y3.0713
S255
G1 X33.7820 Y3.0621
S255
G1 X33.7934 Y3.0562
S255
G1 X33.8092 Y3.0497
S255
G1 X33.8215 Y3.0459
S255
G1 X33.8719 Y3.0348
S255
G1 X33.8843 Y3.0326
S255
G1 X33.8967 Y3.0313
S255
G1 X33.9134 Y3.0310
S255
G1 X33.9259 Y3.0319
S255
G1 X33.9424 Y3.0344
S255
G1 X33.9907 Y3.0445
S255
G1 X34.0026 Y3.0477
S255
G1 X34.0143 Y3.0518
S255
G1 X34.0219 Y3.0550
S255
G1 X34.0294 Y3.0586
S255
G1 X34.0402 Y3.0646
S255
G1 X34.0539 Y3.0738
S255
G1 X34.0912 Y3.1018
S255
G1 X34.1008 Y3.1099
S255
G1 X34.1097 Y3.1186
S255
G1 X34.1206 Y3.1313
S255
G1 X34.1302 Y3.1450
S255
G1 X34.1553 Y3.1893
S255
G1 X34.1623 Y3.2034
S255
G1 X34.1681 Y3.2181
S255
G1 X34.2114 Y3.3567
S255
G1 X34.2629 Y3.4707
S255
G1 X34.3276 Y3.5777
S255
G1 X34.4048 Y3.6762
S255
G1 X34.4928 Y3.7643
S255
G1 X34.5967 Y3.8459
S255
G1 X34.6094 Y3.8582
S255
G1 X34.6303 Y3.8805
S255
G1 X34.6386 Y3.8902
S255
G1 X34.6486 Y3.9041
S255
G1 X34.6552 Y3.9151
S255
G1 X34.6723 Y3.9501
S255
G1 X34.6789 Y3.9658
S255
G1 X34.6828 Y3.9779
S255
G1 X34.6857 Y3.9902
S255
G1 X34.6918 Y4.0291
S255
G1 X34.6932 Y4.0417
S255
G1 X34.6937 Y4.0543
S255
G1 X34.6937 Y10.6086
S255
G1 X34.6932 Y10.6208
S255
G1 X34.6913 Y10.6370
S255
G1 X34.6821 Y10.6843
S255
G1 X34.6776 Y10.7007
S255
G1 X34.6715 Y10.7165
S255
G1 X34.6679 Y10.7242
S255
G1 X34.6617 Y10.7354
S255
G1 X34.6353 Y10.7750
S255
G1 X34.6255 Y10.7882
S255
G1 X34.6144 Y10.8004
S255
G1 X33.5305 Y11.8843
S255
G1 X33.5180 Y11.8951
S255
G1 X33.5080 Y11.9023
S255
G1 X33.4720 Y11.9265
S255
G1 X33.4647 Y11.9309
S255
G1 X33.4534 Y11.9367
S255
G1 X33.4377 Y11.9432
S255
G1 X33.4215 Y11.9481
S255
G1 X33.3700 Y11.9583
S255
G1 X33.3538 Y11.9602
S255
G1 X33.3416 Y11.9607
S255
G1 X20.1635 Y11.9607
S255
G1 X20.1511 Y11.9602
S255
G1 X20.1346 Y11.9582
S255
G1 X20.0792 Y11.9460
S255
G1 X20.0674 Y11.9426
S255
G1 X20.0597 Y11.9398
S255
G1 X20.0521 Y11.9367
S255
G1 X20.0410 Y11.9313
S255
G1 X20.0303 Y11.9252
S255
G1 X20.0201 Y11.9183
S255
G1 X19.9817 Y11.8889
S255
G1 X19.9690 Y11.8781
S255
G1 X19.9574 Y11.8661
S255
G1 X19.9471 Y11.8530
S255
G1 X19.9380 Y11.8390
S255
G1 X19.9137 Y11.7921
S255
G1 X19.9084 Y11.7808
S255
G1 X19.9040 Y11.7691
S255
G1 X19.9004 Y11.7572
S255
G1 X19.8978 Y11.7451
S255
G1 X19.8965 Y11.7369
S255
G1 X19.8951 Y11.7203
S255
G1 X19.8935 Y11.6719
S255
G1 X19.8941 Y11.6550
S255
G1 X19.8965 Y11.6383
S255
G1 X19.9005 Y11.6219
S255
G1 X19.9061 Y11.6060
S255
G1 X19.9289 Y11.5541
S255
G1 X19.9347 Y11.5434
S255
G1 X19.9436 Y11.5299
S255
G1 X19.9537 Y11.5172
S255
G1 X19.9621 Y11.5084
S255
G1 X20.0011 Y11.4733
S255
G1 X20.0144 Y11.4626
S255
G1 X20.0251 Y11.4555
S255
G1 X20.0917 Y11.4186
S255
G1 X20.2209 Y11.3276
S255
G1 X20.3399 Y11.2237
S255
G1 X20.4470 Y11.1075
S255
G1 X20.5414 Y10.9807
S255
G1 X20.6215 Y10.8446
S255
G1 X20.6867 Y10.7005
S255
G1 X20.7364 Y10.5506
S255
G1 X20.7696 Y10.3961
S255
G1 X20.7865 Y10.2388
S255
G1 X20.7865 Y10.0812
S255
G1 X20.7696 Y9.9239
S255
G1 X20.7364 Y9.7694
S255
G1 X20.6867 Y9.6195
S255
G1 X20.6215 Y9.4754
S255
G1 X20.5414 Y9.3392
S255
G1 X20.4470 Y9.2125
S255
G1 X20.3399 Y9.0963
S255
G1 X20.2209 Y8.9924
S255
G1 X20.0914 Y8.9012
S255
G1 X19.9410 Y8.8177
S255
G1 X19.8940 Y8.7878
S255
G1 X19.8808 Y8.7780
S255
G1 X19.8686 Y8.7669
S255
G1 X19.8629 Y8.7609
S255
G1 X19.8549 Y8.7515
S255
G1 X19.8477 Y8.7415
S255
G1 X19.8235 Y8.7054
S255
G1 X19.8171 Y8.6945
S255
G1 X19.8099 Y8.6793
S255
G1 X19.8055 Y8.6674
S255
G1 X19.8020 Y8.6553
S255
G1 X19.7911 Y8.6003
S255
G1 X19.7898 Y8.5879
S255
G1 X19.7893 Y8.5755
S255
G1 X19.7893 Y6.1069
S255
G1 X19.7823 Y6.0202
S255
G1 X19.7646 Y5.9463
S255
G1 X19.7357 Y5.8761
S255
G1 X19.6961 Y5.8115
S255
G1 X19.6396 Y5.7459
S255
G1 X18.7651 Y4.8714
S255
G1 X18.6995 Y4.8149
S255
G1 X18.6349 Y4.7753
S255
G1 X18.5647 Y4.7464
S255
G1 X18.4908 Y4.7287
S255
G1 X18.4041 Y4.7217
S255
G1 X13.5214 Y4.7217
S255
G1 X13.5092 Y4.7212
S255
G1 X13.4929 Y4.7193
S255
G1 X13.4498 Y4.7109
S255
G1 X13.4374 Y4.7080
S255
G1 X13.4253 Y4.7042
S255
G1 X13.4135 Y4.6995
S255
G1 X13.3983 Y4.6919
S255
G1 X13.3875 Y4.6852
S255
G1 X13.3516 Y4.6610
S255
G1 X13.3418 Y4.6535
S255
G1 X13.3325 Y4.6453
S255
G1 X12.9115 Y4.2243
S255
G1 X12.9027 Y4.2148
S255
G1 X12.8921 Y4.2011
S255
G1 X12.8641 Y4.1585
S255
G1 X12.8560 Y4.1440
S255
G1 X12.8494 Y4.1288
S255
G1 X12.8443 Y4.1131
S255
G1 X12.8407 Y4.0970
S255
G1 X12.8335 Y4.0466
S255
G1 X12.8323 Y4.0304
S255
G1 X12.8325 Y4.0181
S255
G1 X12.8331 Y4.0100
S255
G1 X12.8354 Y3.9938
S255
G1 X12.8382 Y3.9819
S255
G1 X12.8505 Y3.9366
S255
G1 X12.8563 Y3.9205
S255
G1 X12.8616 Y3.9088
S255
G1 X12.8678 Y3.8976
S255
G1 X12.8774 Y3.8834
S255
G1 X12.9127 Y3.8405
S255
G1 X12.9239 Y3.8289
S255
G1 X12.9361 Y3.8184
S255
G1 X13.0052 Y3.7643
S255
G1 X13.0932 Y3.6762
S255
G1 X13.1704 Y3.5776
S255
G1 X13.2351 Y3.4707
S255
G1 X13.2865 Y3.3569
S255
G1 X13.3236 Y3.2373
S255
G1 X13.3462 Y3.1149
S255
G1 X13.3540 Y2.9821
S255
G1 X13.3540 Y2.0979
S255
G1 X13.3462 Y1.9651
S255
G1 X13.3236 Y1.8427
S255
G1 X13.2865 Y1.7231
S255
G1 X13.2351 Y1.6093
S255
G1 X13.1704 Y1.5023
S255
G1 X13.0932 Y1.4037
S255
G1 X13.0052 Y1.3157
S255
G1 X12.9066 Y1.2385
S255
G1 X12.7996 Y1.1738
S255
G1 X12.6857 Y1.1224
S255
G1 X12.5670 Y1.0854
S255
G1 X12.4437 Y1.0631
S255
G1 X12.3190 Y1.0553
S255
G1 X12.1942 Y1.0631
S255
G1 X12.0710 Y1.0854
S255
G1 X11.9523 Y1.1224
S255
G1 X11.8384 Y1.1738
S255
G1 X11.7314 Y1.2385
S255
G1 X11.6328 Y1.3157
S255
G1 X11.5448 Y1.4037
S255
G1 X11.4676 Y1.5023
S255
G1 X11.4029 Y1.6093
S255
G1 X11.3514 Y1.7233
S255
G1 X11.3093 Y1.8581
S255
G1 X11.3039 Y1.8730
S255
G1 X11.2971 Y1.8873
S255
G1 X11.2723 Y1.9314
S255
G1 X11.2631 Y1.9453
S255
G1 X11.2553 Y1.9551
S255
G1 X11.2438 Y1.9673
S255
G1 X11.2377 Y1.9729
S255
G1 X11.2279 Y1.9808
S255
G1 X11.1869 Y2.0111
S255
G1 X11.1760 Y2.0179
S255
G1 X11.1646 Y2.0237
S255
G1 X11.1528 Y2.0288
S255
G1 X11.1447 Y2.0316
S255
G1 X11.1282 Y2.0361
S255
G1 X11.0779 Y2.0468
S255
G1 X11.0654 Y2.0484
S255
G1 X11.0529 Y2.0491
S255
G1 X11.0362 Y2.0485
S255
G1 X11.0238 Y2.0471
S255
G1 X11.0155 Y2.0456
S255
G1 X10.9633 Y2.0345
S255
G1 X10.9515 Y2.0310
S255
G1 X10.9361 Y2.0250
S255
G1 X10.9214 Y2.0175
S255
G1 X10.9109 Y2.0110
S255
G1 X10.8701 Y1.9808
S255
G1 X10.8635 Y1.9756
S255
G1 X10.8542 Y1.9673
S255
G1 X10.8454 Y1.9583
S255
G1 X10.8400 Y1.9520
S255
G1 X10.8325 Y1.9419
S255
G1 X10.8257 Y1.9314
S255
G1 X10.8008 Y1.8873
S255
G1 X10.7941 Y1.8730
S255
G1 X10.7887 Y1.8581
S255
G1 X10.7466 Y1.7233
S255
G1 X10.6951 Y1.6093
S255
G1 X10.6304 Y1.5023
S255
G1 X10.5532 Y1.4037
S255
G1 X10.4652 Y1.3157
S255
G1 X10.3666 Y1.2385
S255
G1 X10.2596 Y1.1738
S255
G1 X10.1457 Y1.1224
S255
G1 X10.0270 Y1.0854
S255
G1 X9.9037 Y1.0631
S255
G1 X9.7790 Y1.0553
S255
G1 X9.6542 Y1.0631
S255
G1 X9.5310 Y1.0854
S255
G1 X9.4123 Y1.1224
S255
G1 X9.2984 Y1.1738
S255
G1 X9.1914 Y1.2385
S255
G1 X9.0928 Y1.3157
S255
G1 X9.0048 Y1.4037
S255
G1 X8.9276 Y1.5023
S255
G1 X8.8629 Y1.6093
S255
G1 X8.8114 Y1.7233
S255
G1 X8.7693 Y1.8581
S255
G1 X8.7639 Y1.8730
S255
G1 X8.7571 Y1.8873
S255
G1 X8.7323 Y1.9314
S255
G1 X8.7231 Y1.9453
S255
G1 X8.7153 Y1.9551
S255
G1 X8.7068 Y1.9644
S255
G1 X8.7008 Y1.9701
S255
G1 X8.6879 Y1.9808
S255
G1 X8.6469 Y2.0111
S255
G1 X8.6360 Y2.0179
S255
G1 X8.6246 Y2.0237
S255
G1 X8.6128 Y2.0288
S255
G1 X8.6047 Y2.0316
S255
G1 X8.5882 Y2.0361
S255
G1 X8.5379 Y2.0468
S255
G1 X8.5254 Y2.0484
S255
G1 X8.5129 Y2.0491
S255
G1 X8.4962 Y2.0485
S255
G1 X8.4879 Y2.0476
S255
G1 X8.4755 Y2.0456
S255
G1 X8.4233 Y2.0345
S255
G1 X8.4115 Y2.0310
S255
G1 X8.3961 Y2.0250
S255
G1 X8.3814 Y2.0175
S255
G1 X8.3709 Y2.0110
S255
G1 X8.3642 Y2.0062
S255
G1 X8.3235 Y1.9756
S255
G1 X8.3142 Y1.9673
S255
G1 X8.3054 Y1.9583
S255
G1 X8.2949 Y1.9453
S255
G1 X8.2857 Y1.9314
S255
G1 X8.2608 Y1.8873
S255
G1 X8.2541 Y1.8730
S255
G1 X8.2487 Y1.8581
S255
G1 X8.2066 Y1.7233
S255
G1 X8.1551 Y1.6093
S255
G1 X8.0904 Y1.5023
S255
G1 X8.0132 Y1.4037
S255
G1 X7.9252 Y1.3157
S255
G1 X7.8266 Y1.2385
S255
G1 X7.7196 Y1.1738
S255
G1 X7.6057 Y1.1224
S255
G1 X7.4870 Y1.0854
S255
G1 X7.3637 Y1.0631
S255
G1 X7.2390 Y1.0553
S255
G1 X7.1142 Y1.0631
S255
G1 X6.9910 Y1.0854
S255
G1 X6.8723 Y1.1224
S255
G1 X6.7584 Y1.1738
S255
G1 X6.6514 Y1.2385
S255
G1 X6.5528 Y1.3157
S255
G1 X6.4648 Y1.4037
S255
G1 X6.3876 Y1.5023
S255
G1 X6.3229 Y1.6093
S255
G1 X6.2715 Y1.7231
S255
G1 X6.2344 Y1.8427
S255
G1 X6.2118 Y1.9651
S255
G1 X6.2040 Y2.0979
S255
G1 X6.2040 Y2.9821
S255
G1 X6.2118 Y3.1149
S255
G1 X6.2344 Y3.2373
S255
G1 X6.2715 Y3.3569
S255
G1 X6.3229 Y3.4707
S255
G1 X6.3876 Y3.5776
S255
G1 X6.4648 Y3.6762
S255
G1 X6.5528 Y3.7643
S255
G1 X6.6514 Y3.8415
S255
G1 X6.7584 Y3.9061
S255
G1 X6.8527 Y3.9487
S255
G1 X6.8676 Y3.9563
S255
G1 X6.8782 Y3.9629
S255
G1 X6.9136 Y3.9881
S255
G1 X6.9234 Y3.9957
S255
G1 X6.9326 Y4.0039
S255
G1 X6.9412 Y4.0128
S255
G1 X6.9492 Y4.0223
S255
G1 X6.9586 Y4.0358
S255
G1 X6.9794 Y4.0688
S255
G1 X6.9859 Y4.0800
S255
G1 X6.9932 Y4.0956
S255
G1 X6.9962 Y4.1037
S255
G1 X7.0000 Y4.1161
S255
G1 X7.0028 Y4.1287
S255
G1 X7.0106 Y4.1714
S255
G1 X7.0122 Y4.1838
S255
G1 X7.0128 Y4.1963
S255
G1 X7.0121 Y4.2130
S255
G1 X7.0106 Y4.2254
S255
G1 X6.9989 Y4.2798
S255
G1 X6.9953 Y4.2917
S255
G1 X6.9891 Y4.3072
S255
G1 X6.9814 Y4.3220
S255
G1 X6.9747 Y4.3325
S255
G1 X6.9500 Y4.3684
S255
G1 X6.9424 Y4.3781
S255
G1 X6.9341 Y4.3873
S255
G1 X6.9220 Y4.3985
S255
G1 X6.9090 Y4.4085
S255
G1 X6.8696 Y4.4344
S255
G1 X6.8589 Y4.4405
S255
G1 X6.8478 Y4.4458
S255
G1 X6.8325 Y4.4517
S255
G1 X6.8167 Y4.4560
S255
G1 X6.7700 Y4.4652
S255
G1 X6.7577 Y4.4669
S255
G1 X6.7494 Y4.4675
S255
G1 X3.8209 Y4.4677
S255
G1 X3.7342 Y4.4747
S255
G1 X3.6603 Y4.4924
S255
G1 X3.5901 Y4.5213
S255
G1 X3.5255 Y4.5609
S255
G1 X3.4599 Y4.6174
S255
G1 X1.3154 Y6.7619
S255
G1 X1.2589 Y6.8275
S255
G1 X1.2193 Y6.8921
S255
G1 X1.1904 Y6.9623
S255
G1 X1.1727 Y7.0362
S255
G1 X1.1657 Y7.1229
S255
G1 X1.1657 Y43.1691
S255
G1 X1.1727 Y43.2558
S255
G1 X1.1904 Y43.3297
S255
G1 X1.2193 Y43.3999
S255
G1 X1.2589 Y43.4645
S255
G1 X1.3154 Y43.5301
S255
G1 X5.1109 Y47.3256
S255
G1 X5.1765 Y47.3821
S255
G1 X5.2411 Y47.4217
S255
G1 X5.3113 Y47.4506
S255
G1 X5.3852 Y47.4683
S255
G1 X5.4719 Y47.4753
S255
G1 X15.2291 Y47.4753
S255
G1 X15.3158 Y47.4683
S255
G1 X15.3897 Y47.4506
S255
G1 X15.4599 Y47.4217
S255
G1 X15.5245 Y47.3821
S255
G1 X15.5901 Y47.3256
S255
G1 X18.2826 Y44.6336
S255
G1 X18.2917 Y44.6251
S255
G1 X18.3013 Y44.6174
S255
G1 X18.3405 Y44.5908
S255
G1 X18.3551 Y44.5821
S255
G1 X18.3704 Y44.5748
S255
G1 X18.3864 Y44.5691
S255
G1 X18.4028 Y44.5651
S255
G1 X18.4500 Y44.5561
S255
G1 X18.4622 Y44.5548
S255
G1 X18.4744 Y44.5543
S255
G1 X22.4196 Y44.5543
S255
G1 X22.4318 Y44.5548
S255
G1 X22.4440 Y44.5561
S255
G1 X22.4995 Y44.5669
S255
G1 X22.5117 Y44.5704
S255
G1 X22.5236 Y44.5748
S255
G1 X22.5352 Y44.5801
S255
G1 X22.5463 Y44.5863
S255
G1 X22.5894 Y44.6150
S255
G1 X22.5992 Y44.6225
S255
G1 X22.6085 Y44.6307
S255
G1 X23.1873 Y45.2095
S255
G1 X23.1955 Y45.2188
S255
G1 X23.2030 Y45.2286
S255
G1 X23.2272 Y45.2645
S255
G1 X23.2359 Y45.2790
S255
G1 X23.2415 Y45.2905
S255
G1 X23.2476 Y45.3063
S255
G1 X23.2521 Y45.3227
S255
G1 X23.2613 Y45.3699
S255
G1 X23.2632 Y45.3862
S255
G1 X23.2637 Y45.3984
S255
G1 X23.2635 Y45.7381
S255
G1 X23.2618 Y45.7549
S255
G1 X23.2557 Y45.7937
S255
G1 X23.2539 Y45.8020
S255
G1 X23.2503 Y45.8142
S255
G1 X23.2441 Y45.8300
S255
G1 X23.2272 Y45.8651
S255
G1 X23.2209 Y45.8763
S255
G1 X23.2113 Y45.8904
S255
G1 X23.2003 Y45.9035
S255
G1 X23.1764 Y45.9290
S255
G1 X23.1633 Y45.9410
S255
G1 X23.0628 Y46.0197
S255
G1 X22.9748 Y46.1077
S255
G1 X22.8976 Y46.2063
S255
G1 X22.8329 Y46.3133
S255
G1 X22.7815 Y46.4271
S255
G1 X22.7444 Y46.5467
S255
G1 X22.7218 Y46.6691
S255
G1 X22.7140 Y46.8019
S255
G1 X22.7140 Y47.6861
S255
G1 X22.7218 Y47.8189
S255
G1 X22.7444 Y47.9413
S255
G1 X22.7815 Y48.0609
S255
G1 X22.8329 Y48.1747
S255
G1 X22.8976 Y48.2816
S255
G1 X22.9748 Y48.3802
S255
G1 X23.0628 Y48.4683
S255
G1 X23.1614 Y48.5455
S255
G1 X23.2684 Y48.6101
S255
G1 X23.3823 Y48.6616
S255
G1 X23.5010 Y48.6986
S255
G1 X23.6242 Y48.7209
S255
G1 X23.7490 Y48.7287
S255
G1 X23.8737 Y48.7209
S255
G1 X23.9970 Y48.6986
S255
G1 X24.1157 Y48.6616
S255
G1 X24.2296 Y48.6101
S255
G1 X24.3366 Y48.5455
S255
G1 X24.4352 Y48.4683
S255
G1 X24.5232 Y48.3802
S255
G1 X24.6004 Y48.2816
S255
G1 X24.6651 Y48.1747
S255
G1 X24.7166 Y48.0607
S255
G1 X24.7587 Y47.9259
S255
G1 X24.7641 Y47.9110
S255
G1 X24.7708 Y47.8967
S255
G1 X24.7936 Y47.8562
S255
G1 X24.8001 Y47.8455
S255
G1 X24.8074 Y47.8353
S255
G1 X24.8127 Y47.8288
S255
G1 X24.8212 Y47.8196
S255
G1 X24.8304 Y47.8111
S255
G1 X24.8368 Y47.8057
S255
G1 X24.8811 Y47.7729
S255
G1 X24.8920 Y47.7661
S255
G1 X24.9034 Y47.7602
S255
G1 X24.9112 Y47.7568
S255
G1 X24.9233 Y47.7524
S255
G1 X24.9398 Y47.7479
S255
G1 X24.9901 Y47.7372
S255
G1 X25.0026 Y47.7356
S255
G1 X25.0151 Y47.7349
S255
G1 X25.0318 Y47.7355
S255
G1 X25.0401 Y47.7363
S255
G1 X25.0524 Y47.7384
S255
G1 X25.1047 Y47.7494
S255
G1 X25.1204 Y47.7543
S255
G1 X25.1319 Y47.7590
S255
G1 X25.1430 Y47.7645
S255
G1 X25.1571 Y47.7730
S255
G1 X25.1979 Y47.8032
S255
G1 X25.2077 Y47.8111
S255
G1 X25.2138 Y47.8167
S255
G1 X25.2197 Y47.8226
S255
G1 X25.2280 Y47.8320
S255
G1 X25.2355 Y47.8420
S255
G1 X25.2423 Y47.8526
S255
G1 X25.2671 Y47.8967
S255
G1 X25.2739 Y47.9110
S255
G1 X25.2793 Y47.9259
S255
G1 X25.3214 Y48.0607
S255
G1 X25.3729 Y48.1747
S255
G1 X25.4376 Y48.2816
S255
G1 X25.5148 Y48.3802
S255
G1 X25.6028 Y48.4683
S255
G1 X25.7014 Y48.5455
S255
G1 X25.8084 Y48.6101
S255
G1 X25.9223 Y48.6616
S255
G1 X26.0410 Y48.6986
S255
G1 X26.1642 Y48.7209
S255
G1 X26.2890 Y48.7287
S255
G1 X26.4137 Y48.7209
S255
G1 X26.5370 Y48.6986
S255
G1 X26.6557 Y48.6616
S255
G1 X26.7696 Y48.6101
S255
G1 X26.8766 Y48.5455
S255
G1 X26.9752 Y48.4683
S255
G1 X27.0635 Y48.3800
S255
G1 X27.1092 Y48.3222
S255
G1 X27.1196 Y48.3102
S255
G1 X27.1282 Y48.3018
S255
G1 X27.1616 Y48.2728
S255
G1 X27.1717 Y48.2647
S255
G1 X27.1787 Y48.2597
S255
G1 X27.1860 Y48.2552
S255
G1 X27.1973 Y48.2490
S255
G1 X27.2091 Y48.2437
S255
G1 X27.2212 Y48.2393
S255
G1 X27.2593 Y48.2271
S255
G1 X27.2715 Y48.2237
S255
G1 X27.2882 Y48.2206
S255
G1 X27.3051 Y48.2191
S255
G1 X27.3220 Y48.2194
S255
G1 X27.3743 Y48.2242
S255
G1 X27.3867 Y48.2264
S255
G1 X27.3949 Y48.2284
S255
G1 X27.4110 Y48.2336
S255
G1 X27.4188 Y48.2368
S255
G1 X27.4302 Y48.2423
S255
G1 X27.4657 Y48.2611
S255
G1 X27.4767 Y48.2674
S255
G1 X27.4838 Y48.2721
S255
G1 X27.4939 Y48.2798
S255
G1 X27.5003 Y48.2853
S255
G1 X27.5094 Y48.2941
S255
G1 X27.5178 Y48.3036
S255
G1 X27.5432 Y48.3346
S255
G1 X27.5507 Y48.3445
S255
G1 X27.5574 Y48.3549
S255
G1 X27.5615 Y48.3621
S255
G1 X27.5652 Y48.3694
S255
G1 X27.5701 Y48.3808
S255
G1 X27.5742 Y48.3925
S255
G1 X27.5859 Y48.4306
S255
G1 X27.5901 Y48.4475
S255
G1 X27.5926 Y48.4647
S255
G1 X27.5996 Y48.5396
S255
G1 X27.6131 Y48.5832
S255
G1 X27.6348 Y48.6242
S255
G1 X27.6635 Y48.6594
S255
G1 X27.6991 Y48.6885
S255
G1 X27.7397 Y48.7102
S255
G1 X27.7831 Y48.7233
S255
G1 X27.8420 Y48.7291
S255
G1 X29.8159 Y48.7291
S255
G1 X29.8749 Y48.7233
S255
G1 X29.9183 Y48.7102
S255
G1 X29.9589 Y48.6885
S255
G1 X29.9944 Y48.6594
S255
G1 X30.0232 Y48.6242
S255
G1 X30.0449 Y48.5832
S255
G1 X30.0585 Y48.5393
S255
G1 X30.0641 Y48.4809
S255
G1 X30.0641 Y46.0071
S255
G1 X30.0585 Y45.9487
S255
G1 X30.0449 Y45.9048
S255
G1 X30.0232 Y45.8638
S255
G1 X29.9944 Y45.8286
S255
G1 X29.9589 Y45.7995
S255
G1 X29.9183 Y45.7778
S255
G1 X29.8747 Y45.7646
S255
G1 X29.8090 Y45.7581
S255
G1 X29.7960 Y45.7563
S255
G1 X29.7790 Y45.7524
S255
G1 X29.7434 Y45.7422
S255
G1 X29.7319 Y45.7385
S255
G1 X29.7243 Y45.7355
S255
G1 X29.7133 Y45.7304
S255
G1 X29.7026 Y45.7245
S255
G1 X29.6958 Y45.7202
S255
G1 X29.6859 Y45.7131
S255
G1 X29.6565 Y45.6902
S255
G1 X29.6467 Y45.6820
S255
G1 X29.6405 Y45.6762
S255
G1 X29.6319 Y45.6669
S255
G1 X29.6215 Y45.6535
S255
G1 X29.5948 Y45.6115
S255
G1 X29.5908 Y45.6044
S255
G1 X29.5855 Y45.5934
S255
G1 X29.5796 Y45.5783
S255
G1 X29.5772 Y45.5705
S255
G1 X29.5743 Y45.5586
S255
G1 X29.5662 Y45.5138
S255
G1 X29.5645 Y45.4965
S255
G1 X29.5643 Y35.8210
S255
G1 X29.5597 Y35.7335
S255
G1 X29.5581 Y35.7193
S255
G1 X29.5370 Y35.6173
S255
G1 X29.5037 Y35.5225
S255
G1 X29.4569 Y35.4323
S255
G1 X29.4122 Y35.3665
S255
G1 X29.4021 Y35.3538
S255
G1 X29.3437 Y35.2890
S255
G1 X25.0360 Y30.9813
S255
G1 X24.9712 Y30.9229
S255
G1 X24.9585 Y30.9128
S255
G1 X24.8927 Y30.8681
S255
G1 X24.8025 Y30.8213
S255
G1 X24.7077 Y30.7879
S255
G1 X24.6057 Y30.7669
S255
G1 X24.5915 Y30.7653
S255
G1 X24.5040 Y30.7607
S255
G1 X16.5501 Y30.7607
S255
G1 X16.5370 Y30.7602
S255
G1 X16.5239 Y30.7587
S255
G1 X16.4833 Y30.7522
S255
G1 X16.4676 Y30.7481
S255
G1 X16.4560 Y30.7441
S255
G1 X16.4411 Y30.7375
S255
G1 X16.4044 Y30.7179
S255
G1 X16.3905 Y30.7091
S255
G1 X16.3776 Y30.6990
S255
G1 X16.3656 Y30.6878
S255
G1 X16.3348 Y30.6538
S255
G1 X16.3268 Y30.6434
S255
G1 X16.3048 Y30.6106
S255
G1 X16.2041 Y30.4888
S255
G1 X16.0907 Y30.3786
S255
G1 X15.9462 Y30.2652
S255
G1 X15.9373 Y30.2569
S255
G1 X15.9131 Y30.2316
S255
G1 X15.9023 Y30.2192
S255
G1 X15.8928 Y30.2059
S255
G1 X15.8847 Y30.1917
S255
G1 X15.8679 Y30.1567
S255
G1 X15.8617 Y30.1409
S255
G1 X15.8571 Y30.1245
S255
G1 X15.8547 Y30.1120
S255
G1 X15.8496 Y30.0773
S255
G1 X15.8485 Y30.0647
S255
G1 X15.8483 Y30.0563
S255
G1 X15.8483 Y24.0100
S255
G1 X15.8437 Y23.9225
S255
G1 X15.8421 Y23.9083
S255
G1 X15.8210 Y23.8063
S255
G1 X15.7877 Y23.7115
S255
G1 X15.7410 Y23.6216
S255
G1 X15.6995 Y23.5608
S255
G1 X15.6601 Y23.5153
S255
G1 X15.6493 Y23.5015
S255
G1 X15.6422 Y23.4905
S255
G1 X15.6199 Y23.4523
S255
G1 X15.6163 Y23.4449
S255
G1 X15.6115 Y23.4336
S255
G1 X15.6075 Y23.4219
S255
G1 X15.6044 Y23.4099
S255
G1 X15.5960 Y23.3622
S255
G1 X15.5951 Y23.3540
S255
G1 X15.5943 Y23.3416
S255
G1 X15.5943 Y19.0602
S255
G1 X15.5947 Y19.0481
S255
G1 X15.5960 Y19.0362
S255
G1 X15.6038 Y18.9903
S255
G1 X15.6082 Y18.9739
S255
G1 X15.6111 Y18.9659
S255
G1 X15.6161 Y18.9541
S255
G1 X15.6357 Y18.9170
S255
G1 X15.6444 Y18.9025
S255
G1 X15.6519 Y18.8922
S255
G1 X15.7105 Y18.8175
S255
G1 X15.7751 Y18.7107
S255
G1 X15.8266 Y18.5967
S255
G1 X15.8687 Y18.4619
S255
G1 X15.8741 Y18.4470
S255
G1 X15.8808 Y18.4327
S255
G1 X15.9078 Y18.3850
S255
G1 X15.9125 Y18.3780
S255
G1 X15.9200 Y18.3680
S255
G1 X15.9283 Y18.3586
S255
G1 X15.9372 Y18.3498
S255
G1 X15.9501 Y18.3392
S255
G1 X15.9876 Y18.3113
S255
G1 X16.0020 Y18.3021
S255
G1 X16.0173 Y18.2945
S255
G1 X16.0333 Y18.2884
S255
G1 X16.0498 Y18.2839
S255
G1 X16.0960 Y18.2739
S255
G1 X16.1084 Y18.2720
S255
G1 X16.1251 Y18.2709
S255
G1 X16.1334 Y18.2710
S255
G1 X16.1459 Y18.2719
S255
G1 X16.1624 Y18.2744
S255
G1 X16.2066 Y18.2836
S255
G1 X16.2187 Y18.2865
S255
G1 X16.2304 Y18.2903
S255
G1 X16.2381 Y18.2934
S255
G1 X16.2494 Y18.2986
S255
G1 X16.2602 Y18.3046
S255
G1 X16.2739 Y18.3138
S255
G1 X16.3112 Y18.3418
S255
G1 X16.3208 Y18.3499
S255
G1 X16.3297 Y18.3586
S255
G1 X16.3406 Y18.3713
S255
G1 X16.3502 Y18.3850
S255
G1 X16.3753 Y18.4293
S255
G1 X16.3823 Y18.4434
S255
G1 X16.3881 Y18.4581
S255
G1 X16.4314 Y18.5967
S255
G1 X16.4829 Y18.7107
S255
G1 X16.5476 Y18.8176
S255
G1 X16.6248 Y18.9162
S255
G1 X16.7128 Y19.0043
S255
G1 X16.8114 Y19.0815
S255
G1 X16.9184 Y19.1461
S255
G1 X17.0323 Y19.1976
S255
G1 X17.1510 Y19.2346
S255
G1 X17.2742 Y19.2569
S255
G1 X17.3990 Y19.2647
S255
G1 X17.5237 Y19.2569
S255
G1 X17.6470 Y19.2346
S255
G1 X17.7657 Y19.1976
S255
G1 X17.8796 Y19.1461
S255
G1 X17.9866 Y19.0815
S255
G1 X18.0852 Y19.0043
S255
G1 X18.1732 Y18.9162
S255
G1 X18.2504 Y18.8176
S255
G1 X18.3151 Y18.7107
S255
G1 X18.3666 Y18.5967
S255
G1 X18.4087 Y18.4619
S255
G1 X18.4126 Y18.4507
S255
G1 X18.4156 Y18.4434
S255
G1 X18.4227 Y18.4293
S255
G1 X18.4478 Y18.3850
S255
G1 X18.4574 Y18.3713
S255
G1 X18.4683 Y18.3586
S255
G1 X18.4772 Y18.3498
S255
G1 X18.4868 Y18.3417
S255
G1 X18.5242 Y18.3138
S255
G1 X18.5347 Y18.3065
S255
G1 X18.5458 Y18.3001
S255
G1 X18.5573 Y18.2945
S255
G1 X18.5692 Y18.2897
S255
G1 X18.5815 Y18.2859
S255
G1 X18.6360 Y18.2739
S255
G1 X18.6526 Y18.2716
S255
G1 X18.6651 Y18.2709
S255
G1 X18.6818 Y18.2715
S255
G1 X18.6942 Y18.2729
S255
G1 X18.7507 Y18.2845
S255
G1 X18.7626 Y18.2877
S255
G1 X18.7781 Y18.2934
S255
G1 X18.7930 Y18.3005
S255
G1 X18.8071 Y18.3090
S255
G1 X18.8479 Y18.3392
S255
G1 X18.8577 Y18.3471
S255
G1 X18.8697 Y18.3586
S255
G1 X18.8780 Y18.3680
S255
G1 X18.8831 Y18.3747
S255
G1 X18.8902 Y18.3850
S255
G1 X18.8944 Y18.3922
S255
G1 X18.9171 Y18.4327
S255
G1 X18.9239 Y18.4470
S255
G1 X18.9293 Y18.4619
S255
G1 X18.9714 Y18.5967
S255
G1 X19.0229 Y18.7107
S255
G1 X19.0876 Y18.8176
S255
G1 X19.1648 Y18.9162
S255
G1 X19.2529 Y19.0043
S255
G1 X19.3259 Y19.0616
S255
G1 X19.3354 Y19.0702
S255
G1 X19.3443 Y19.0794
S255
G1 X19.3778 Y19.1204
S255
G1 X19.3875 Y19.1338
S255
G1 X19.3940 Y19.1443
S255
G1 X19.3996 Y19.1554
S255
G1 X19.4044 Y19.1668
S255
G1 X19.4084 Y19.1785
S255
G1 X19.4231 Y19.2378
S255
G1 X19.4250 Y19.2500
S255
G1 X19.4262 Y19.2665
S255
G1 X19.4258 Y19.2830
S255
G1 X19.4244 Y19.2953
S255
G1 X19.4144 Y19.3471
S255
G1 X19.4114 Y19.3596
S255
G1 X19.4060 Y19.3758
S255
G1 X19.4009 Y19.3876
S255
G1 X19.3950 Y19.3989
S255
G1 X19.3857 Y19.4133
S255
G1 X19.3499 Y19.4604
S255
G1 X19.3394 Y19.4720
S255
G1 X18.3334 Y20.4779
S255
G1 X18.2769 Y20.5435
S255
G1 X18.2373 Y20.6081
S255
G1 X18.2084 Y20.6783
S255
G1 X18.1907 Y20.7522
S255
G1 X18.1837 Y20.8389
S255
G1 X18.1837 Y21.1033
S255
G1 X18.1832 Y21.1157
S255
G1 X18.1824 Y21.1240
S255
G1 X18.1805 Y21.1362
S255
G1 X18.1720 Y21.1789
S255
G1 X18.1688 Y21.1909
S255
G1 X18.1633 Y21.2065
S255
G1 X18.1582 Y21.2178
S255
G1 X18.1522 Y21.2287
S255
G1 X18.1212 Y21.2756
S255
G1 X18.1135 Y21.2854
S255
G1 X18.1050 Y21.2945
S255
G1 X18.0960 Y21.3031
S255
G1 X18.0829 Y21.3134
S255
G1 X18.0393 Y21.3427
S255
G1 X18.0242 Y21.3508
S255
G1 X18.0084 Y21.3574
S255
G1 X17.9962 Y21.3612
S255
G1 X17.9879 Y21.3633
S255
G1 X17.9446 Y21.3718
S255
G1 X17.9325 Y21.3737
S255
G1 X17.9162 Y21.3749
S255
G1 X17.8822 Y21.3749
S255
G1 X17.8231 Y21.3807
S255
G1 X17.7795 Y21.3938
S255
G1 X17.7394 Y21.4154
S255
G1 X17.7037 Y21.4446
S255
G1 X17.6746 Y21.4801
S255
G1 X17.6528 Y21.5208
S255
G1 X17.6397 Y21.5642
S255
G1 X17.6340 Y21.6231
S255
G1 X17.6340 Y24.0969
S255
G1 X17.6397 Y24.1558
S255
G1 X17.6528 Y24.1992
S255
G1 X17.6746 Y24.2398
S255
G1 X17.7037 Y24.2754
S255
G1 X17.7394 Y24.3046
S255
G1 X17.7795 Y24.3262
S255
G1 X17.8231 Y24.3393
S255
G1 X17.8822 Y24.3451
S255
G1 X19.4558 Y24.3451
S255
G1 X19.5149 Y24.3393
S255
G1 X19.5585 Y24.3262
S255
G1 X19.5986 Y24.3046
S255
G1 X19.6343 Y24.2754
S255
G1 X19.6634 Y24.2398
S255
G1 X19.6851 Y24.1992
S255
G1 X19.6983 Y24.1558
S255
G1 X19.7040 Y24.0969
S255
G1 X19.7040 Y23.7368
S255
G1 X19.7044 Y23.7248
S255
G1 X19.7057 Y23.7128
S255
G1 X19.7070 Y23.7049
S255
G1 X19.7174 Y23.6568
S255
G1 X19.7221 Y23.6406
S255
G1 X19.7251 Y23.6327
S255
G1 X19.7303 Y23.6212
S255
G1 X19.7342 Y23.6137
S255
G1 X19.7408 Y23.6030
S255
G1 X19.7665 Y23.5659
S255
G1 X19.7742 Y23.5558
S255
G1 X19.7825 Y23.5463
S255
G1 X19.7948 Y23.5346
S255
G1 X19.8047 Y23.5266
S255
G1 X19.8151 Y23.5195
S255
G1 X19.8497 Y23.4976
S255
G1 X19.8604 Y23.4914
S255
G1 X19.8754 Y23.4843
S255
G1 X19.8871 Y23.4799
S255
G1 X19.8990 Y23.4764
S255
G1 X19.9112 Y23.4738
S255
G1 X19.9601 Y23.4665
S255
G1 X19.9686 Y23.4657
S255
G1 X19.9813 Y23.4652
S255
G1 X19.9941 Y23.4657
S255
G1 X20.0025 Y23.4665
S255
G1 X20.0193 Y23.4695
S255
G1 X20.0671 Y23.4818
S255
G1 X20.0790 Y23.4857
S255
G1 X20.0907 Y23.4904
S255
G1 X20.1056 Y23.4981
S255
G1 X20.1197 Y23.5071
S255
G1 X20.1617 Y23.5402
S255
G1 X20.1739 Y23.5515
S255
G1 X20.1850 Y23.5639
S255
G1 X20.1948 Y23.5774
S255
G1 X20.2013 Y23.5880
S255
G1 X20.2252 Y23.6314
S255
G1 X20.2321 Y23.6475
S255
G1 X20.2415 Y23.6768
S255
G1 X20.2929 Y23.7907
S255
G1 X20.3576 Y23.8976
S255
G1 X20.4348 Y23.9962
S255
G1 X20.5228 Y24.0843
S255
G1 X20.6214 Y24.1615
S255
G1 X20.7284 Y24.2261
S255
G1 X20.8423 Y24.2776
S255
G1 X20.9610 Y24.3146
S255
G1 X21.0842 Y24.3369
S255
G1 X21.2090 Y24.3447
S255
G1 X21.3337 Y24.3369
S255
G1 X21.4570 Y24.3146
S255
G1 X21.5757 Y24.2776
S255
G1 X21.6896 Y24.2261
S255
G1 X21.7966 Y24.1615
S255
G1 X21.8952 Y24.0843
S255
G1 X21.9832 Y23.9962
S255
G1 X22.0604 Y23.8976
S255
G1 X22.1251 Y23.7907
S255
G1 X22.1766 Y23.6767
S255
G1 X22.2187 Y23.5419
S255
G1 X22.2226 Y23.5307
S255
G1 X22.2256 Y23.5234
S255
G1 X22.2327 Y23.5093
S255
G1 X22.2536 Y23.4722
S255
G1 X22.2601 Y23.4615
S255
G1 X22.2649 Y23.4546
S255
G1 X22.2727 Y23.4448
S255
G1 X22.2812 Y23.4356
S255
G1 X22.2904 Y23.4271
S255
G1 X22.3001 Y23.4192
S255
G1 X22.3342 Y23.3938
S255
G1 X22.3483 Y23.3843
S255
G1 X22.3596 Y23.3781
S255
G1 X22.3712 Y23.3728
S255
G1 X22.3833 Y23.3684
S255
G1 X22.3956 Y23.3649
S255
G1 X22.4501 Y23.3532
S255
G1 X22.4626 Y23.3516
S255
G1 X22.4793 Y23.3509
S255
G1 X22.4918 Y23.3515
S255
G1 X22.5042 Y23.3529
S255
G1 X22.5607 Y23.3645
S255
G1 X22.5726 Y23.3677
S255
G1 X22.5881 Y23.3734
S255
G1 X22.6030 Y23.3805
S255
G1 X22.6171 Y23.3890
S255
G1 X22.6579 Y23.4192
S255
G1 X22.6677 Y23.4271
S255
G1 X22.6797 Y23.4386
S255
G1 X22.6853 Y23.4448
S255
G1 X22.6931 Y23.4547
S255
G1 X22.7002 Y23.4650
S255
G1 X22.7044 Y23.4722
S255
G1 X22.7271 Y23.5127
S255
G1 X22.7339 Y23.5270
S255
G1 X22.7393 Y23.5419
S255
G1 X22.7814 Y23.6767
S255
G1 X22.8329 Y23.7907
S255
G1 X22.8976 Y23.8976
S255
G1 X22.9748 Y23.9962
S255
G1 X23.0628 Y24.0843
S255
G1 X23.1633 Y24.1630
S255
G1 X23.1764 Y24.1750
S255
G1 X23.2003 Y24.2005
S255
G1 X23.2113 Y24.2136
S255
G1 X23.2186 Y24.2241
S255
G1 X23.2231 Y24.2314
S255
G1 X23.2291 Y24.2427
S255
G1 X23.2458 Y24.2779
S255
G1 X23.2516 Y24.2938
S255
G1 X23.2557 Y24.3102
S255
G1 X23.2624 Y24.3533
S255
G1 X23.2636 Y24.3701
S255
G1 X23.2637 Y25.0081
S255
G1 X23.2707 Y25.0948
S255
G1 X23.2884 Y25.1687
S255
G1 X23.3173 Y25.2389
S255
G1 X23.3569 Y25.3035
S255
G1 X23.4134 Y25.3691
S255
G1 X26.0659 Y28.0216
S255
G1 X26.1315 Y28.0781
S255
G1 X26.1961 Y28.1177
S255
G1 X26.2663 Y28.1466
S255
G1 X26.3402 Y28.1643
S255
G1 X26.4269 Y28.1713
S255
G1 X33.8981 Y28.1713
S255
G1 X33.9848 Y28.1643
S255
G1 X34.0587 Y28.1466
S255
G1 X34.1289 Y28.1177
S255
G1 X34.1935 Y28.0781
S255
G1 X34.2591 Y28.0216
S255
G1 X38.0546 Y24.2261
S255
G1 X38.1111 Y24.1605
S255
G1 X38.1507 Y24.0959
S255
G1 X38.1796 Y24.0257
S255
G1 X38.1973 Y23.9518
S255
G1 X38.2043 Y23.8651
S255
G1 X38.2043 Y19.2943
S255
G1 X38.2052 Y19.2775
S255
G1 X38.2122 Y19.2303
S255
G1 X38.2152 Y19.2179
S255
G1 X38.2191 Y19.2058
S255
G1 X38.2257 Y19.1901
S255
G1 X38.2428 Y19.1551
S255
G1 X38.2517 Y19.1405
S255
G1 X38.2593 Y19.1302
S255
G1 X38.2677 Y19.1206
S255
G1 X38.2885 Y19.0982
S255
G1 X38.3013 Y19.0859
S255
G1 X38.4052 Y19.0043
S255
G1 X38.4932 Y18.9162
S255
G1 X38.5704 Y18.8177
S255
G1 X38.6351 Y18.7107
S255
G1 X38.6866 Y18.5967
S255
G1 X38.7287 Y18.4619
S255
G1 X38.7341 Y18.4470
S255
G1 X38.7408 Y18.4327
S255
G1 X38.7657 Y18.3886
S255
G1 X38.7725 Y18.3780
S255
G1 X38.7827 Y18.3648
S255
G1 X38.7942 Y18.3527
S255
G1 X38.8068 Y18.3417
S255
G1 X38.8476 Y18.3113
S255
G1 X38.8583 Y18.3043
S255
G1 X38.8696 Y18.2981
S255
G1 X38.8852 Y18.2912
S255
G1 X38.9015 Y18.2859
S255
G1 X38.9601 Y18.2732
S255
G1 X38.9767 Y18.2713
S255
G1 X38.9893 Y18.2709
S255
G1 X39.0059 Y18.2719
S255
G1 X39.0224 Y18.2744
S255
G1 X39.0707 Y18.2845
S255
G1 X39.0826 Y18.2877
S255
G1 X39.0943 Y18.2918
S255
G1 X39.1019 Y18.2950
S255
G1 X39.1130 Y18.3005
S255
G1 X39.1202 Y18.3046
S255
G1 X39.1339 Y18.3138
S255
G1 X39.1712 Y18.3418
S255
G1 X39.1808 Y18.3499
S255
G1 X39.1897 Y18.3586
S255
G1 X39.2006 Y18.3713
S255
G1 X39.2102 Y18.3850
S255
G1 X39.2353 Y18.4293
S255
G1 X39.2423 Y18.4434
S255
G1 X39.2481 Y18.4581
S255
G1 X39.2914 Y18.5967
S255
G1 X39.3429 Y18.7107
S255
G1 X39.4076 Y18.8177
S255
G1 X39.4848 Y18.9162
S255
G1 X39.5728 Y19.0043
S255
G1 X39.6714 Y19.0815
S255
G1 X39.7784 Y19.1461
S255
G1 X39.8923 Y19.1976
S255
G1 X40.0110 Y19.2346
S255
G1 X40.1342 Y19.2569
S255
G1 X40.2590 Y19.2647
S255
G1 X40.3837 Y19.2569
S255
G1 X40.5070 Y19.2346
S255
G1 X40.6257 Y19.1976
S255
G1 X40.7396 Y19.1461
S255
G1 X40.8466 Y19.0815
S255
G1 X40.9452 Y19.0043
S255
G1 X41.0332 Y18.9162
S255
G1 X41.1104 Y18.8177
S255
G1 X41.1751 Y18.7107
S255
G1 X41.2266 Y18.5967
S255
G1 X41.2687 Y18.4619
S255
G1 X41.2741 Y18.4470
S255
G1 X41.2808 Y18.4327
S255
G1 X41.3057 Y18.3886
S255
G1 X41.3149 Y18.3746
S255
G1 X41.3254 Y18.3617
S255
G1 X41.3342 Y18.3527
S255
G1 X41.3435 Y18.3444
S255
G1 X41.3876 Y18.3113
S255
G1 X41.3983 Y18.3043
S255
G1 X41.4058 Y18.3001
S255
G1 X41.4173 Y18.2945
S255
G1 X41.4252 Y18.2912
S255
G1 X41.4374 Y18.2871
S255
G1 X41.4456 Y18.2849
S255
G1 X41.4919 Y18.2748
S255
G1 X41.5084 Y18.2720
S255
G1 X41.5209 Y18.2710
S255
G1 X41.5334 Y18.2710
S255
G1 X41.5501 Y18.2723
S255
G1 X41.5624 Y18.2744
S255
G1 X41.6066 Y18.2836
S255
G1 X41.6187 Y18.2865
S255
G1 X41.6343 Y18.2918
S255
G1 X41.6457 Y18.2967
S255
G1 X41.6530 Y18.3005
S255
G1 X41.6602 Y18.3046
S255
G1 X41.6705 Y18.3114
S255
G1 X41.7112 Y18.3418
S255
G1 X41.7238 Y18.3527
S255
G1 X41.7297 Y18.3586
S255
G1 X41.7380 Y18.3680
S255
G1 X41.7455 Y18.3780
S255
G1 X41.7523 Y18.3886
S255
G1 X41.7771 Y18.4327
S255
G1 X41.7839 Y18.4470
S255
G1 X41.7893 Y18.4619
S255
G1 X41.8314 Y18.5967
S255
G1 X41.8829 Y18.7107
S255
G1 X41.9476 Y18.8177
S255
G1 X42.0248 Y18.9162
S255
G1 X42.1128 Y19.0043
S255
G1 X42.2114 Y19.0815
S255
G1 X42.3184 Y19.1461
S255
G1 X42.4323 Y19.1976
S255
G1 X42.5510 Y19.2346
S255
G1 X42.6742 Y19.2569
S255
G1 X42.7990 Y19.2647
S255
G1 X42.9237 Y19.2569
S255
G1 X43.0470 Y19.2346
S255
G1 X43.1657 Y19.1976
S255
G1 X43.2796 Y19.1461
S255
G1 X43.3866 Y19.0815
S255
G1 X43.4852 Y19.0043
S255
G1 X43.5732 Y18.9162
S255
G1 X43.6504 Y18.8176
S255
G1 X43.7151 Y18.7107
S255
G1 X43.7665 Y18.5969
S255
G1 X43.8036 Y18.4773
S255
G1 X43.8262 Y18.3549
S255
G1 X43.8340 Y18.2221
S255
G1 X43.8340 Y17.3379
S255
G1 X43.8262 Y17.2051
S255
G1 X43.8036 Y17.0827
S255
G1 X43.7665 Y16.9631
S255
G1 X43.7151 Y16.8493
S255
G1 X43.6504 Y16.7423
S255
G1 X43.5732 Y16.6437
S255
G1 X43.4852 Y16.5557
S255
G1 X43.3866 Y16.4785
S255
G1 X43.2796 Y16.4138
S255
G1 X43.1657 Y16.3624
S255
G1 X43.0470 Y16.3254
S255
G1 X42.9237 Y16.3031
S255
G1 X42.7990 Y16.2953
S255
G1 X42.6742 Y16.3031
S255
G1 X42.5510 Y16.3254
S255
G1 X42.4323 Y16.3624
S255
G1 X42.3184 Y16.4138
S255
G1 X42.2114 Y16.4785
S255
G1 X42.1128 Y16.5557
S255
G1 X42.0248 Y16.6437
S255
G1 X41.9476 Y16.7423
S255
G1 X41.8829 Y16.8493
S255
G1 X41.8314 Y16.9633
S255
G1 X41.7893 Y17.0981
S255
G1 X41.7839 Y17.1130
S255
G1 X41.7771 Y17.1273
S255
G1 X41.7523 Y17.1714
S255
G1 X41.7455 Y17.1819
S255
G1 X41.7380 Y17.1919
S255
G1 X41.7268 Y17.2044
S255
G1 X41.7145 Y17.2156
S255
G1 X41.6739 Y17.2462
S255
G1 X41.6669 Y17.2511
S255
G1 X41.6560 Y17.2579
S255
G1 X41.6484 Y17.2619
S255
G1 X41.6368 Y17.2672
S255
G1 X41.6247 Y17.2716
S255
G1 X41.6124 Y17.2751
S255
G1 X41.5661 Y17.2852
S255
G1 X41.5537 Y17.2874
S255
G1 X41.5413 Y17.2887
S255
G1 X41.5287 Y17.2891
S255
G1 X41.5162 Y17.2885
S255
G1 X41.5038 Y17.2871
S255
G1 X41.4433 Y17.2745
S255
G1 X41.4276 Y17.2696
S255
G1 X41.4161 Y17.2650
S255
G1 X41.4087 Y17.2614
S255
G1 X41.3978 Y17.2554
S255
G1 X41.3875 Y17.2486
S255
G1 X41.3468 Y17.2182
S255
G1 X41.3342 Y17.2073
S255
G1 X41.3283 Y17.2014
S255
G1 X41.3200 Y17.1920
S255
G1 X41.3125 Y17.1819
S255
G1 X41.3057 Y17.1714
S255
G1 X41.2808 Y17.1273
S255
G1 X41.2741 Y17.1130
S255
G1 X41.2687 Y17.0981
S255
G1 X41.2266 Y16.9633
S255
G1 X41.1751 Y16.8493
S255
G1 X41.1104 Y16.7423
S255
G1 X41.0332 Y16.6437
S255
G1 X40.9452 Y16.5557
S255
G1 X40.8466 Y16.4785
S255
G1 X40.7396 Y16.4138
S255
G1 X40.6257 Y16.3624
S255
G1 X40.5070 Y16.3254
S255
G1 X40.3837 Y16.3031
S255
G1 X40.2590 Y16.2953
S255
G1 X40.1342 Y16.3031
S255
G1 X40.0110 Y16.3254
S255
G1 X39.8923 Y16.3624
S255
G1 X39.7784 Y16.4138
S255
G1 X39.6714 Y16.4785
S255
G1 X39.5728 Y16.5557
S255
G1 X39.4848 Y16.6437
S255
G1 X39.4076 Y16.7423
S255
G1 X39.3429 Y16.8493
S255
G1 X39.2914 Y16.9633
S255
G1 X39.2493 Y17.0981
S255
G1 X39.2439 Y17.1130
S255
G1 X39.2371 Y17.1273
S255
G1 X39.2123 Y17.1714
S255
G1 X39.2055 Y17.1819
S255
G1 X39.1980 Y17.1919
S255
G1 X39.1897 Y17.2014
S255
G1 X39.1838 Y17.2073
S255
G1 X39.1777 Y17.2129
S255
G1 X39.1679 Y17.2208
S255
G1 X39.1269 Y17.2511
S255
G1 X39.1122 Y17.2599
S255
G1 X39.1007 Y17.2655
S255
G1 X39.0888 Y17.2702
S255
G1 X39.0765 Y17.2741
S255
G1 X39.0220 Y17.2861
S255
G1 X39.0096 Y17.2880
S255
G1 X39.0013 Y17.2887
S255
G1 X38.9887 Y17.2891
S255
G1 X38.9762 Y17.2885
S255
G1 X38.9596 Y17.2864
S255
G1 X38.9033 Y17.2745
S255
G1 X38.8876 Y17.2696
S255
G1 X38.8761 Y17.2650
S255
G1 X38.8687 Y17.2614
S255
G1 X38.8578 Y17.2554
S255
G1 X38.8475 Y17.2486
S255
G1 X38.8068 Y17.2182
S255
G1 X38.8004 Y17.2129
S255
G1 X38.7912 Y17.2044
S255
G1 X38.7854 Y17.1983
S255
G1 X38.7774 Y17.1887
S255
G1 X38.7701 Y17.1785
S255
G1 X38.7636 Y17.1678
S255
G1 X38.7408 Y17.1273
S255
G1 X38.7341 Y17.1130
S255
G1 X38.7287 Y17.0981
S255
G1 X38.6866 Y16.9633
S255
G1 X38.6351 Y16.8493
S255
G1 X38.5704 Y16.7423
S255
G1 X38.4932 Y16.6437
S255
G1 X38.4052 Y16.5557
S255
G1 X38.3066 Y16.4785
S255
G1 X38.1996 Y16.4138
S255
G1 X38.0857 Y16.3624
S255
G1 X37.9670 Y16.3254
S255
G1 X37.8437 Y16.3031
S255
G1 X37.7190 Y16.2953
S255
G1 X37.5942 Y16.3031
S255
G1 X37.4710 Y16.3254
S255
G1 X37.3523 Y16.3624
S255
G1 X37.2384 Y16.4138
S255
G1 X37.1314 Y16.4785
S255
G1 X37.0328 Y16.5557
S255
G1 X36.9448 Y16.6437
S255
G1 X36.8676 Y16.7423
S255
G1 X36.8029 Y16.8493
S255
G1 X36.7514 Y16.9633
S255
G1 X36.7093 Y17.0981
S255
G1 X36.7039 Y17.1130
S255
G1 X36.6971 Y17.1273
S255
G1 X36.6723 Y17.1714
S255
G1 X36.6631 Y17.1853
S255
G1 X36.6553 Y17.1951
S255
G1 X36.6438 Y17.2073
S255
G1 X36.6345 Y17.2156
S255
G1 X36.5939 Y17.2462
S255
G1 X36.5797 Y17.2557
S255
G1 X36.5684 Y17.2619
S255
G1 X36.5607 Y17.2655
S255
G1 X36.5488 Y17.2702
S255
G1 X36.5365 Y17.2741
S255
G1 X36.4820 Y17.2861
S255
G1 X36.4696 Y17.2880
S255
G1 X36.4613 Y17.2887
S255
G1 X36.4529 Y17.2891
S255
G1 X36.4404 Y17.2888
S255
G1 X36.4320 Y17.2881
S255
G1 X36.4196 Y17.2864
S255
G1 X36.3673 Y17.2755
S255
G1 X36.3593 Y17.2735
S255
G1 X36.3476 Y17.2696
S255
G1 X36.3324 Y17.2632
S255
G1 X36.3214 Y17.2575
S255
G1 X36.3109 Y17.2510
S255
G1 X36.2668 Y17.2182
S255
G1 X36.2604 Y17.2129
S255
G1 X36.2512 Y17.2044
S255
G1 X36.2454 Y17.1983
S255
G1 X36.2374 Y17.1887
S255
G1 X36.2301 Y17.1785
S255
G1 X36.2236 Y17.1678
S255
G1 X36.2008 Y17.1273
S255
G1 X36.1941 Y17.1130
S255
G1 X36.1887 Y17.0981
S255
G1 X36.1466 Y16.9633
S255
G1 X36.0951 Y16.8493
S255
G1 X36.0304 Y16.7423
S255
G1 X35.9532 Y16.6437
S255
G1 X35.8652 Y16.5557
S255
G1 X35.7666 Y16.4785
S255
G1 X35.6596 Y16.4138
S255
G1 X35.5457 Y16.3624
S255
G1 X35.4270 Y16.3254
S255
G1 X35.3037 Y16.3031
S255
G1 X35.1790 Y16.2953
S255
G1 X35.0542 Y16.3031
S255
G1 X34.9310 Y16.3254
S255
G1 X34.8123 Y16.3624
S255
G1 X34.6984 Y16.4138
S255
G1 X34.5914 Y16.4785
S255
G1 X34.4928 Y16.5557
S255
G1 X34.4048 Y16.6437
S255
G1 X34.3276 Y16.7423
S255
G1 X34.2629 Y16.8493
S255
G1 X34.2114 Y16.9633
S255
G1 X34.1693 Y17.0981
S255
G1 X34.1639 Y17.1130
S255
G1 X34.1571 Y17.1273
S255
G1 X34.1323 Y17.1714
S255
G1 X34.1255 Y17.1819
S255
G1 X34.1153 Y17.1951
S255
G1 X34.1038 Y17.2073
S255
G1 X34.0945 Y17.2156
S255
G1 X34.0539 Y17.2462
S255
G1 X34.0469 Y17.2511
S255
G1 X34.0360 Y17.2579
S255
G1 X34.0207 Y17.2655
S255
G1 X34.0088 Y17.2702
S255
G1 X33.9965 Y17.2741
S255
G1 X33.9420 Y17.2861
S255
G1 X33.9296 Y17.2880
S255
G1 X33.9213 Y17.2887
S255
G1 X33.9129 Y17.2891
S255
G1 X33.9004 Y17.2888
S255
G1 X33.8920 Y17.2881
S255
G1 X33.8796 Y17.2864
S255
G1 X33.8273 Y17.2755
S255
G1 X33.8115 Y17.2710
S255
G1 X33.7999 Y17.2666
S255
G1 X33.7924 Y17.2632
S255
G1 X33.7814 Y17.2575
S255
G1 X33.7709 Y17.2510
S255
G1 X33.7268 Y17.2182
S255
G1 X33.7172 Y17.2101
S255
G1 X33.7112 Y17.2044
S255
G1 X33.7054 Y17.1983
S255
G1 X33.6974 Y17.1887
S255
G1 X33.6901 Y17.1785
S255
G1 X33.6836 Y17.1678
S255
G1 X33.6608 Y17.1273
S255
G1 X33.6541 Y17.1130
S255
G1 X33.6487 Y17.0981
S255
G1 X33.6066 Y16.9633
S255
G1 X33.5551 Y16.8493
S255
G1 X33.4904 Y16.7423
S255
G1 X33.4132 Y16.6437
S255
G1 X33.3252 Y16.5557
S255
G1 X33.2266 Y16.4785
S255
G1 X33.1196 Y16.4138
S255
G1 X33.0057 Y16.3624
S255
G1 X32.8870 Y16.3254
S255
G1 X32.7637 Y16.3031
S255
G1 X32.6390 Y16.2953
S255
G1 X32.5142 Y16.3031
S255
G1 X32.3910 Y16.3254
S255
G1 X32.2723 Y16.3624
S255
G1 X32.1584 Y16.4138
S255
G1 X32.0514 Y16.4785
S255
G1 X31.9528 Y16.5557
S255
G1 X31.8648 Y16.6437
S255
G1 X31.7876 Y16.7423
S255
G1 X31.7229 Y16.8493
S255
G1 X31.6714 Y16.9633
S255
G1 X31.6293 Y17.0981
S255
G1 X31.6239 Y17.1130
S255
G1 X31.6171 Y17.1273
S255
G1 X31.5923 Y17.1714
S255
G1 X31.5831 Y17.1853
S255
G1 X31.5753 Y17.1951
S255
G1 X31.5638 Y17.2073
S255
G1 X31.5545 Y17.2156
S255
G1 X31.5139 Y17.2462
S255
G1 X31.5033 Y17.2535
S255
G1 X31.4960 Y17.2579
S255
G1 X31.4807 Y17.2655
S255
G1 X31.4688 Y17.2702
S255
G1 X31.4565 Y17.2741
S255
G1 X31.4020 Y17.2861
S255
G1 X31.3896 Y17.2880
S255
G1 X31.3813 Y17.2887
S255
G1 X31.3646 Y17.2890
S255
G1 X31.3520 Y17.2881
S255
G1 X31.3396 Y17.2864
S255
G1 X31.2873 Y17.2755
S255
G1 X31.2715 Y17.2710
S255
G1 X31.2637 Y17.2682
S255
G1 X31.2524 Y17.2632
S255
G1 X31.2414 Y17.2575
S255
G1 X31.2309 Y17.2510
S255
G1 X31.1868 Y17.2182
S255
G1 X31.1772 Y17.2101
S255
G1 X31.1712 Y17.2044
S255
G1 X31.1627 Y17.1952
S255
G1 X31.1574 Y17.1887
S255
G1 X31.1501 Y17.1785
S255
G1 X31.1436 Y17.1678
S255
G1 X31.1208 Y17.1273
S255
G1 X31.1141 Y17.1130
S255
G1 X31.1087 Y17.0981
S255
G1 X31.0666 Y16.9633
S255
G1 X31.0151 Y16.8493
S255
G1 X30.9504 Y16.7423
S255
G1 X30.8732 Y16.6437
S255
G1 X30.7852 Y16.5557
S255
G1 X30.6866 Y16.4785
S255
G1 X30.5796 Y16.4138
S255
G1 X30.4657 Y16.3624
S255
G1 X30.3470 Y16.3254
S255
G1 X30.2237 Y16.3031
S255
G1 X30.0990 Y16.2953
S255
G1 X29.9742 Y16.3031
S255
G1 X29.8510 Y16.3254
S255
G1 X29.7323 Y16.3624
S255
G1 X29.6184 Y16.4138
S255
G1 X29.5114 Y16.4785
S255
G1 X29.4128 Y16.5557
S255
G1 X29.3248 Y16.6437
S255
G1 X29.2476 Y16.7423
S255
G1 X29.1829 Y16.8493
S255
G1 X29.1314 Y16.9633
S255
G1 X29.0893 Y17.0981
S255
G1 X29.0839 Y17.1130
S255
G1 X29.0771 Y17.1273
S255
G1 X29.0523 Y17.1714
S255
G1 X29.0431 Y17.1853
S255
G1 X29.0353 Y17.1951
S255
G1 X29.0238 Y17.2073
S255
G1 X29.0145 Y17.2156
S255
G1 X28.9739 Y17.2462
S255
G1 X28.9633 Y17.2535
S255
G1 X28.9560 Y17.2579
S255
G1 X28.9407 Y17.2655
S255
G1 X28.9288 Y17.2702
S255
G1 X28.9165 Y17.2741
S255
G1 X28.8620 Y17.2861
S255
G1 X28.8496 Y17.2880
S255
G1 X28.8413 Y17.2887
S255
G1 X28.8246 Y17.2890
S255
G1 X28.8120 Y17.2881
S255
G1 X28.7996 Y17.2864
S255
G1 X28.7473 Y17.2755
S255
G1 X28.7315 Y17.2710
S255
G1 X28.7237 Y17.2682
S255
G1 X28.7124 Y17.2632
S255
G1 X28.7014 Y17.2575
S255
G1 X28.6909 Y17.2510
S255
G1 X28.6468 Y17.2182
S255
G1 X28.6404 Y17.2129
S255
G1 X28.6312 Y17.2044
S255
G1 X28.6227 Y17.1952
S255
G1 X28.6174 Y17.1887
S255
G1 X28.6101 Y17.1785
S255
G1 X28.6036 Y17.1678
S255
G1 X28.5808 Y17.1273
S255
G1 X28.5741 Y17.1130
S255
G1 X28.5687 Y17.0981
S255
G1 X28.5266 Y16.9633
S255
G1 X28.4751 Y16.8493
S255
G1 X28.4104 Y16.7423
S255
G1 X28.3332 Y16.6437
S255
G1 X28.2452 Y16.5557
S255
G1 X28.1466 Y16.4785
S255
G1 X28.0396 Y16.4138
S255
G1 X27.9257 Y16.3624
S255
G1 X27.8070 Y16.3254
S255
G1 X27.6837 Y16.3031
S255
G1 X27.5590 Y16.2953
S255
G1 X27.4342 Y16.3031
S255
G1 X27.3110 Y16.3254
S255
G1 X27.1923 Y16.3624
S255
G1 X27.0784 Y16.4138
S255
G1 X26.9714 Y16.4785
S255
G1 X26.8728 Y16.5557
S255
G1 X26.7848 Y16.6437
S255
G1 X26.7076 Y16.7423
S255
G1 X26.6429 Y16.8493
S255
G1 X26.5914 Y16.9633
S255
G1 X26.5493 Y17.0981
S255
G1 X26.5439 Y17.1130
S255
G1 X26.5371 Y17.1273
S255
G1 X26.5123 Y17.1714
S255
G1 X26.5031 Y17.1853
S255
G1 X26.4953 Y17.1951
S255
G1 X26.4838 Y17.2073
S255
G1 X26.4745 Y17.2156
S255
G1 X26.4339 Y17.2462
S255
G1 X26.4233 Y17.2535
S255
G1 X26.4160 Y17.2579
S255
G1 X26.4007 Y17.2655
S255
G1 X26.3888 Y17.2702
S255
G1 X26.3765 Y17.2741
S255
G1 X26.3220 Y17.2861
S255
G1 X26.3096 Y17.2880
S255
G1 X26.3013 Y17.2887
S255
G1 X26.2846 Y17.2890
S255
G1 X26.2720 Y17.2881
S255
G1 X26.2596 Y17.2864
S255
G1 X26.2073 Y17.2755
S255
G1 X26.1915 Y17.2710
S255
G1 X26.1837 Y17.2682
S255
G1 X26.1724 Y17.2632
S255
G1 X26.1614 Y17.2575
S255
G1 X26.1509 Y17.2510
S255
G1 X26.1068 Y17.2182
S255
G1 X26.0972 Y17.2101
S255
G1 X26.0912 Y17.2044
S255
G1 X26.0827 Y17.1952
S255
G1 X26.0774 Y17.1887
S255
G1 X26.0701 Y17.1785
S255
G1 X26.0636 Y17.1678
S255
G1 X26.0408 Y17.1273
S255
G1 X26.0341 Y17.1130
S255
G1 X26.0287 Y17.0981
S255
G1 X25.9866 Y16.9633
S255
G1 X25.9351 Y16.8493
S255
G1 X25.8704 Y16.7423
S255
G1 X25.7932 Y16.6437
S255
G1 X25.7052 Y16.5557
S255
G1 X25.6066 Y16.4785
S255
G1 X25.4996 Y16.4138
S255
G1 X25.3857 Y16.3624
S255
G1 X25.2670 Y16.3254
S255
G1 X25.1437 Y16.3031
S255
G1 X25.0190 Y16.2953
S255
G1 X24.8942 Y16.3031
S255
G1 X24.7710 Y16.3254
S255
G1 X24.6523 Y16.3624
S255
G1 X24.5384 Y16.4138
S255
G1 X24.4314 Y16.4785
S255
G1 X24.3328 Y16.5557
S255
G1 X24.2448 Y16.6437
S255
G1 X24.1676 Y16.7423
S255
G1 X24.1029 Y16.8493
S255
G1 X24.0514 Y16.9633
S255
G1 X24.0093 Y17.0981
S255
G1 X24.0039 Y17.1130
S255
G1 X23.9971 Y17.1273
S255
G1 X23.9723 Y17.1714
S255
G1 X23.9631 Y17.1853
S255
G1 X23.9553 Y17.1951
S255
G1 X23.9438 Y17.2073
S255
G1 X23.9345 Y17.2156
S255
G1 X23.8939 Y17.2462
S255
G1 X23.8833 Y17.2535
S255
G1 X23.8760 Y17.2579
S255
G1 X23.8607 Y17.2655
S255
G1 X23.8488 Y17.2702
S255
G1 X23.8365 Y17.2741
S255
G1 X23.7820 Y17.2861
S255
G1 X23.7696 Y17.2880
S255
G1 X23.7613 Y17.2887
S255
G1 X23.7446 Y17.2890
S255
G1 X23.7320 Y17.2881
S255
G1 X23.7196 Y17.2864
S255
G1 X23.6673 Y17.2755
S255
G1 X23.6515 Y17.2710
S255
G1 X23.6437 Y17.2682
S255
G1 X23.6324 Y17.2632
S255
G1 X23.6214 Y17.2575
S255
G1 X23.6109 Y17.2510
S255
G1 X23.5668 Y17.2182
S255
G1 X23.5572 Y17.2101
S255
G1 X23.5512 Y17.2044
S255
G1 X23.5427 Y17.1952
S255
G1 X23.5374 Y17.1887
S255
G1 X23.5301 Y17.1785
S255
G1 X23.5236 Y17.1678
S255
G1 X23.5008 Y17.1273
S255
G1 X23.4941 Y17.1130
S255
G1 X23.4887 Y17.0981
S255
G1 X23.4466 Y16.9633
S255
G1 X23.3951 Y16.8493
S255
G1 X23.3304 Y16.7423
S255
G1 X23.2532 Y16.6437
S255
G1 X23.1652 Y16.5557
S255
G1 X23.0666 Y16.4785
S255
G1 X22.9596 Y16.4138
S255
G1 X22.8457 Y16.3624
S255
G1 X22.7270 Y16.3254
S255
G1 X22.6037 Y16.3031
S255
G1 X22.4790 Y16.2953
S255
G1 X22.3542 Y16.3031
S255
G1 X22.2310 Y16.3254
S255
G1 X22.1123 Y16.3624
S255
G1 X21.9984 Y16.4138
S255
G1 X21.8914 Y16.4785
S255
G1 X21.7928 Y16.5557
S255
G1 X21.7048 Y16.6437
S255
G1 X21.6276 Y16.7423
S255
G1 X21.5629 Y16.8493
S255
G1 X21.5114 Y16.9633
S255
G1 X21.4693 Y17.0981
S255
G1 X21.4639 Y17.1130
S255
G1 X21.4571 Y17.1273
S255
G1 X21.4323 Y17.1714
S255
G1 X21.4231 Y17.1853
S255
G1 X21.4153 Y17.1951
S255
G1 X21.4038 Y17.2073
S255
G1 X21.3945 Y17.2156
S255
G1 X21.3539 Y17.2462
S255
G1 X21.3433 Y17.2535
S255
G1 X21.3360 Y17.2579
S255
G1 X21.3207 Y17.2655
S255
G1 X21.3088 Y17.2702
S255
G1 X21.2965 Y17.2741
S255
G1 X21.2420 Y17.2861
S255
G1 X21.2296 Y17.2880
S255
G1 X21.2213 Y17.2887
S255
G1 X21.2046 Y17.2890
S255
G1 X21.1920 Y17.2881
S255
G1 X21.1796 Y17.2864
S255
G1 X21.1273 Y17.2755
S255
G1 X21.1193 Y17.2735
S255
G1 X21.1076 Y17.2696
S255
G1 X21.0924 Y17.2632
S255
G1 X21.0814 Y17.2575
S255
G1 X21.0709 Y17.2510
S255
G1 X21.0268 Y17.2182
S255
G1 X21.0204 Y17.2129
S255
G1 X21.0112 Y17.2044
S255
G1 X21.0027 Y17.1952
S255
G1 X20.9974 Y17.1887
S255
G1 X20.9901 Y17.1785
S255
G1 X20.9836 Y17.1678
S255
G1 X20.9608 Y17.1273
S255
G1 X20.9541 Y17.1130
S255
G1 X20.9487 Y17.0981
S255
G1 X20.9066 Y16.9633
S255
G1 X20.8551 Y16.8493
S255
G1 X20.7904 Y16.7423
S255
G1 X20.7132 Y16.6437
S255
G1 X20.6252 Y16.5557
S255
G1 X20.5266 Y16.4785
S255
G1 X20.4196 Y16.4138
S255
G1 X20.3057 Y16.3624
S255
G1 X20.1870 Y16.3254
S255
G1 X20.0637 Y16.3031
S255
G1 X19.9390 Y16.2953
S255
G1 X19.8142 Y16.3031
S255
G1 X19.6910 Y16.3254
S255
G1 X19.5723 Y16.3624
S255
G1 X19.4584 Y16.4138
S255
G1 X19.3514 Y16.4785
S255
G1 X19.2528 Y16.5557
S255
G1 X19.1648 Y16.6437
S255
G1 X19.0876 Y16.7423
S255
G1 X19.0229 Y16.8493
S255
G1 X18.9714 Y16.9633
S255
G1 X18.9293 Y17.0981
S255
G1 X18.9239 Y17.1130
S255
G1 X18.9171 Y17.1273
S255
G1 X18.8923 Y17.1714
S255
G1 X18.8831 Y17.1853
S255
G1 X18.8753 Y17.1951
S255
G1 X18.8638 Y17.2073
S255
G1 X18.8545 Y17.2156
S255
G1 X18.8139 Y17.2462
S255
G1 X18.8033 Y17.2535
S255
G1 X18.7960 Y17.2579
S255
G1 X18.7807 Y17.2655
S255
G1 X18.7688 Y17.2702
S255
G1 X18.7565 Y17.2741
S255
G1 X18.7020 Y17.2861
S255
G1 X18.6896 Y17.2880
S255
G1 X18.6813 Y17.2887
S255
G1 X18.6646 Y17.2890
S255
G1 X18.6520 Y17.2881
S255
G1 X18.6396 Y17.2864
S255
G1 X18.5873 Y17.2755
S255
G1 X18.5715 Y17.2710
S255
G1 X18.5637 Y17.2682
S255
G1 X18.5524 Y17.2632
S255
G1 X18.5414 Y17.2575
S255
G1 X18.5309 Y17.2510
S255
G1 X18.4868 Y17.2182
S255
G1 X18.4772 Y17.2101
S255
G1 X18.4712 Y17.2044
S255
G1 X18.4627 Y17.1952
S255
G1 X18.4574 Y17.1887
S255
G1 X18.4501 Y17.1785
S255
G1 X18.4436 Y17.1678
S255
G1 X18.4208 Y17.1273
S255
G1 X18.4141 Y17.1130
S255
G1 X18.4087 Y17.0981
S255
G1 X18.3666 Y16.9633
S255
G1 X18.3151 Y16.8493
S255
G1 X18.2504 Y16.7423
S255
G1 X18.1732 Y16.6437
S255
G1 X18.0852 Y16.5557
S255
G1 X17.9866 Y16.4785
S255
G1 X17.8796 Y16.4138
S255
G1 X17.7657 Y16.3624
S255
G1 X17.6470 Y16.3254
S255
G1 X17.5237 Y16.3031
S255
G1 X17.3990 Y16.2953
S255
G1 X17.2742 Y16.3031
S255
G1 X17.1510 Y16.3254
S255
G1 X17.0323 Y16.3624
S255
G1 X16.9184 Y16.4138
S255
G1 X16.8114 Y16.4785
S255
G1 X16.7128 Y16.5557
S255
G1 X16.6248 Y16.6437
S255
G1 X16.5476 Y16.7423
S255
G1 X16.4829 Y16.8493
S255
G1 X16.4314 Y16.9633
S255
G1 X16.3893 Y17.0981
S255
G1 X16.3868 Y17.1056
S255
G1 X16.3823 Y17.1166
S255
G1 X16.3753 Y17.1307
S255
G1 X16.3502 Y17.1750
S255
G1 X16.3406 Y17.1887
S255
G1 X16.3297 Y17.2014
S255
G1 X16.3208 Y17.2101
S255
G1 X16.3112 Y17.2182
S255
G1 X16.2739 Y17.2462
S255
G1 X16.2633 Y17.2535
S255
G1 X16.2522 Y17.2599
S255
G1 X16.2407 Y17.2655
S255
G1 X16.2288 Y17.2702
S255
G1 X16.2165 Y17.2741
S255
G1 X16.1620 Y17.2861
S255
G1 X16.1496 Y17.2880
S255
G1 X16.1329 Y17.2891
S255
G1 X16.1162 Y17.2885
S255
G1 X16.1038 Y17.2871
S255
G1 X16.0473 Y17.2755
S255
G1 X16.0315 Y17.2710
S255
G1 X16.0161 Y17.2650
S255
G1 X16.0014 Y17.2575
S255
G1 X15.9875 Y17.2486
S255
G1 X15.9501 Y17.2208
S255
G1 X15.9372 Y17.2101
S255
G1 X15.9283 Y17.2014
S255
G1 X15.9227 Y17.1952
S255
G1 X15.9149 Y17.1853
S255
G1 X15.9078 Y17.1750
S255
G1 X15.8808 Y17.1273
S255
G1 X15.8741 Y17.1130
S255
G1 X15.8687 Y17.0981
S255
G1 X15.8266 Y16.9633
S255
G1 X15.7751 Y16.8493
S255
G1 X15.7105 Y16.7424
S255
G1 X15.6519 Y16.6678
S255
G1 X15.6421 Y16.6540
S255
G1 X15.6357 Y16.6430
S255
G1 X15.6161 Y16.6059
S255
G1 X15.6096 Y16.5901
S255
G1 X15.6047 Y16.5738
S255
G1 X15.6022 Y16.5613
S255
G1 X15.5960 Y16.5238
S255
G1 X15.5947 Y16.5119
S255
G1 X15.5943 Y16.4998
S255
G1 X15.5943 Y15.3740
S255
G1 X15.5897 Y15.2865
S255
G1 X15.5881 Y15.2723
S255
G1 X15.5670 Y15.1703
S255
G1 X15.5337 Y15.0755
S255
G1 X15.4869 Y14.9853
S255
G1 X15.4422 Y14.9195
S255
G1 X15.4321 Y14.9068
S255
G1 X15.3737 Y14.8420
S255
G1 X13.6060 Y13.0743
S255
G1 X13.5412 Y13.0159
S255
G1 X13.5285 Y13.0058
S255
G1 X13.4627 Y12.9611
S255
G1 X13.3725 Y12.9143
S255
G1 X13.2777 Y12.8809
S255
G1 X13.1757 Y12.8599
S255
G1 X13.1615 Y12.8583
S255
G1 X13.0740 Y12.8537
S255
G1 X11.2121 Y12.8537
S255
G1 X11.1957 Y12.8530
S255
G1 X11.1795 Y12.8506
S255
G1 X11.1364 Y12.8421
S255
G1 X11.1243 Y12.8390
S255
G1 X11.1124 Y12.8350
S255
G1 X11.0972 Y12.8283
S255
G1 X11.0827 Y12.8202
S255
G1 X11.0426 Y12.7937
S255
G1 X11.0324 Y12.7859
S255
G1 X11.0228 Y12.7774
S255
G1 X10.0032 Y11.7574
S255
G1 X9.9950 Y11.7486
S255
G1 X9.9850 Y11.7360
S255
G1 X9.9522 Y11.6850
S255
G1 X9.9464 Y11.6739
S255
G1 X9.9398 Y11.6584
S255
G1 X9.9349 Y11.6423
S255
G1 X9.9322 Y11.6300
S255
G1 X9.9253 Y11.5780
S255
G1 X9.9242 Y11.5658
S255
G1 X9.9241 Y11.5494
S255
G1 X9.9251 Y11.5372
S255
G1 X9.9269 Y11.5250
S255
G1 X9.9296 Y11.5130
S255
G1 X9.9319 Y11.5051
S255
G1 X9.9464 Y11.4596
S255
G1 X9.9507 Y11.4483
S255
G1 X9.9541 Y11.4409
S255
G1 X9.9598 Y11.4301
S255
G1 X9.9662 Y11.4198
S255
G1 X9.9709 Y11.4132
S255
G1 X9.9812 Y11.4007
S255
G1 X10.0164 Y11.3622
S255
G1 X10.0255 Y11.3537
S255
G1 X10.0318 Y11.3485
S255
G1 X10.0608 Y11.3277
S255
G1 X10.1799 Y11.2237
S255
G1 X10.2870 Y11.1075
S255
G1 X10.3814 Y10.9807
S255
G1 X10.4615 Y10.8446
S255
G1 X10.5267 Y10.7005
S255
G1 X10.5764 Y10.5506
S255
G1 X10.6096 Y10.3961
S255
G1 X10.6265 Y10.2388
S255
G1 X10.6265 Y10.0812
S255
G1 X10.6096 Y9.9239
S255
G1 X10.5764 Y9.7694
S255
G1 X10.5267 Y9.6195
S255
G1 X10.4615 Y9.4754
S255
G1 X10.3814 Y9.3392
S255
G1 X10.2870 Y9.2125
S255
G1 X10.1799 Y9.0963
S255
G1 X10.0609 Y8.9924
S255
G1 X9.9314 Y8.9011
S255
G1 X9.7934 Y8.8247
S255
G1 X9.6476 Y8.7631
S255
G1 X9.4964 Y8.7176
S255
G1 X9.3408 Y8.6884
S255
G1 X9.1838 Y8.6756
S255
G1 X9.0257 Y8.6802
S255
G1 X8.8686 Y8.7012
S255
G1 X8.7151 Y8.7385
S255
G1 X8.5665 Y8.7923
S255
G1 X8.4242 Y8.8612
S255
G1 X8.2904 Y8.9449
S255
G1 X8.1664 Y9.0425
S255
G1 X8.0529 Y9.1528
S255
G1 X7.9522 Y9.2745
S255
G1 X7.8647 Y9.4062
S255
G1 X7.7918 Y9.5465
S255
G1 X7.7344 Y9.6937
S255
G1 X7.6929 Y9.8459
S255
G1 X7.6678 Y10.0024
S255
G1 X7.6592 Y10.1600
S255
G1 X7.6678 Y10.3176
S255
G1 X7.6929 Y10.4741
S255
G1 X7.7344 Y10.6263
S255
G1 X7.7918 Y10.7735
S255
G1 X7.8647 Y10.9138
S255
G1 X7.9522 Y11.0455
S255
G1 X8.0529 Y11.1672
S255
G1 X8.1663 Y11.2774
S255
G1 X8.3044 Y11.3856
S255
G1 X8.3138 Y11.3935
S255
G1 X8.3197 Y11.3991
S255
G1 X8.3495 Y11.4305
S255
G1 X8.3572 Y11.4400
S255
G1 X8.3619 Y11.4467
S255
G1 X8.3684 Y11.4571
S255
G1 X8.3723 Y11.4643
S255
G1 X8.3908 Y11.5032
S255
G1 X8.3966 Y11.5191
S255
G1 X8.4008 Y11.5356
S255
G1 X8.4069 Y11.5745
S255
G1 X8.4085 Y11.5912
S255
G1 X8.4087 Y11.9310
S255
G1 X8.4133 Y12.0185
S255
G1 X8.4149 Y12.0327
S255
G1 X8.4359 Y12.1347
S255
G1 X8.4693 Y12.2295
S255
G1 X8.5161 Y12.3197
S255
G1 X8.5608 Y12.3855
S255
G1 X8.5709 Y12.3982
S255
G1 X8.6293 Y12.4630
S255
G1 X10.2700 Y14.1037
S255
G1 X10.3348 Y14.1621
S255
G1 X10.3475 Y14.1722
S255
G1 X10.4133 Y14.2169
S255
G1 X10.5035 Y14.2637
S255
G1 X10.5983 Y14.2970
S255
G1 X10.7003 Y14.3181
S255
G1 X10.7145 Y14.3197
S255
G1 X10.8020 Y14.3243
S255
G1 X12.6680 Y14.3243
S255
G1 X12.6803 Y14.3250
S255
G1 X12.6924 Y14.3267
S255
G1 X12.7356 Y14.3350
S255
G1 X12.7517 Y14.3390
S255
G1 X12.7674 Y14.3445
S255
G1 X12.7788 Y14.3497
S255
G1 X12.7898 Y14.3557
S255
G1 X12.8299 Y14.3819
S255
G1 X12.8436 Y14.3921
S255
G1 X12.8563 Y14.4035
S255
G1 X14.0445 Y15.5917
S255
G1 X14.0532 Y15.6011
S255
G1 X14.0612 Y15.6111
S255
G1 X14.0923 Y15.6582
S255
G1 X14.0983 Y15.6692
S255
G1 X14.1035 Y15.6806
S255
G1 X14.1078 Y15.6923
S255
G1 X14.1112 Y15.7043
S255
G1 X14.1220 Y15.7596
S255
G1 X14.1233 Y15.7718
S255
G1 X14.1237 Y15.7841
S255
G1 X14.1237 Y16.5039
S255
G1 X14.1233 Y16.5119
S255
G1 X14.1220 Y16.5238
S255
G1 X14.1158 Y16.5613
S255
G1 X14.1133 Y16.5738
S255
G1 X14.1084 Y16.5901
S255
G1 X14.1019 Y16.6059
S255
G1 X14.0823 Y16.6430
S255
G1 X14.0759 Y16.6540
S255
G1 X14.0661 Y16.6678
S255
G1 X14.0075 Y16.7424
S255
G1 X13.9429 Y16.8493
S255
G1 X13.8914 Y16.9633
S255
G1 X13.8493 Y17.0981
S255
G1 X13.8439 Y17.1130
S255
G1 X13.8371 Y17.1273
S255
G1 X13.8123 Y17.1714
S255
G1 X13.8055 Y17.1819
S255
G1 X13.7980 Y17.1919
S255
G1 X13.7897 Y17.2014
S255
G1 X13.7808 Y17.2101
S255
G1 X13.7712 Y17.2182
S255
G1 X13.7339 Y17.2462
S255
G1 X13.7269 Y17.2511
S255
G1 X13.7160 Y17.2579
S255
G1 X13.7084 Y17.2619
S255
G1 X13.6968 Y17.2672
S255
G1 X13.6806 Y17.2729
S255
G1 X13.6682 Y17.2761
S255
G1 X13.6220 Y17.2861
S255
G1 X13.6096 Y17.2880
S255
G1 X13.5929 Y17.2891
S255
G1 X13.5762 Y17.2885
S255
G1 X13.5638 Y17.2871
S255
G1 X13.5033 Y17.2745
S255
G1 X13.4876 Y17.2696
S255
G1 X13.4724 Y17.2632
S255
G1 X13.4614 Y17.2575
S255
G1 X13.4475 Y17.2486
S255
G1 X13.4068 Y17.2182
S255
G1 X13.3942 Y17.2073
S255
G1 X13.3827 Y17.1952
S255
G1 X13.3774 Y17.1887
S255
G1 X13.3701 Y17.1785
S255
G1 X13.3636 Y17.1678
S255
G1 X13.3427 Y17.1307
S255
G1 X13.3373 Y17.1202
S255
G1 X13.3326 Y17.1093
S255
G1 X13.3287 Y17.0981
S255
G1 X13.2866 Y16.9633
S255
G1 X13.2351 Y16.8493
S255
G1 X13.1704 Y16.7423
S255
G1 X13.0932 Y16.6437
S255
G1 X13.0052 Y16.5557
S255
G1 X12.9066 Y16.4785
S255
G1 X12.7996 Y16.4138
S255
G1 X12.6857 Y16.3624
S255
G1 X12.5670 Y16.3254
S255
G1 X12.4437 Y16.3031
S255
G1 X12.3190 Y16.2953
S255
G1 X12.1942 Y16.3031
S255
G1 X12.0710 Y16.3254
S255
G1 X11.9523 Y16.3624
S255
G1 X11.8384 Y16.4138
S255
G1 X11.7314 Y16.4785
S255
G1 X11.6328 Y16.5557
S255
G1 X11.5448 Y16.6437
S255
G1 X11.4676 Y16.7423
S255
G1 X11.4029 Y16.8493
S255
G1 X11.3515 Y16.9631
S255
G1 X11.3144 Y17.0827
S255
G1 X11.2918 Y17.2051
S255
G1 X11.2840 Y17.3379
S255
G1 X11.2840 Y18.2221
S255
G1 X11.2918 Y18.3549
S255
G1 X11.3144 Y18.4773
S255
G1 X11.3515 Y18.5969
S255
G1 X11.4029 Y18.7107
S255
G1 X11.4676 Y18.8176
S255
G1 X11.5448 Y18.9162
S255
G1 X11.6328 Y19.0043
S255
G1 X11.7314 Y19.0815
S255
G1 X11.8384 Y19.1461
S255
G1 X11.9523 Y19.1976
S255
G1 X12.0710 Y19.2346
S255
G1 X12.1942 Y19.2569
S255
G1 X12.3190 Y19.2647
S255
G1 X12.4437 Y19.2569
S255
G1 X12.5670 Y19.2346
S255
G1 X12.6857 Y19.1976
S255
G1 X12.7996 Y19.1461
S255
G1 X12.9066 Y19.0815
S255
G1 X13.0052 Y19.0043
S255
G1 X13.0932 Y18.9162
S255
G1 X13.1704 Y18.8176
S255
G1 X13.2351 Y18.7107
S255
G1 X13.2866 Y18.5967
S255
G1 X13.3287 Y18.4619
S255
G1 X13.3341 Y18.4470
S255
G1 X13.3408 Y18.4327
S255
G1 X13.3657 Y18.3886
S255
G1 X13.3749 Y18.3746
S255
G1 X13.3854 Y18.3617
S255
G1 X13.3942 Y18.3527
S255
G1 X13.4035 Y18.3444
S255
G1 X13.4442 Y18.3138
S255
G1 X13.4583 Y18.3043
S255
G1 X13.4734 Y18.2962
S255
G1 X13.4892 Y18.2897
S255
G1 X13.5056 Y18.2849
S255
G1 X13.5560 Y18.2739
S255
G1 X13.5643 Y18.2726
S255
G1 X13.5767 Y18.2713
S255
G1 X13.5893 Y18.2709
S255
G1 X13.5976 Y18.2712
S255
G1 X13.6059 Y18.2719
S255
G1 X13.6183 Y18.2736
S255
G1 X13.6747 Y18.2854
S255
G1 X13.6904 Y18.2903
S255
G1 X13.7019 Y18.2950
S255
G1 X13.7130 Y18.3005
S255
G1 X13.7271 Y18.3090
S255
G1 X13.7712 Y18.3418
S255
G1 X13.7808 Y18.3499
S255
G1 X13.7868 Y18.3556
S255
G1 X13.7953 Y18.3648
S255
G1 X13.8031 Y18.3747
S255
G1 X13.8102 Y18.3850
S255
G1 X13.8144 Y18.3922
S255
G1 X13.8371 Y18.4327
S255
G1 X13.8439 Y18.4470
S255
G1 X13.8493 Y18.4619
S255
G1 X13.8914 Y18.5967
S255
G1 X13.9429 Y18.7107
S255
G1 X14.0075 Y18.8176
S255
G1 X14.0661 Y18.8922
S255
G1 X14.0712 Y18.8990
S255
G1 X14.0781 Y18.9096
S255
G1 X14.0981 Y18.9465
S255
G1 X14.1053 Y18.9619
S255
G1 X14.1098 Y18.9739
S255
G1 X14.1122 Y18.9820
S255
G1 X14.1158 Y18.9987
S255
G1 X14.1226 Y19.0401
S255
G1 X14.1236 Y19.0521
S255
G1 X14.1237 Y19.0602
S255
G1 X14.1237 Y23.7420
S255
G1 X14.1283 Y23.8295
S255
G1 X14.1299 Y23.8437
S255
G1 X14.1509 Y23.9457
S255
G1 X14.1843 Y24.0405
S255
G1 X14.2310 Y24.1304
S255
G1 X14.2725 Y24.1911
S255
G1 X14.3119 Y24.2367
S255
G1 X14.3227 Y24.2505
S255
G1 X14.3298 Y24.2616
S255
G1 X14.3521 Y24.2997
S255
G1 X14.3574 Y24.3109
S255
G1 X14.3619 Y24.3223
S255
G1 X14.3656 Y24.3341
S255
G1 X14.3676 Y24.3421
S255
G1 X14.3759 Y24.3898
S255
G1 X14.3773 Y24.4021
S255
G1 X14.3777 Y24.4104
S255
G1 X14.3777 Y30.0638
S255
G1 X14.3763 Y30.0816
S255
G1 X14.3699 Y30.1222
S255
G1 X14.3671 Y30.1344
S255
G1 X14.3621 Y30.1504
S255
G1 X14.3555 Y30.1658
S255
G1 X14.3369 Y30.2017
S255
G1 X14.3282 Y30.2159
S255
G1 X14.3181 Y30.2291
S255
G1 X14.3068 Y30.2413
S255
G1 X14.2834 Y30.2642
S255
G1 X14.2748 Y30.2721
S255
G1 X14.2624 Y30.2817
S255
G1 X14.1960 Y30.3284
S255
G1 X14.0771 Y30.4323
S255
G1 X13.9700 Y30.5485
S255
G1 X13.8756 Y30.6752
S255
G1 X13.7955 Y30.8114
S255
G1 X13.7303 Y30.9555
S255
G1 X13.6806 Y31.1054
S255
G1 X13.6473 Y31.2599
S255
G1 X13.6305 Y31.4172
S255
G1 X13.6305 Y31.5748
S255
G1 X13.6473 Y31.7321
S255
G1 X13.6806 Y31.8866
S255
G1 X13.7303 Y32.0365
S255
G1 X13.7955 Y32.1806
S255
G1 X13.8756 Y32.3167
S255
G1 X13.9700 Y32.4435
S255
G1 X14.0771 Y32.5597
S255
G1 X14.1960 Y32.6636
S255
G1 X14.3256 Y32.7548
S255
G1 X14.4636 Y32.8313
S255
G1 X14.6094 Y32.8929
S255
G1 X14.7606 Y32.9384
S255
G1 X14.9162 Y32.9676
S255
G1 X15.0732 Y32.9804
S255
G1 X15.2313 Y32.9758
S255
G1 X15.3884 Y32.9548
S255
G1 X15.5418 Y32.9175
S255
G1 X15.6905 Y32.8636
S255
G1 X15.8328 Y32.7948
S255
G1 X15.9665 Y32.7111
S255
G1 X16.0906 Y32.6135
S255
G1 X16.2041 Y32.5032
S255
G1 X16.3048 Y32.3814
S255
G1 X16.3268 Y32.3486
S255
G1 X16.3348 Y32.3382
S255
G1 X16.3656 Y32.3042
S255
G1 X16.3715 Y32.2984
S255
G1 X16.3807 Y32.2903
S255
G1 X16.3939 Y32.2806
S255
G1 X16.4044 Y32.2741
S255
G1 X16.4411 Y32.2545
S255
G1 X16.4522 Y32.2494
S255
G1 X16.4598 Y32.2465
S255
G1 X16.4715 Y32.2427
S255
G1 X16.4874 Y32.2390
S255
G1 X16.5239 Y32.2333
S255
G1 X16.5370 Y32.2318
S255
G1 X16.5501 Y32.2313
S255
G1 X24.0939 Y32.2313
S255
G1 X24.1062 Y32.2317
S255
G1 X24.1184 Y32.2330
S255
G1 X24.1656 Y32.2420
S255
G1 X24.1817 Y32.2460
S255
G1 X24.1974 Y32.2515
S255
G1 X24.2125 Y32.2586
S255
G1 X24.2269 Y32.2671
S255
G1 X24.2669 Y32.2938
S255
G1 X24.2769 Y32.3018
S255
G1 X24.2832 Y32.3075
S255
G1 X28.0145 Y36.0387
S255
G1 X28.0232 Y36.0481
S255
G1 X28.0312 Y36.0581
S255
G1 X28.0602 Y36.1017
S255
G1 X28.0664 Y36.1125
S255
G1 X28.0718 Y36.1237
S255
G1 X28.0750 Y36.1314
S255
G1 X28.0790 Y36.1433
S255
G1 X28.0821 Y36.1554
S255
G1 X28.0913 Y36.2026
S255
G1 X28.0930 Y36.2147
S255
G1 X28.0937 Y36.2311
S255
G1 X28.0937 Y45.4878
S255
G1 X28.0932 Y45.5008
S255
G1 X28.0910 Y45.5180
S255
G1 X28.0844 Y45.5546
S255
G1 X28.0818 Y45.5665
S255
G1 X28.0796 Y45.5744
S255
G1 X28.0756 Y45.5859
S255
G1 X28.0708 Y45.5971
S255
G1 X28.0652 Y45.6080
S255
G1 X28.0389 Y45.6500
S255
G1 X28.0315 Y45.6603
S255
G1 X28.0233 Y45.6701
S255
G1 X28.0174 Y45.6762
S255
G1 X28.0081 Y45.6849
S255
G1 X27.9721 Y45.7131
S255
G1 X27.9622 Y45.7202
S255
G1 X27.9554 Y45.7245
S255
G1 X27.9447 Y45.7304
S255
G1 X27.9337 Y45.7355
S255
G1 X27.9184 Y45.7411
S255
G1 X27.8790 Y45.7524
S255
G1 X27.8663 Y45.7555
S255
G1 X27.8534 Y45.7576
S255
G1 X27.7832 Y45.7646
S255
G1 X27.7397 Y45.7778
S255
G1 X27.6991 Y45.7995
S255
G1 X27.6635 Y45.8286
S255
G1 X27.6348 Y45.8638
S255
G1 X27.6131 Y45.9048
S255
G1 X27.5996 Y45.9484
S255
G1 X27.5922 Y46.0277
S255
G1 X27.5909 Y46.0362
S255
G1 X27.5882 Y46.0490
S255
G1 X27.5716 Y46.1033
S255
G1 X27.5652 Y46.1186
S255
G1 X27.5574 Y46.1331
S255
G1 X27.5507 Y46.1435
S255
G1 X27.5457 Y46.1502
S255
G1 X27.5150 Y46.1876
S255
G1 X27.5034 Y46.1998
S255
G1 X27.4939 Y46.2082
S255
G1 X27.4803 Y46.2183
S255
G1 X27.4694 Y46.2249
S255
G1 X27.4264 Y46.2476
S255
G1 X27.4149 Y46.2528
S255
G1 X27.4070 Y46.2558
S255
G1 X27.3949 Y46.2596
S255
G1 X27.3867 Y46.2616
S255
G1 X27.3701 Y46.2643
S255
G1 X27.3178 Y46.2688
S255
G1 X27.3051 Y46.2689
S255
G1 X27.2924 Y46.2679
S255
G1 X27.2798 Y46.2661
S255
G1 X27.2674 Y46.2633
S255
G1 X27.2212 Y46.2487
S255
G1 X27.2131 Y46.2459
S255
G1 X27.2012 Y46.2409
S255
G1 X27.1860 Y46.2328
S255
G1 X27.1752 Y46.2258
S255
G1 X27.1649 Y46.2180
S255
G1 X27.1312 Y46.1888
S255
G1 X27.1224 Y46.1807
S255
G1 X27.1117 Y46.1689
S255
G1 X27.0635 Y46.1080
S255
G1 X26.9752 Y46.0197
S255
G1 X26.8747 Y45.9410
S255
G1 X26.8648 Y45.9321
S255
G1 X26.8585 Y45.9258
S255
G1 X26.8348 Y45.9003
S255
G1 X26.8293 Y45.8938
S255
G1 X26.8217 Y45.8835
S255
G1 X26.8149 Y45.8726
S255
G1 X26.8108 Y45.8651
S255
G1 X26.7939 Y45.8300
S255
G1 X26.7877 Y45.8142
S255
G1 X26.7831 Y45.7979
S255
G1 X26.7808 Y45.7853
S255
G1 X26.7762 Y45.7549
S255
G1 X26.7748 Y45.7423
S255
G1 X26.7743 Y45.7296
S255
G1 X26.7743 Y43.9529
S255
G1 X26.7673 Y43.8662
S255
G1 X26.7496 Y43.7923
S255
G1 X26.7207 Y43.7221
S255
G1 X26.6811 Y43.6575
S255
G1 X26.6246 Y43.5919
S255
G1 X25.1151 Y42.0824
S255
G1 X25.0495 Y42.0259
S255
G1 X24.9849 Y41.9863
S255
G1 X24.9147 Y41.9574
S255
G1 X24.8408 Y41.9397
S255
G1 X24.7541 Y41.9327
S255
G1 X17.1559 Y41.9327
S255
G1 X17.0692 Y41.9397
S255
G1 X16.9953 Y41.9574
S255
G1 X16.9251 Y41.9863
S255
G1 X16.8605 Y42.0259
S255
G1 X16.7949 Y42.0824
S255
G1 X14.0994 Y44.7773
S255
G1 X14.0902 Y44.7855
S255
G1 X14.0804 Y44.7930
S255
G1 X14.0445 Y44.8172
S255
G1 X14.0337 Y44.8239
S255
G1 X14.0185 Y44.8315
S255
G1 X14.0027 Y44.8376
S255
G1 X13.9905 Y44.8411
S255
G1 X13.9350 Y44.8519
S255
G1 X13.9228 Y44.8532
S255
G1 X13.9106 Y44.8537
S255
G1 X5.6474 Y44.8537
S255
G1 X5.6352 Y44.8532
S255
G1 X5.6230 Y44.8519
S255
G1 X5.5717 Y44.8421
S255
G1 X5.5593 Y44.8389
S255
G1 X5.5473 Y44.8347
S255
G1 X5.5356 Y44.8297
S255
G1 X5.5243 Y44.8239
S255
G1 X5.5135 Y44.8172
S255
G1 X5.4776 Y44.7930
S255
G1 X5.4646 Y44.7828
S255
G1 X5.4556 Y44.7744
S255
G1 X3.2316 Y42.5504
S255
G1 X3.2205 Y42.5382
S255
G1 X3.2130 Y42.5284
S255
G1 X3.1865 Y42.4889
S255
G1 X3.1801 Y42.4779
S255
G1 X3.1763 Y42.4704
S255
G1 X3.1698 Y42.4547
S255
G1 X3.1660 Y42.4426
S255
G1 X3.1631 Y42.4302
S255
G1 X3.1555 Y42.3911
S255
G1 X3.1531 Y42.3749
S255
G1 X3.1523 Y42.3586
S255
G1 X3.1523 Y32.3560
S255
G1 X3.1531 Y32.3401
S255
G1 X3.1546 Y32.3283
S255
G1 X3.1652 Y32.2778
S255
G1 X3.1695 Y32.2616
S255
G1 X3.1723 Y32.2536
S255
G1 X3.1771 Y32.2420
S255
G1 X3.1828 Y32.2308
S255
G1 X3.1871 Y32.2236
S255
G1 X3.1966 Y32.2098
S255
G1 X3.2287 Y32.1684
S255
G1 X3.2369 Y32.1594
S255
G1 X3.2458 Y32.1510
S255
G1 X3.2585 Y32.1408
S255
G1 X3.2721 Y32.1318
S255
G1 X3.3178 Y32.1076
S255
G1 X3.3290 Y32.1022
S255
G1 X3.3405 Y32.0976
S255
G1 X3.3564 Y32.0929
S255
G1 X3.3726 Y32.0898
S255
G1 X3.3849 Y32.0884
S255
G1 X3.4328 Y32.0861
S255
G1 X3.4452 Y32.0860
S255
G1 X3.4617 Y32.0873
S255
G1 X3.4779 Y32.0901
S255
G1 X3.4899 Y32.0933
S255
G1 X3.5017 Y32.0973
S255
G1 X3.5462 Y32.1156
S255
G1 X3.5578 Y32.1209
S255
G1 X3.5726 Y32.1293
S255
G1 X3.5866 Y32.1392
S255
G1 X3.5994 Y32.1504
S255
G1 X3.6354 Y32.1885
S255
G1 X3.6436 Y32.1980
S255
G1 X3.6486 Y32.2046
S255
G1 X3.6556 Y32.2149
S255
G1 X3.7156 Y32.3167
S255
G1 X3.8100 Y32.4435
S255
G1 X3.9171 Y32.5597
S255
G1 X4.0360 Y32.6636
S255
G1 X4.1656 Y32.7548
S255
G1 X4.3115 Y32.8358
S255
G1 X4.3203 Y32.8410
S255
G1 X4.3629 Y32.8682
S255
G1 X4.3729 Y32.8754
S255
G1 X4.3824 Y32.8834
S255
G1 X4.3941 Y32.8950
S255
G1 X4.4020 Y32.9045
S255
G1 X4.4093 Y32.9145
S255
G1 X4.4357 Y32.9541
S255
G1 X4.4437 Y32.9690
S255
G1 X4.4486 Y32.9806
S255
G1 X4.4539 Y32.9966
S255
G1 X4.4568 Y33.0089
S255
G1 X4.4652 Y33.0516
S255
G1 X4.4669 Y33.0639
S255
G1 X4.4675 Y33.0722
S255
G1 X4.4677 Y34.0251
S255
G1 X4.4747 Y34.1118
S255
G1 X4.4924 Y34.1857
S255
G1 X4.5213 Y34.2559
S255
G1 X4.5609 Y34.3205
S255
G1 X4.6174 Y34.3861
S255
G1 X6.7181 Y36.4873
S255
G1 X6.7264 Y36.4962
S255
G1 X6.7340 Y36.5056
S255
G1 X6.7634 Y36.5488
S255
G1 X6.7678 Y36.5561
S255
G1 X6.7738 Y36.5675
S255
G1 X6.7788 Y36.5793
S255
G1 X6.7830 Y36.5914
S255
G1 X6.7862 Y36.6038
S255
G1 X6.7955 Y36.6511
S255
G1 X6.7971 Y36.6633
S255
G1 X6.7978 Y36.6755
S255
G1 X6.7978 Y37.0906
S255
G1 X6.7971 Y37.1029
S255
G1 X6.7955 Y37.1150
S255
G1 X6.7853 Y37.1665
S255
G1 X6.7830 Y37.1748
S255
G1 X6.7788 Y37.1869
S255
G1 X6.7756 Y37.1948
S255
G1 X6.7699 Y37.2063
S255
G1 X6.7634 Y37.2174
S255
G1 X6.7363 Y37.2574
S255
G1 X6.7287 Y37.2673
S255
G1 X6.7204 Y37.2766
S255
G1 X6.7114 Y37.2852
S255
G1 X6.6985 Y37.2957
S255
G1 X6.6587 Y37.3223
S255
G1 X6.6483 Y37.3286
S255
G1 X6.6339 Y37.3359
S255
G1 X6.4972 Y37.3928
S255
G1 X6.3760 Y37.4598
S255
G1 X6.2631 Y37.5397
S255
G1 X6.1600 Y37.6321
S255
G1 X6.0676 Y37.7353
S255
G1 X5.9878 Y37.8480
S255
G1 X5.9207 Y37.9697
S255
G1 X5.8675 Y38.0975
S255
G1 X5.8292 Y38.2304
S255
G1 X5.8060 Y38.3669
S255
G1 X5.7984 Y38.5049
S255
G1 X5.8060 Y38.6434
S255
G1 X5.8292 Y38.7799
S255
G1 X5.8675 Y38.9128
S255
G1 X5.9207 Y39.0405
S255
G1 X5.9878 Y39.1622
S255
G1 X6.0676 Y39.2750
S255
G1 X6.1600 Y39.3781
S255
G1 X6.2631 Y39.4706
S255
G1 X6.3760 Y39.5504
S255
G1 X6.4972 Y39.6175
S255
G1 X6.6301 Y39.6728
S255
G1 X6.6448 Y39.6797
S255
G1 X6.6553 Y39.6858
S255
G1 X6.6951 Y39.7121
S255
G1 X6.7051 Y39.7196
S255
G1 X6.7114 Y39.7250
S255
G1 X6.7204 Y39.7337
S255
G1 X6.7260 Y39.7398
S255
G1 X6.7363 Y39.7529
S255
G1 X6.7634 Y39.7929
S255
G1 X6.7699 Y39.8039
S255
G1 X6.7738 Y39.8116
S255
G1 X6.7803 Y39.8274
S255
G1 X6.7853 Y39.8437
S255
G1 X6.7961 Y39.8993
S255
G1 X6.7974 Y39.9115
S255
G1 X6.7979 Y39.9237
S255
G1 X6.7979 Y40.0868
S255
G1 X6.7971 Y40.1033
S255
G1 X6.7954 Y40.1156
S255
G1 X6.7870 Y40.1583
S255
G1 X6.7829 Y40.1748
S255
G1 X6.7787 Y40.1869
S255
G1 X6.7737 Y40.1986
S255
G1 X6.7678 Y40.2099
S255
G1 X6.7610 Y40.2207
S255
G1 X6.7340 Y40.2603
S255
G1 X6.7264 Y40.2697
S255
G1 X6.7181 Y40.2786
S255
G1 X6.7092 Y40.2869
S255
G1 X6.6998 Y40.2945
S255
G1 X6.6565 Y40.3239
S255
G1 X6.6453 Y40.3305
S255
G1 X6.6337 Y40.3362
S255
G1 X6.4969 Y40.3926
S255
G1 X6.3762 Y40.4595
S255
G1 X6.2631 Y40.5399
S255
G1 X6.1600 Y40.6319
S255
G1 X6.0677 Y40.7354
S255
G1 X5.9877 Y40.8484
S255
G1 X5.9207 Y40.9695
S255
G1 X5.8676 Y41.0976
S255
G1 X5.8292 Y41.2307
S255
G1 X5.8060 Y41.3666
S255
G1 X5.7984 Y41.5051
S255
G1 X5.8060 Y41.6436
S255
G1 X5.8292 Y41.7796
S255
G1 X5.8676 Y41.9126
S255
G1 X5.9207 Y42.0408
S255
G1 X5.9877 Y42.1619
S255
G1 X6.0677 Y42.2749
S255
G1 X6.1600 Y42.3784
S255
G1 X6.2631 Y42.4703
S255
G1 X6.3762 Y42.5508
S255
G1 X6.4969 Y42.6176
S255
G1 X6.6250 Y42.6702
S255
G1 X6.7583 Y42.7087
S255
G1 X6.8949 Y42.7319
S255
G1 X7.0407 Y42.7403
S255
G1 X7.5252 Y42.7403
S255
G1 X7.6710 Y42.7319
S255
G1 X7.8076 Y42.7087
S255
G1 X7.9409 Y42.6702
S255
G1 X8.0690 Y42.6176
S255
G1 X8.1897 Y42.5508
S255
G1 X8.3028 Y42.4703
S255
G1 X8.4059 Y42.3784
S255
G1 X8.4982 Y42.2749
S255
G1 X8.5782 Y42.1619
S255
G1 X8.6452 Y42.0408
S255
G1 X8.6983 Y41.9126
S255
G1 X8.7367 Y41.7796
S255
G1 X8.7599 Y41.6436
S255
G1 X8.7675 Y41.5051
S255
G1 X8.7599 Y41.3666
S255
G1 X8.7367 Y41.2307
S255
G1 X8.6983 Y41.0976
S255
G1 X8.6452 Y40.9695
S255
G1 X8.5782 Y40.8484
S255
G1 X8.4982 Y40.7354
S255
G1 X8.4059 Y40.6319
S255
G1 X8.3028 Y40.5399
S255
G1 X8.1897 Y40.4595
S255
G1 X8.0689 Y40.3926
S255
G1 X7.9362 Y40.3379
S255
G1 X7.9205 Y40.3305
S255
G1 X7.9057 Y40.3215
S255
G1 X7.8727 Y40.2992
S255
G1 X7.8629 Y40.2920
S255
G1 X7.8536 Y40.2842
S255
G1 X7.8478 Y40.2786
S255
G1 X7.8422 Y40.2728
S255
G1 X7.8344 Y40.2635
S255
G1 X7.8272 Y40.2537
S255
G1 X7.8025 Y40.2172
S255
G1 X7.7960 Y40.2062
S255
G1 X7.7904 Y40.1947
S255
G1 X7.7856 Y40.1829
S255
G1 X7.7807 Y40.1666
S255
G1 X7.7712 Y40.1197
S255
G1 X7.7693 Y40.1074
S255
G1 X7.7681 Y40.0909
S255
G1 X7.7682 Y39.9155
S255
G1 X7.7688 Y39.9074
S255
G1 X7.7704 Y39.8952
S255
G1 X7.7796 Y39.8479
S255
G1 X7.7842 Y39.8314
S255
G1 X7.7903 Y39.8154
S255
G1 X7.7960 Y39.8039
S255
G1 X7.8025 Y39.7929
S255
G1 X7.8296 Y39.7528
S255
G1 X7.8399 Y39.7398
S255
G1 X7.8455 Y39.7337
S255
G1 X7.8545 Y39.7250
S255
G1 X7.8608 Y39.7196
S255
G1 X7.8708 Y39.7121
S255
G1 X7.9106 Y39.6858
S255
G1 X7.9211 Y39.6797
S255
G1 X7.9357 Y39.6728
S255
G1 X8.0687 Y39.6175
S255
G1 X8.1899 Y39.5504
S255
G1 X8.3027 Y39.4706
S255
G1 X8.4059 Y39.3781
S255
G1 X8.4983 Y39.2750
S255
G1 X8.5781 Y39.1622
S255
G1 X8.6452 Y39.0405
S255
G1 X8.6983 Y38.9128
S255
G1 X8.7367 Y38.7799
S255
G1 X8.7599 Y38.6434
S255
G1 X8.7675 Y38.5049
S255
G1 X8.7599 Y38.3669
S255
G1 X8.7367 Y38.2304
S255
G1 X8.6983 Y38.0975
S255
G1 X8.6452 Y37.9697
S255
G1 X8.5781 Y37.8480
S255
G1 X8.4983 Y37.7353
S255
G1 X8.4059 Y37.6321
S255
G1 X8.3027 Y37.5397
S255
G1 X8.1899 Y37.4598
S255
G1 X8.0687 Y37.3928
S255
G1 X7.9357 Y37.3375
S255
G1 X7.9247 Y37.3324
S255
G1 X7.9106 Y37.3245
S255
G1 X7.8742 Y37.3005
S255
G1 X7.8641 Y37.2932
S255
G1 X7.8545 Y37.2852
S255
G1 X7.8455 Y37.2766
S255
G1 X7.8346 Y37.2640
S255
G1 X7.8272 Y37.2540
S255
G1 X7.8025 Y37.2174
S255
G1 X7.7960 Y37.2063
S255
G1 X7.7903 Y37.1948
S255
G1 X7.7842 Y37.1789
S255
G1 X7.7796 Y37.1624
S255
G1 X7.7704 Y37.1150
S255
G1 X7.7688 Y37.1029
S255
G1 X7.7680 Y37.0906
S255
G1 X7.7680 Y36.3762
S255
G1 X7.7614 Y36.2904
S255
G1 X7.7434 Y36.2163
S255
G1 X7.7144 Y36.1460
S255
G1 X7.6746 Y36.0814
S255
G1 X7.6184 Y36.0152
S255
G1 X5.5147 Y33.9115
S255
G1 X5.5065 Y33.9022
S255
G1 X5.4990 Y33.8924
S255
G1 X5.4748 Y33.8565
S255
G1 X5.4681 Y33.8457
S255
G1 X5.4605 Y33.8305
S255
G1 X5.4558 Y33.8187
S255
G1 X5.4509 Y33.8025
S255
G1 X5.4415 Y33.7551
S255
G1 X5.4395 Y33.7430
S255
G1 X5.4385 Y33.7307
S255
G1 X5.4383 Y33.7226
S255
G1 X5.4384 Y33.0741
S255
G1 X5.4392 Y33.0611
S255
G1 X5.4403 Y33.0525
S255
G1 X5.4484 Y33.0076
S255
G1 X5.4525 Y32.9917
S255
G1 X5.4566 Y32.9800
S255
G1 X5.4597 Y32.9724
S255
G1 X5.4652 Y32.9614
S255
G1 X5.4692 Y32.9542
S255
G1 X5.4917 Y32.9187
S255
G1 X5.4987 Y32.9085
S255
G1 X5.5065 Y32.8989
S255
G1 X5.5149 Y32.8898
S255
G1 X5.5239 Y32.8813
S255
G1 X5.5336 Y32.8736
S255
G1 X5.5668 Y32.8489
S255
G1 X5.5768 Y32.8423
S255
G1 X5.5909 Y32.8346
S255
G1 X5.6727 Y32.7949
S255
G1 X5.8065 Y32.7111
S255
G1 X5.9306 Y32.6135
S255
G1 X6.0441 Y32.5032
S255
G1 X6.1448 Y32.3815
S255
G1 X6.2323 Y32.2498
S255
G1 X6.3052 Y32.1095
S255
G1 X6.3626 Y31.9623
S255
G1 X6.4041 Y31.8101
S255
G1 X6.4292 Y31.6536
S255
G1 X6.4378 Y31.4960
S255
G1 X6.4292 Y31.3384
S255
G1 X6.4041 Y31.1819
S255
G1 X6.3626 Y31.0297
S255
G1 X6.3052 Y30.8825
S255
G1 X6.2323 Y30.7422
S255
G1 X6.1448 Y30.6105
S255
G1 X6.0441 Y30.4888
S255
G1 X5.9306 Y30.3785
S255
G1 X5.8065 Y30.2809
S255
G1 X5.6727 Y30.1971
S255
G1 X5.5909 Y30.1574
S255
G1 X5.5769 Y30.1497
S255
G1 X5.5668 Y30.1431
S255
G1 X5.5303 Y30.1159
S255
G1 X5.5209 Y30.1079
S255
G1 X5.5120 Y30.0993
S255
G1 X5.5012 Y30.0868
S255
G1 X5.4917 Y30.0733
S255
G1 X5.4672 Y30.0342
S255
G1 X5.4615 Y30.0233
S255
G1 X5.4581 Y30.0158
S255
G1 X5.4525 Y30.0003
S255
G1 X5.4484 Y29.9844
S255
G1 X5.4403 Y29.9395
S255
