G90
G21
M4

(Units: MM)

(Created on Monday, 17 March 2025 at 23:34)

(It is made to work with MACH3 compatible motion controllers.)

(Feedrate_XY: 60.0 mm/min)
(Feedrate_Z: 60.0 mm/min)
(Feedrate rapids 1500.0 mm/min)

(Z_Cut: -0.05 mm)
(Z_Move: 2.0 mm)
(Z Start: None mm)
(Z End: 15.0 mm)
(X,Y End: None mm)
(Steps per circle: 64)
(Preprocessor Geometry: default)

(X range:    3.7523 ...   46.4127  mm)
(Y range:    1.3393 ...   48.4447  mm)

(Spindle Speed: 0.0 RPM)
G21
G90
G94

S255
G1 F1000

S0
G0 Z15.0000
G0 X0.0000 Y0.0000
G0 Z15.0000

S255
G1 F1000
S0
G0 X7.2390 Y1.3393
S255
G1 F1000
G1 Z-0.0500
S255
G1 F1000
S255
G1 X7.1654 Y1.3429
S255
G1 X7.0926 Y1.3537
S255
G1 X7.0211 Y1.3716
S255
G1 X6.9517 Y1.3965
S255
G1 X6.8851 Y1.4280
S255
G1 X6.8219 Y1.4658
S255
G1 X6.7628 Y1.5097
S255
G1 X6.7082 Y1.5592
S255
G1 X6.6587 Y1.6138
S255
G1 X6.6148 Y1.6729
S255
G1 X6.5770 Y1.7361
S255
G1 X6.5455 Y1.8027
S255
G1 X6.5206 Y1.8721
S255
G1 X6.5027 Y1.9436
S255
G1 X6.4919 Y2.0164
S255
G1 X6.4882 Y2.0925
S255
G1 X6.4882 Y2.9875
S255
G1 X6.4919 Y3.0636
S255
G1 X6.5027 Y3.1364
S255
G1 X6.5206 Y3.2079
S255
G1 X6.5455 Y3.2773
S255
G1 X6.5770 Y3.3439
S255
G1 X6.6148 Y3.4071
S255
G1 X6.6587 Y3.4662
S255
G1 X6.7082 Y3.5208
S255
G1 X6.7628 Y3.5703
S255
G1 X6.8219 Y3.6142
S255
G1 X6.8851 Y3.6520
S255
G1 X6.9517 Y3.6835
S255
G1 X7.0211 Y3.7084
S255
G1 X7.0926 Y3.7263
S255
G1 X7.1654 Y3.7371
S255
G1 X7.2390 Y3.7407
S255
G1 X7.3126 Y3.7371
S255
G1 X7.3854 Y3.7263
S255
G1 X7.4569 Y3.7084
S255
G1 X7.5263 Y3.6835
S255
G1 X7.5929 Y3.6520
S255
G1 X7.6561 Y3.6142
S255
G1 X7.7152 Y3.5703
S255
G1 X7.7698 Y3.5208
S255
G1 X7.8193 Y3.4662
S255
G1 X7.8632 Y3.4071
S255
G1 X7.9010 Y3.3439
S255
G1 X7.9325 Y3.2773
S255
G1 X7.9574 Y3.2079
S255
G1 X7.9753 Y3.1364
S255
G1 X7.9861 Y3.0636
S255
G1 X7.9898 Y2.9875
S255
G1 X7.9898 Y2.0925
S255
G1 X7.9861 Y2.0164
S255
G1 X7.9753 Y1.9436
S255
G1 X7.9574 Y1.8721
S255
G1 X7.9325 Y1.8027
S255
G1 X7.9010 Y1.7361
S255
G1 X7.8632 Y1.6729
S255
G1 X7.8193 Y1.6138
S255
G1 X7.7698 Y1.5592
S255
G1 X7.7152 Y1.5097
S255
G1 X7.6561 Y1.4658
S255
G1 X7.5929 Y1.4280
S255
G1 X7.5263 Y1.3965
S255
G1 X7.4569 Y1.3716
S255
G1 X7.3854 Y1.3537
S255
G1 X7.3126 Y1.3429
S255
G1 X7.2390 Y1.3393
S255
S0
G0 Z2.0000
G0 X7.2390 Y1.4995
S255
G1 F1000
G1 Z-0.0500
S255
G1 F1000
S255
G1 X7.1811 Y1.5024
S255
G1 X7.1238 Y1.5109
S255
G1 X7.0676 Y1.5249
S255
G1 X7.0130 Y1.5445
S255
G1 X6.9606 Y1.5692
S255
G1 X6.9109 Y1.5990
S255
G1 X6.8644 Y1.6336
S255
G1 X6.8215 Y1.6725
S255
G1 X6.7825 Y1.7154
S255
G1 X6.7480 Y1.7619
S255
G1 X6.7182 Y1.8116
S255
G1 X6.6935 Y1.8640
S255
G1 X6.6739 Y1.9186
S255
G1 X6.6599 Y1.9748
S255
G1 X6.6514 Y2.0321
S255
G1 X6.6482 Y2.0964
S255
G1 X6.6482 Y2.9836
S255
G1 X6.6514 Y3.0479
S255
G1 X6.6599 Y3.1052
S255
G1 X6.6739 Y3.1614
S255
G1 X6.6935 Y3.2160
S255
G1 X6.7182 Y3.2684
S255
G1 X6.7480 Y3.3181
S255
G1 X6.7825 Y3.3646
S255
G1 X6.8215 Y3.4075
S255
G1 X6.8644 Y3.4464
S255
G1 X6.9109 Y3.4810
S255
G1 X6.9606 Y3.5108
S255
G1 X7.0130 Y3.5355
S255
G1 X7.0676 Y3.5551
S255
G1 X7.1238 Y3.5691
S255
G1 X7.1811 Y3.5776
S255
G1 X7.2390 Y3.5805
S255
G1 X7.2969 Y3.5776
S255
G1 X7.3542 Y3.5691
S255
G1 X7.4104 Y3.5551
S255
G1 X7.4650 Y3.5355
S255
G1 X7.5174 Y3.5108
S255
G1 X7.5671 Y3.4810
S255
G1 X7.6136 Y3.4464
S255
G1 X7.6565 Y3.4075
S255
G1 X7.6955 Y3.3646
S255
G1 X7.7300 Y3.3181
S255
G1 X7.7598 Y3.2684
S255
G1 X7.7845 Y3.2160
S255
G1 X7.8041 Y3.1614
S255
G1 X7.8181 Y3.1052
S255
G1 X7.8266 Y3.0479
S255
G1 X7.8298 Y2.9836
S255
G1 X7.8298 Y2.0964
S255
G1 X7.8266 Y2.0321
S255
G1 X7.8181 Y1.9748
S255
G1 X7.8041 Y1.9186
S255
G1 X7.7845 Y1.8640
S255
G1 X7.7598 Y1.8116
S255
G1 X7.7300 Y1.7619
S255
G1 X7.6955 Y1.7154
S255
G1 X7.6565 Y1.6725
S255
G1 X7.6136 Y1.6336
S255
G1 X7.5671 Y1.5990
S255
G1 X7.5174 Y1.5692
S255
G1 X7.4650 Y1.5445
S255
G1 X7.4104 Y1.5249
S255
G1 X7.3542 Y1.5109
S255
G1 X7.2969 Y1.5024
S255
G1 X7.2390 Y1.4995
S255
S0
G0 Z2.0000
G0 X7.2390 Y1.6597
S255
G1 F1000
G1 Z-0.0500
S255
G1 F1000
S255
G1 X7.1968 Y1.6618
S255
G1 X7.1551 Y1.6680
S255
G1 X7.1141 Y1.6782
S255
G1 X7.0743 Y1.6925
S255
G1 X7.0362 Y1.7105
S255
G1 X6.9999 Y1.7322
S255
G1 X6.9660 Y1.7574
S255
G1 X6.9347 Y1.7857
S255
G1 X6.9064 Y1.8170
S255
G1 X6.8812 Y1.8509
S255
G1 X6.8595 Y1.8872
S255
G1 X6.8415 Y1.9253
S255
G1 X6.8272 Y1.9651
S255
G1 X6.8170 Y2.0061
S255
G1 X6.8108 Y2.0478
S255
G1 X6.8082 Y2.1003
S255
G1 X6.8082 Y2.9797
S255
G1 X6.8108 Y3.0322
S255
G1 X6.8170 Y3.0739
S255
G1 X6.8272 Y3.1149
S255
G1 X6.8415 Y3.1547
S255
G1 X6.8595 Y3.1928
S255
G1 X6.8812 Y3.2291
S255
G1 X6.9064 Y3.2630
S255
G1 X6.9347 Y3.2943
S255
G1 X6.9660 Y3.3226
S255
G1 X6.9999 Y3.3478
S255
G1 X7.0362 Y3.3695
S255
G1 X7.0743 Y3.3875
S255
G1 X7.1141 Y3.4018
S255
G1 X7.1551 Y3.4120
S255
G1 X7.1968 Y3.4182
S255
G1 X7.2390 Y3.4203
S255
G1 X7.2812 Y3.4182
S255
G1 X7.3229 Y3.4120
S255
G1 X7.3639 Y3.4018
S255
G1 X7.4037 Y3.3875
S255
G1 X7.4418 Y3.3695
S255
G1 X7.4781 Y3.3478
S255
G1 X7.5120 Y3.3226
S255
G1 X7.5433 Y3.2943
S255
G1 X7.5716 Y3.2630
S255
G1 X7.5968 Y3.2291
S255
G1 X7.6185 Y3.1928
S255
G1 X7.6365 Y3.1547
S255
G1 X7.6508 Y3.1149
S255
G1 X7.6610 Y3.0739
S255
G1 X7.6672 Y3.0322
S255
G1 X7.6698 Y2.9797
S255
G1 X7.6698 Y2.1003
S255
G1 X7.6672 Y2.0478
S255
G1 X7.6610 Y2.0061
S255
G1 X7.6508 Y1.9651
S255
G1 X7.6365 Y1.9253
S255
G1 X7.6185 Y1.8872
S255
G1 X7.5968 Y1.8509
S255
G1 X7.5716 Y1.8170
S255
G1 X7.5433 Y1.7857
S255
G1 X7.5120 Y1.7574
S255
G1 X7.4781 Y1.7322
S255
G1 X7.4418 Y1.7105
S255
G1 X7.4037 Y1.6925
S255
G1 X7.3639 Y1.6782
S255
G1 X7.3229 Y1.6680
S255
G1 X7.2812 Y1.6618
S255
G1 X7.2390 Y1.6597
S255
S0
G0 Z2.0000
G0 X7.2390 Y1.8199
S255
G1 F1000
G1 Z-0.0500
S255
G1 F1000
S255
G1 X7.2125 Y1.8212
S255
G1 X7.1863 Y1.8251
S255
G1 X7.1606 Y1.8315
S255
G1 X7.1356 Y1.8405
S255
G1 X7.1117 Y1.8518
S255
G1 X7.0889 Y1.8654
S255
G1 X7.0677 Y1.8812
S255
G1 X7.0480 Y1.8990
S255
G1 X7.0302 Y1.9187
S255
G1 X7.0144 Y1.9399
S255
G1 X7.0008 Y1.9627
S255
G1 X6.9895 Y1.9866
S255
G1 X6.9805 Y2.0116
S255
G1 X6.9741 Y2.0373
S255
G1 X6.9702 Y2.0635
S255
G1 X6.9682 Y2.1042
S255
G1 X6.9682 Y2.9758
S255
G1 X6.9702 Y3.0165
S255
G1 X6.9741 Y3.0427
S255
G1 X6.9805 Y3.0684
S255
G1 X6.9895 Y3.0934
S255
G1 X7.0008 Y3.1173
S255
G1 X7.0144 Y3.1401
S255
G1 X7.0302 Y3.1613
S255
G1 X7.0480 Y3.1810
S255
G1 X7.0677 Y3.1988
S255
G1 X7.0889 Y3.2146
S255
G1 X7.1117 Y3.2282
S255
G1 X7.1356 Y3.2395
S255
G1 X7.1606 Y3.2485
S255
G1 X7.1863 Y3.2549
S255
G1 X7.2125 Y3.2588
S255
G1 X7.2390 Y3.2601
S255
G1 X7.2655 Y3.2588
S255
G1 X7.2917 Y3.2549
S255
G1 X7.3174 Y3.2485
S255
G1 X7.3424 Y3.2395
S255
G1 X7.3663 Y3.2282
S255
G1 X7.3891 Y3.2146
S255
G1 X7.4103 Y3.1988
S255
G1 X7.4300 Y3.1810
S255
G1 X7.4478 Y3.1613
S255
G1 X7.4636 Y3.1401
S255
G1 X7.4772 Y3.1173
S255
G1 X7.4885 Y3.0934
S255
G1 X7.4975 Y3.0684
S255
G1 X7.5039 Y3.0427
S255
G1 X7.5078 Y3.0165
S255
G1 X7.5098 Y2.9758
S255
G1 X7.5098 Y2.1042
S255
G1 X7.5078 Y2.0635
S255
G1 X7.5039 Y2.0373
S255
G1 X7.4975 Y2.0116
S255
G1 X7.4885 Y1.9866
S255
G1 X7.4772 Y1.9627
S255
G1 X7.4636 Y1.9399
S255
G1 X7.4478 Y1.9187
S255
G1 X7.4300 Y1.8990
S255
G1 X7.4103 Y1.8812
S255
G1 X7.3891 Y1.8654
S255
G1 X7.3663 Y1.8518
S255
G1 X7.3424 Y1.8405
S255
G1 X7.3174 Y1.8315
S255
G1 X7.2917 Y1.8251
S255
G1 X7.2655 Y1.8212
S255
G1 X7.2390 Y1.8199
S255
S0
G0 Z2.0000
G0 X7.2390 Y1.9801
S255
G1 F1000
G1 Z-0.0500
S255
G1 F1000
S255
G1 X7.2282 Y1.9806
S255
G1 X7.2176 Y1.9822
S255
G1 X7.2071 Y1.9848
S255
G1 X7.1969 Y1.9885
S255
G1 X7.1872 Y1.9931
S255
G1 X7.1779 Y1.9986
S255
G1 X7.1693 Y2.0050
S255
G1 X7.1613 Y2.0123
S255
G1 X7.1540 Y2.0203
S255
G1 X7.1476 Y2.0289
S255
G1 X7.1421 Y2.0382
S255
G1 X7.1375 Y2.0479
S255
G1 X7.1338 Y2.0581
S255
G1 X7.1312 Y2.0686
S255
G1 X7.1296 Y2.0792
S255
G1 X7.1282 Y2.1082
S255
G1 X7.1282 Y2.9718
S255
G1 X7.1296 Y3.0008
S255
G1 X7.1312 Y3.0114
S255
G1 X7.1338 Y3.0219
S255
G1 X7.1375 Y3.0321
S255
G1 X7.1421 Y3.0418
S255
G1 X7.1476 Y3.0511
S255
G1 X7.1540 Y3.0597
S255
G1 X7.1613 Y3.0677
S255
G1 X7.1693 Y3.0750
S255
G1 X7.1779 Y3.0814
S255
G1 X7.1872 Y3.0869
S255
G1 X7.1969 Y3.0915
S255
G1 X7.2071 Y3.0952
S255
G1 X7.2176 Y3.0978
S255
G1 X7.2282 Y3.0994
S255
G1 X7.2390 Y3.0999
S255
G1 X7.2498 Y3.0994
S255
G1 X7.2604 Y3.0978
S255
G1 X7.2709 Y3.0952
S255
G1 X7.2811 Y3.0915
S255
G1 X7.2908 Y3.0869
S255
G1 X7.3001 Y3.0814
S255
G1 X7.3087 Y3.0750
S255
G1 X7.3167 Y3.0677
S255
G1 X7.3240 Y3.0597
S255
G1 X7.3304 Y3.0511
S255
G1 X7.3359 Y3.0418
S255
G1 X7.3405 Y3.0321
S255
G1 X7.3442 Y3.0219
S255
G1 X7.3468 Y3.0114
S255
G1 X7.3484 Y3.0008
S255
G1 X7.3498 Y2.9718
S255
G1 X7.3498 Y2.1082
S255
G1 X7.3484 Y2.0792
S255
G1 X7.3468 Y2.0686
S255
G1 X7.3442 Y2.0581
S255
G1 X7.3405 Y2.0479
S255
G1 X7.3359 Y2.0382
S255
G1 X7.3304 Y2.0289
S255
G1 X7.3240 Y2.0203
S255
G1 X7.3167 Y2.0123
S255
G1 X7.3087 Y2.0050
S255
G1 X7.3001 Y1.9986
S255
G1 X7.2908 Y1.9931
S255
G1 X7.2811 Y1.9885
S255
G1 X7.2709 Y1.9848
S255
G1 X7.2604 Y1.9822
S255
G1 X7.2498 Y1.9806
S255
G1 X7.2390 Y1.9801
S255
S0
G0 Z2.0000
G0 X9.7790 Y1.9801
S255
G1 F1000
G1 Z-0.0500
S255
G1 F1000
S255
G1 X9.7682 Y1.9806
S255
G1 X9.7576 Y1.9822
S255
G1 X9.7471 Y1.9848
S255
G1 X9.7369 Y1.9885
S255
G1 X9.7272 Y1.9931
S255
G1 X9.7179 Y1.9986
S255
G1 X9.7093 Y2.0050
S255
G1 X9.7013 Y2.0123
S255
G1 X9.6940 Y2.0203
S255
G1 X9.6876 Y2.0289
S255
G1 X9.6821 Y2.0382
S255
G1 X9.6775 Y2.0479
S255
G1 X9.6738 Y2.0581
S255
G1 X9.6712 Y2.0686
S255
G1 X9.6696 Y2.0792
S255
G1 X9.6682 Y2.1082
S255
G1 X9.6682 Y2.9718
S255
G1 X9.6696 Y3.0008
S255
G1 X9.6712 Y3.0114
S255
G1 X9.6738 Y3.0219
S255
G1 X9.6775 Y3.0321
S255
G1 X9.6821 Y3.0418
S255
G1 X9.6876 Y3.0511
S255
G1 X9.6940 Y3.0597
S255
G1 X9.7013 Y3.0677
S255
G1 X9.7093 Y3.0750
S255
G1 X9.7179 Y3.0814
S255
G1 X9.7272 Y3.0869
S255
G1 X9.7369 Y3.0915
S255
G1 X9.7471 Y3.0952
S255
G1 X9.7576 Y3.0978
S255
G1 X9.7682 Y3.0994
S255
G1 X9.7790 Y3.0999
S255
G1 X9.7898 Y3.0994
S255
G1 X9.8004 Y3.0978
S255
G1 X9.8109 Y3.0952
S255
G1 X9.8211 Y3.0915
S255
G1 X9.8308 Y3.0869
S255
G1 X9.8401 Y3.0814
S255
G1 X9.8487 Y3.0750
S255
G1 X9.8567 Y3.0677
S255
G1 X9.8640 Y3.0597
S255
G1 X9.8704 Y3.0511
S255
G1 X9.8759 Y3.0418
S255
G1 X9.8805 Y3.0321
S255
G1 X9.8842 Y3.0219
S255
G1 X9.8868 Y3.0114
S255
G1 X9.8884 Y3.0008
S255
G1 X9.8898 Y2.9718
S255
G1 X9.8898 Y2.1082
S255
G1 X9.8884 Y2.0792
S255
G1 X9.8868 Y2.0686
S255
G1 X9.8842 Y2.0581
S255
G1 X9.8805 Y2.0479
S255
G1 X9.8759 Y2.0382
S255
G1 X9.8704 Y2.0289
S255
G1 X9.8640 Y2.0203
S255
G1 X9.8567 Y2.0123
S255
G1 X9.8487 Y2.0050
S255
G1 X9.8401 Y1.9986
S255
G1 X9.8308 Y1.9931
S255
G1 X9.8211 Y1.9885
S255
G1 X9.8109 Y1.9848
S255
G1 X9.8004 Y1.9822
S255
G1 X9.7898 Y1.9806
S255
G1 X9.7790 Y1.9801
S255
S0
G0 Z2.0000
G0 X9.7790 Y1.8199
S255
G1 F1000
G1 Z-0.0500
S255
G1 F1000
S255
G1 X9.7525 Y1.8212
S255
G1 X9.7263 Y1.8251
S255
G1 X9.7006 Y1.8315
S255
G1 X9.6756 Y1.8405
S255
G1 X9.6517 Y1.8518
S255
G1 X9.6289 Y1.8654
S255
G1 X9.6077 Y1.8812
S255
G1 X9.5880 Y1.8990
S255
G1 X9.5702 Y1.9187
S255
G1 X9.5544 Y1.9399
S255
G1 X9.5408 Y1.9627
S255
G1 X9.5295 Y1.9866
S255
G1 X9.5205 Y2.0116
S255
G1 X9.5141 Y2.0373
S255
G1 X9.5102 Y2.0635
S255
G1 X9.5082 Y2.1042
S255
G1 X9.5082 Y2.9758
S255
G1 X9.5102 Y3.0165
S255
G1 X9.5141 Y3.0427
S255
G1 X9.5205 Y3.0684
S255
G1 X9.5295 Y3.0934
S255
G1 X9.5408 Y3.1173
S255
G1 X9.5544 Y3.1401
S255
G1 X9.5702 Y3.1613
S255
G1 X9.5880 Y3.1810
S255
G1 X9.6077 Y3.1988
S255
G1 X9.6289 Y3.2146
S255
G1 X9.6517 Y3.2282
S255
G1 X9.6756 Y3.2395
S255
G1 X9.7006 Y3.2485
S255
G1 X9.7263 Y3.2549
S255
G1 X9.7525 Y3.2588
S255
G1 X9.7790 Y3.2601
S255
G1 X9.8055 Y3.2588
S255
G1 X9.8317 Y3.2549
S255
G1 X9.8574 Y3.2485
S255
G1 X9.8824 Y3.2395
S255
G1 X9.9063 Y3.2282
S255
G1 X9.9291 Y3.2146
S255
G1 X9.9503 Y3.1988
S255
G1 X9.9700 Y3.1810
S255
G1 X9.9878 Y3.1613
S255
G1 X10.0036 Y3.1401
S255
G1 X10.0172 Y3.1173
S255
G1 X10.0285 Y3.0934
S255
G1 X10.0375 Y3.0684
S255
G1 X10.0439 Y3.0427
S255
G1 X10.0478 Y3.0165
S255
G1 X10.0498 Y2.9758
S255
G1 X10.0498 Y2.1042
S255
G1 X10.0478 Y2.0635
S255
G1 X10.0439 Y2.0373
S255
G1 X10.0375 Y2.0116
S255
G1 X10.0285 Y1.9866
S255
G1 X10.0172 Y1.9627
S255
G1 X10.0036 Y1.9399
S255
G1 X9.9878 Y1.9187
S255
G1 X9.9700 Y1.8990
S255
G1 X9.9503 Y1.8812
S255
G1 X9.9291 Y1.8654
S255
G1 X9.9063 Y1.8518
S255
G1 X9.8824 Y1.8405
S255
G1 X9.8574 Y1.8315
S255
G1 X9.8317 Y1.8251
S255
G1 X9.8055 Y1.8212
S255
G1 X9.7790 Y1.8199
S255
S0
G0 Z2.0000
G0 X9.7790 Y1.6597
S255
G1 F1000
G1 Z-0.0500
S255
G1 F1000
S255
G1 X9.7368 Y1.6618
S255
G1 X9.6951 Y1.6680
S255
G1 X9.6541 Y1.6782
S255
G1 X9.6143 Y1.6925
S255
G1 X9.5762 Y1.7105
S255
G1 X9.5399 Y1.7322
S255
G1 X9.5060 Y1.7574
S255
G1 X9.4747 Y1.7857
S255
G1 X9.4464 Y1.8170
S255
G1 X9.4212 Y1.8509
S255
G1 X9.3995 Y1.8872
S255
G1 X9.3815 Y1.9253
S255
G1 X9.3672 Y1.9651
S255
G1 X9.3570 Y2.0061
S255
G1 X9.3508 Y2.0478
S255
G1 X9.3482 Y2.1003
S255
G1 X9.3482 Y2.9797
S255
G1 X9.3508 Y3.0322
S255
G1 X9.3570 Y3.0739
S255
G1 X9.3672 Y3.1149
S255
G1 X9.3815 Y3.1547
S255
G1 X9.3995 Y3.1928
S255
G1 X9.4212 Y3.2291
S255
G1 X9.4464 Y3.2630
S255
G1 X9.4747 Y3.2943
S255
G1 X9.5060 Y3.3226
S255
G1 X9.5399 Y3.3478
S255
G1 X9.5762 Y3.3695
S255
G1 X9.6143 Y3.3875
S255
G1 X9.6541 Y3.4018
S255
G1 X9.6951 Y3.4120
S255
G1 X9.7368 Y3.4182
S255
G1 X9.7790 Y3.4203
S255
G1 X9.8212 Y3.4182
S255
G1 X9.8629 Y3.4120
S255
G1 X9.9039 Y3.4018
S255
G1 X9.9437 Y3.3875
S255
G1 X9.9818 Y3.3695
S255
G1 X10.0181 Y3.3478
S255
G1 X10.0520 Y3.3226
S255
G1 X10.0833 Y3.2943
S255
G1 X10.1116 Y3.2630
S255
G1 X10.1368 Y3.2291
S255
G1 X10.1585 Y3.1928
S255
G1 X10.1765 Y3.1547
S255
G1 X10.1908 Y3.1149
S255
G1 X10.2010 Y3.0739
S255
G1 X10.2072 Y3.0322
S255
G1 X10.2098 Y2.9797
S255
G1 X10.2098 Y2.1003
S255
G1 X10.2072 Y2.0478
S255
G1 X10.2010 Y2.0061
S255
G1 X10.1908 Y1.9651
S255
G1 X10.1765 Y1.9253
S255
G1 X10.1585 Y1.8872
S255
G1 X10.1368 Y1.8509
S255
G1 X10.1116 Y1.8170
S255
G1 X10.0833 Y1.7857
S255
G1 X10.0520 Y1.7574
S255
G1 X10.0181 Y1.7322
S255
G1 X9.9818 Y1.7105
S255
G1 X9.9437 Y1.6925
S255
G1 X9.9039 Y1.6782
S255
G1 X9.8629 Y1.6680
S255
G1 X9.8212 Y1.6618
S255
G1 X9.7790 Y1.6597
S255
S0
G0 Z2.0000
G0 X9.7790 Y1.4995
S255
G1 F1000
G1 Z-0.0500
S255
G1 F1000
S255
G1 X9.7211 Y1.5024
S255
G1 X9.6638 Y1.5109
S255
G1 X9.6076 Y1.5249
S255
G1 X9.5530 Y1.5445
S255
G1 X9.5006 Y1.5692
S255
G1 X9.4509 Y1.5990
S255
G1 X9.4044 Y1.6336
S255
G1 X9.3615 Y1.6725
S255
G1 X9.3225 Y1.7154
S255
G1 X9.2880 Y1.7619
S255
G1 X9.2582 Y1.8116
S255
G1 X9.2335 Y1.8640
S255
G1 X9.2139 Y1.9186
S255
G1 X9.1999 Y1.9748
S255
G1 X9.1914 Y2.0321
S255
G1 X9.1882 Y2.0964
S255
G1 X9.1882 Y2.9836
S255
G1 X9.1914 Y3.0479
S255
G1 X9.1999 Y3.1052
S255
G1 X9.2139 Y3.1614
S255
G1 X9.2335 Y3.2160
S255
G1 X9.2582 Y3.2684
S255
G1 X9.2880 Y3.3181
S255
G1 X9.3225 Y3.3646
S255
G1 X9.3615 Y3.4075
S255
G1 X9.4044 Y3.4464
S255
G1 X9.4509 Y3.4810
S255
G1 X9.5006 Y3.5108
S255
G1 X9.5530 Y3.5355
S255
G1 X9.6076 Y3.5551
S255
G1 X9.6638 Y3.5691
S255
G1 X9.7211 Y3.5776
S255
G1 X9.7790 Y3.5805
S255
G1 X9.8369 Y3.5776
S255
G1 X9.8942 Y3.5691
S255
G1 X9.9504 Y3.5551
S255
G1 X10.0050 Y3.5355
S255
G1 X10.0574 Y3.5108
S255
G1 X10.1071 Y3.4810
S255
G1 X10.1536 Y3.4464
S255
G1 X10.1965 Y3.4075
S255
G1 X10.2355 Y3.3646
S255
G1 X10.2700 Y3.3181
S255
G1 X10.2998 Y3.2684
S255
G1 X10.3245 Y3.2160
S255
G1 X10.3441 Y3.1614
S255
G1 X10.3581 Y3.1052
S255
G1 X10.3666 Y3.0479
S255
G1 X10.3698 Y2.9836
S255
G1 X10.3698 Y2.0964
S255
G1 X10.3666 Y2.0321
S255
G1 X10.3581 Y1.9748
S255
G1 X10.3441 Y1.9186
S255
G1 X10.3245 Y1.8640
S255
G1 X10.2998 Y1.8116
S255
G1 X10.2700 Y1.7619
S255
G1 X10.2355 Y1.7154
S255
G1 X10.1965 Y1.6725
S255
G1 X10.1536 Y1.6336
S255
G1 X10.1071 Y1.5990
S255
G1 X10.0574 Y1.5692
S255
G1 X10.0050 Y1.5445
S255
G1 X9.9504 Y1.5249
S255
G1 X9.8942 Y1.5109
S255
G1 X9.8369 Y1.5024
S255
G1 X9.7790 Y1.4995
S255
S0
G0 Z2.0000
G0 X9.7790 Y1.3393
S255
G1 F1000
G1 Z-0.0500
S255
G1 F1000
S255
G1 X9.7054 Y1.3429
S255
G1 X9.6326 Y1.3537
S255
G1 X9.5611 Y1.3716
S255
G1 X9.4917 Y1.3965
S255
G1 X9.4251 Y1.4280
S255
G1 X9.3619 Y1.4658
S255
G1 X9.3028 Y1.5097
S255
G1 X9.2482 Y1.5592
S255
G1 X9.1987 Y1.6138
S255
G1 X9.1548 Y1.6729
S255
G1 X9.1170 Y1.7361
S255
G1 X9.0855 Y1.8027
S255
G1 X9.0606 Y1.8721
S255
G1 X9.0427 Y1.9436
S255
G1 X9.0319 Y2.0164
S255
G1 X9.0282 Y2.0925
S255
G1 X9.0282 Y2.9875
S255
G1 X9.0319 Y3.0636
S255
G1 X9.0427 Y3.1364
S255
G1 X9.0606 Y3.2079
S255
G1 X9.0855 Y3.2773
S255
G1 X9.1170 Y3.3439
S255
G1 X9.1548 Y3.4071
S255
G1 X9.1987 Y3.4662
S255
G1 X9.2482 Y3.5208
S255
G1 X9.3028 Y3.5703
S255
G1 X9.3619 Y3.6142
S255
G1 X9.4251 Y3.6520
S255
G1 X9.4917 Y3.6835
S255
G1 X9.5611 Y3.7084
S255
G1 X9.6326 Y3.7263
S255
G1 X9.7054 Y3.7371
S255
G1 X9.7790 Y3.7407
S255
G1 X9.8526 Y3.7371
S255
G1 X9.9254 Y3.7263
S255
G1 X9.9969 Y3.7084
S255
G1 X10.0663 Y3.6835
S255
G1 X10.1329 Y3.6520
S255
G1 X10.1961 Y3.6142
S255
G1 X10.2552 Y3.5703
S255
G1 X10.3098 Y3.5208
S255
G1 X10.3593 Y3.4662
S255
G1 X10.4032 Y3.4071
S255
G1 X10.4410 Y3.3439
S255
G1 X10.4725 Y3.2773
S255
G1 X10.4974 Y3.2079
S255
G1 X10.5153 Y3.1364
S255
G1 X10.5261 Y3.0636
S255
G1 X10.5298 Y2.9875
S255
G1 X10.5298 Y2.0925
S255
G1 X10.5261 Y2.0164
S255
G1 X10.5153 Y1.9436
S255
G1 X10.4974 Y1.8721
S255
G1 X10.4725 Y1.8027
S255
G1 X10.4410 Y1.7361
S255
G1 X10.4032 Y1.6729
S255
G1 X10.3593 Y1.6138
S255
G1 X10.3098 Y1.5592
S255
G1 X10.2552 Y1.5097
S255
G1 X10.1961 Y1.4658
S255
G1 X10.1329 Y1.4280
S255
G1 X10.0663 Y1.3965
S255
G1 X9.9969 Y1.3716
S255
G1 X9.9254 Y1.3537
S255
G1 X9.8526 Y1.3429
S255
G1 X9.7790 Y1.3393
S255
S0
G0 Z2.0000
G0 X12.3190 Y1.3393
S255
G1 F1000
G1 Z-0.0500
S255
G1 F1000
S255
G1 X12.2454 Y1.3429
S255
G1 X12.1726 Y1.3537
S255
G1 X12.1011 Y1.3716
S255
G1 X12.0317 Y1.3965
S255
G1 X11.9651 Y1.4280
S255
G1 X11.9019 Y1.4658
S255
G1 X11.8428 Y1.5097
S255
G1 X11.7882 Y1.5592
S255
G1 X11.7387 Y1.6138
S255
G1 X11.6948 Y1.6729
S255
G1 X11.6570 Y1.7361
S255
G1 X11.6255 Y1.8027
S255
G1 X11.6006 Y1.8721
S255
G1 X11.5827 Y1.9436
S255
G1 X11.5719 Y2.0164
S255
G1 X11.5682 Y2.0925
S255
G1 X11.5682 Y2.9875
S255
G1 X11.5719 Y3.0636
S255
G1 X11.5827 Y3.1364
S255
G1 X11.6006 Y3.2079
S255
G1 X11.6255 Y3.2773
S255
G1 X11.6570 Y3.3439
S255
G1 X11.6948 Y3.4071
S255
G1 X11.7387 Y3.4662
S255
G1 X11.7882 Y3.5208
S255
G1 X11.8428 Y3.5703
S255
G1 X11.9019 Y3.6142
S255
G1 X11.9651 Y3.6520
S255
G1 X12.0317 Y3.6835
S255
G1 X12.1011 Y3.7084
S255
G1 X12.1726 Y3.7263
S255
G1 X12.2454 Y3.7371
S255
G1 X12.3190 Y3.7407
S255
G1 X12.3926 Y3.7371
S255
G1 X12.4654 Y3.7263
S255
G1 X12.5369 Y3.7084
S255
G1 X12.6063 Y3.6835
S255
G1 X12.6729 Y3.6520
S255
G1 X12.7361 Y3.6142
S255
G1 X12.7952 Y3.5703
S255
G1 X12.8498 Y3.5208
S255
G1 X12.8993 Y3.4662
S255
G1 X12.9432 Y3.4071
S255
G1 X12.9810 Y3.3439
S255
G1 X13.0125 Y3.2773
S255
G1 X13.0374 Y3.2079
S255
G1 X13.0553 Y3.1364
S255
G1 X13.0661 Y3.0636
S255
G1 X13.0698 Y2.9875
S255
G1 X13.0698 Y2.0925
S255
G1 X13.0661 Y2.0164
S255
G1 X13.0553 Y1.9436
S255
G1 X13.0374 Y1.8721
S255
G1 X13.0125 Y1.8027
S255
G1 X12.9810 Y1.7361
S255
G1 X12.9432 Y1.6729
S255
G1 X12.8993 Y1.6138
S255
G1 X12.8498 Y1.5592
S255
G1 X12.7952 Y1.5097
S255
G1 X12.7361 Y1.4658
S255
G1 X12.6729 Y1.4280
S255
G1 X12.6063 Y1.3965
S255
G1 X12.5369 Y1.3716
S255
G1 X12.4654 Y1.3537
S255
G1 X12.3926 Y1.3429
S255
G1 X12.3190 Y1.3393
S255
S0
G0 Z2.0000
G0 X12.3190 Y1.4995
S255
G1 F1000
G1 Z-0.0500
S255
G1 F1000
S255
G1 X12.2611 Y1.5024
S255
G1 X12.2038 Y1.5109
S255
G1 X12.1476 Y1.5249
S255
G1 X12.0930 Y1.5445
S255
G1 X12.0406 Y1.5692
S255
G1 X11.9909 Y1.5990
S255
G1 X11.9444 Y1.6336
S255
G1 X11.9015 Y1.6725
S255
G1 X11.8625 Y1.7154
S255
G1 X11.8280 Y1.7619
S255
G1 X11.7982 Y1.8116
S255
G1 X11.7735 Y1.8640
S255
G1 X11.7539 Y1.9186
S255
G1 X11.7399 Y1.9748
S255
G1 X11.7314 Y2.0321
S255
G1 X11.7282 Y2.0964
S255
G1 X11.7282 Y2.9836
S255
G1 X11.7314 Y3.0479
S255
G1 X11.7399 Y3.1052
S255
G1 X11.7539 Y3.1614
S255
G1 X11.7735 Y3.2160
S255
G1 X11.7982 Y3.2684
S255
G1 X11.8280 Y3.3181
S255
G1 X11.8625 Y3.3646
S255
G1 X11.9015 Y3.4075
S255
G1 X11.9444 Y3.4464
S255
G1 X11.9909 Y3.4810
S255
G1 X12.0406 Y3.5108
S255
G1 X12.0930 Y3.5355
S255
G1 X12.1476 Y3.5551
S255
G1 X12.2038 Y3.5691
S255
G1 X12.2611 Y3.5776
S255
G1 X12.3190 Y3.5805
S255
G1 X12.3769 Y3.5776
S255
G1 X12.4342 Y3.5691
S255
G1 X12.4904 Y3.5551
S255
G1 X12.5450 Y3.5355
S255
G1 X12.5974 Y3.5108
S255
G1 X12.6471 Y3.4810
S255
G1 X12.6936 Y3.4464
S255
G1 X12.7365 Y3.4075
S255
G1 X12.7755 Y3.3646
S255
G1 X12.8100 Y3.3181
S255
G1 X12.8398 Y3.2684
S255
G1 X12.8645 Y3.2160
S255
G1 X12.8841 Y3.1614
S255
G1 X12.8981 Y3.1052
S255
G1 X12.9066 Y3.0479
S255
G1 X12.9098 Y2.9836
S255
G1 X12.9098 Y2.0964
S255
G1 X12.9066 Y2.0321
S255
G1 X12.8981 Y1.9748
S255
G1 X12.8841 Y1.9186
S255
G1 X12.8645 Y1.8640
S255
G1 X12.8398 Y1.8116
S255
G1 X12.8100 Y1.7619
S255
G1 X12.7755 Y1.7154
S255
G1 X12.7365 Y1.6725
S255
G1 X12.6936 Y1.6336
S255
G1 X12.6471 Y1.5990
S255
G1 X12.5974 Y1.5692
S255
G1 X12.5450 Y1.5445
S255
G1 X12.4904 Y1.5249
S255
G1 X12.4342 Y1.5109
S255
G1 X12.3769 Y1.5024
S255
G1 X12.3190 Y1.4995
S255
S0
G0 Z2.0000
G0 X12.3190 Y1.6597
S255
G1 F1000
G1 Z-0.0500
S255
G1 F1000
S255
G1 X12.2768 Y1.6618
S255
G1 X12.2351 Y1.6680
S255
G1 X12.1941 Y1.6782
S255
G1 X12.1543 Y1.6925
S255
G1 X12.1162 Y1.7105
S255
G1 X12.0799 Y1.7322
S255
G1 X12.0460 Y1.7574
S255
G1 X12.0147 Y1.7857
S255
G1 X11.9864 Y1.8170
S255
G1 X11.9612 Y1.8509
S255
G1 X11.9395 Y1.8872
S255
G1 X11.9215 Y1.9253
S255
G1 X11.9072 Y1.9651
S255
G1 X11.8970 Y2.0061
S255
G1 X11.8908 Y2.0478
S255
G1 X11.8882 Y2.1003
S255
G1 X11.8882 Y2.9797
S255
G1 X11.8908 Y3.0322
S255
G1 X11.8970 Y3.0739
S255
G1 X11.9072 Y3.1149
S255
G1 X11.9215 Y3.1547
S255
G1 X11.9395 Y3.1928
S255
G1 X11.9612 Y3.2291
S255
G1 X11.9864 Y3.2630
S255
G1 X12.0147 Y3.2943
S255
G1 X12.0460 Y3.3226
S255
G1 X12.0799 Y3.3478
S255
G1 X12.1162 Y3.3695
S255
G1 X12.1543 Y3.3875
S255
G1 X12.1941 Y3.4018
S255
G1 X12.2351 Y3.4120
S255
G1 X12.2768 Y3.4182
S255
G1 X12.3190 Y3.4203
S255
G1 X12.3612 Y3.4182
S255
G1 X12.4029 Y3.4120
S255
G1 X12.4439 Y3.4018
S255
G1 X12.4837 Y3.3875
S255
G1 X12.5218 Y3.3695
S255
G1 X12.5581 Y3.3478
S255
G1 X12.5920 Y3.3226
S255
G1 X12.6233 Y3.2943
S255
G1 X12.6516 Y3.2630
S255
G1 X12.6768 Y3.2291
S255
G1 X12.6985 Y3.1928
S255
G1 X12.7165 Y3.1547
S255
G1 X12.7308 Y3.1149
S255
G1 X12.7410 Y3.0739
S255
G1 X12.7472 Y3.0322
S255
G1 X12.7498 Y2.9797
S255
G1 X12.7498 Y2.1003
S255
G1 X12.7472 Y2.0478
S255
G1 X12.7410 Y2.0061
S255
G1 X12.7308 Y1.9651
S255
G1 X12.7165 Y1.9253
S255
G1 X12.6985 Y1.8872
S255
G1 X12.6768 Y1.8509
S255
G1 X12.6516 Y1.8170
S255
G1 X12.6233 Y1.7857
S255
G1 X12.5920 Y1.7574
S255
G1 X12.5581 Y1.7322
S255
G1 X12.5218 Y1.7105
S255
G1 X12.4837 Y1.6925
S255
G1 X12.4439 Y1.6782
S255
G1 X12.4029 Y1.6680
S255
G1 X12.3612 Y1.6618
S255
G1 X12.3190 Y1.6597
S255
S0
G0 Z2.0000
G0 X12.3190 Y1.8199
S255
G1 F1000
G1 Z-0.0500
S255
G1 F1000
S255
G1 X12.2925 Y1.8212
S255
G1 X12.2663 Y1.8251
S255
G1 X12.2406 Y1.8315
S255
G1 X12.2156 Y1.8405
S255
G1 X12.1917 Y1.8518
S255
G1 X12.1689 Y1.8654
S255
G1 X12.1477 Y1.8812
S255
G1 X12.1280 Y1.8990
S255
G1 X12.1102 Y1.9187
S255
G1 X12.0944 Y1.9399
S255
G1 X12.0808 Y1.9627
S255
G1 X12.0695 Y1.9866
S255
G1 X12.0605 Y2.0116
S255
G1 X12.0541 Y2.0373
S255
G1 X12.0502 Y2.0635
S255
G1 X12.0482 Y2.1042
S255
G1 X12.0482 Y2.9758
S255
G1 X12.0502 Y3.0165
S255
G1 X12.0541 Y3.0427
S255
G1 X12.0605 Y3.0684
S255
G1 X12.0695 Y3.0934
S255
G1 X12.0808 Y3.1173
S255
G1 X12.0944 Y3.1401
S255
G1 X12.1102 Y3.1613
S255
G1 X12.1280 Y3.1810
S255
G1 X12.1477 Y3.1988
S255
G1 X12.1689 Y3.2146
S255
G1 X12.1917 Y3.2282
S255
G1 X12.2156 Y3.2395
S255
G1 X12.2406 Y3.2485
S255
G1 X12.2663 Y3.2549
S255
G1 X12.2925 Y3.2588
S255
G1 X12.3190 Y3.2601
S255
G1 X12.3455 Y3.2588
S255
G1 X12.3717 Y3.2549
S255
G1 X12.3974 Y3.2485
S255
G1 X12.4224 Y3.2395
S255
G1 X12.4463 Y3.2282
S255
G1 X12.4691 Y3.2146
S255
G1 X12.4903 Y3.1988
S255
G1 X12.5100 Y3.1810
S255
G1 X12.5278 Y3.1613
S255
G1 X12.5436 Y3.1401
S255
G1 X12.5572 Y3.1173
S255
G1 X12.5685 Y3.0934
S255
G1 X12.5775 Y3.0684
S255
G1 X12.5839 Y3.0427
S255
G1 X12.5878 Y3.0165
S255
G1 X12.5898 Y2.9758
S255
G1 X12.5898 Y2.1042
S255
G1 X12.5878 Y2.0635
S255
G1 X12.5839 Y2.0373
S255
G1 X12.5775 Y2.0116
S255
G1 X12.5685 Y1.9866
S255
G1 X12.5572 Y1.9627
S255
G1 X12.5436 Y1.9399
S255
G1 X12.5278 Y1.9187
S255
G1 X12.5100 Y1.8990
S255
G1 X12.4903 Y1.8812
S255
G1 X12.4691 Y1.8654
S255
G1 X12.4463 Y1.8518
S255
G1 X12.4224 Y1.8405
S255
G1 X12.3974 Y1.8315
S255
G1 X12.3717 Y1.8251
S255
G1 X12.3455 Y1.8212
S255
G1 X12.3190 Y1.8199
S255
S0
G0 Z2.0000
G0 X12.3190 Y1.9801
S255
G1 F1000
G1 Z-0.0500
S255
G1 F1000
S255
G1 X12.3082 Y1.9806
S255
G1 X12.2976 Y1.9822
S255
G1 X12.2871 Y1.9848
S255
G1 X12.2769 Y1.9885
S255
G1 X12.2672 Y1.9931
S255
G1 X12.2579 Y1.9986
S255
G1 X12.2493 Y2.0050
S255
G1 X12.2413 Y2.0123
S255
G1 X12.2340 Y2.0203
S255
G1 X12.2276 Y2.0289
S255
G1 X12.2221 Y2.0382
S255
G1 X12.2175 Y2.0479
S255
G1 X12.2138 Y2.0581
S255
G1 X12.2112 Y2.0686
S255
G1 X12.2096 Y2.0792
S255
G1 X12.2082 Y2.1082
S255
G1 X12.2082 Y2.9718
S255
G1 X12.2096 Y3.0008
S255
G1 X12.2112 Y3.0114
S255
G1 X12.2138 Y3.0219
S255
G1 X12.2175 Y3.0321
S255
G1 X12.2221 Y3.0418
S255
G1 X12.2276 Y3.0511
S255
G1 X12.2340 Y3.0597
S255
G1 X12.2413 Y3.0677
S255
G1 X12.2493 Y3.0750
S255
G1 X12.2579 Y3.0814
S255
G1 X12.2672 Y3.0869
S255
G1 X12.2769 Y3.0915
S255
G1 X12.2871 Y3.0952
S255
G1 X12.2976 Y3.0978
S255
G1 X12.3082 Y3.0994
S255
G1 X12.3190 Y3.0999
S255
G1 X12.3298 Y3.0994
S255
G1 X12.3404 Y3.0978
S255
G1 X12.3509 Y3.0952
S255
G1 X12.3611 Y3.0915
S255
G1 X12.3708 Y3.0869
S255
G1 X12.3801 Y3.0814
S255
G1 X12.3887 Y3.0750
S255
G1 X12.3967 Y3.0677
S255
G1 X12.4040 Y3.0597
S255
G1 X12.4104 Y3.0511
S255
G1 X12.4159 Y3.0418
S255
G1 X12.4205 Y3.0321
S255
G1 X12.4242 Y3.0219
S255
G1 X12.4268 Y3.0114
S255
G1 X12.4284 Y3.0008
S255
G1 X12.4298 Y2.9718
S255
G1 X12.4298 Y2.1082
S255
G1 X12.4284 Y2.0792
S255
G1 X12.4268 Y2.0686
S255
G1 X12.4242 Y2.0581
S255
G1 X12.4205 Y2.0479
S255
G1 X12.4159 Y2.0382
S255
G1 X12.4104 Y2.0289
S255
G1 X12.4040 Y2.0203
S255
G1 X12.3967 Y2.0123
S255
G1 X12.3887 Y2.0050
S255
G1 X12.3801 Y1.9986
S255
G1 X12.3708 Y1.9931
S255
G1 X12.3611 Y1.9885
S255
G1 X12.3509 Y1.9848
S255
G1 X12.3404 Y1.9822
S255
G1 X12.3298 Y1.9806
S255
G1 X12.3190 Y1.9801
S255
S0
G0 Z2.0000
G0 X14.8590 Y1.9801
S255
G1 F1000
G1 Z-0.0500
S255
G1 F1000
S255
G1 X14.8482 Y1.9806
S255
G1 X14.8376 Y1.9822
S255
G1 X14.8271 Y1.9848
S255
G1 X14.8169 Y1.9885
S255
G1 X14.8072 Y1.9931
S255
G1 X14.7979 Y1.9986
S255
G1 X14.7893 Y2.0050
S255
G1 X14.7813 Y2.0123
S255
G1 X14.7740 Y2.0203
S255
G1 X14.7676 Y2.0289
S255
G1 X14.7621 Y2.0382
S255
G1 X14.7575 Y2.0479
S255
G1 X14.7538 Y2.0581
S255
G1 X14.7512 Y2.0686
S255
G1 X14.7496 Y2.0792
S255
G1 X14.7482 Y2.1082
S255
G1 X14.7482 Y2.9718
S255
G1 X14.7496 Y3.0008
S255
G1 X14.7512 Y3.0114
S255
G1 X14.7538 Y3.0219
S255
G1 X14.7575 Y3.0321
S255
G1 X14.7621 Y3.0418
S255
G1 X14.7676 Y3.0511
S255
G1 X14.7740 Y3.0597
S255
G1 X14.7813 Y3.0677
S255
G1 X14.7893 Y3.0750
S255
G1 X14.7979 Y3.0814
S255
G1 X14.8072 Y3.0869
S255
G1 X14.8169 Y3.0915
S255
G1 X14.8271 Y3.0952
S255
G1 X14.8376 Y3.0978
S255
G1 X14.8482 Y3.0994
S255
G1 X14.8590 Y3.0999
S255
G1 X14.8698 Y3.0994
S255
G1 X14.8804 Y3.0978
S255
G1 X14.8909 Y3.0952
S255
G1 X14.9011 Y3.0915
S255
G1 X14.9108 Y3.0869
S255
G1 X14.9201 Y3.0814
S255
G1 X14.9287 Y3.0750
S255
G1 X14.9367 Y3.0677
S255
G1 X14.9440 Y3.0597
S255
G1 X14.9504 Y3.0511
S255
G1 X14.9559 Y3.0418
S255
G1 X14.9605 Y3.0321
S255
G1 X14.9642 Y3.0219
S255
G1 X14.9668 Y3.0114
S255
G1 X14.9684 Y3.0008
S255
G1 X14.9698 Y2.9718
S255
G1 X14.9698 Y2.1082
S255
G1 X14.9684 Y2.0792
S255
G1 X14.9668 Y2.0686
S255
G1 X14.9642 Y2.0581
S255
G1 X14.9605 Y2.0479
S255
G1 X14.9559 Y2.0382
S255
G1 X14.9504 Y2.0289
S255
G1 X14.9440 Y2.0203
S255
G1 X14.9367 Y2.0123
S255
G1 X14.9287 Y2.0050
S255
G1 X14.9201 Y1.9986
S255
G1 X14.9108 Y1.9931
S255
G1 X14.9011 Y1.9885
S255
G1 X14.8909 Y1.9848
S255
G1 X14.8804 Y1.9822
S255
G1 X14.8698 Y1.9806
S255
G1 X14.8590 Y1.9801
S255
S0
G0 Z2.0000
G0 X14.8590 Y1.8199
S255
G1 F1000
G1 Z-0.0500
S255
G1 F1000
S255
G1 X14.8325 Y1.8212
S255
G1 X14.8063 Y1.8251
S255
G1 X14.7806 Y1.8315
S255
G1 X14.7556 Y1.8405
S255
G1 X14.7317 Y1.8518
S255
G1 X14.7089 Y1.8654
S255
G1 X14.6877 Y1.8812
S255
G1 X14.6680 Y1.8990
S255
G1 X14.6502 Y1.9187
S255
G1 X14.6344 Y1.9399
S255
G1 X14.6208 Y1.9627
S255
G1 X14.6095 Y1.9866
S255
G1 X14.6005 Y2.0116
S255
G1 X14.5941 Y2.0373
S255
G1 X14.5902 Y2.0635
S255
G1 X14.5882 Y2.1042
S255
G1 X14.5882 Y2.9758
S255
G1 X14.5902 Y3.0165
S255
G1 X14.5941 Y3.0427
S255
G1 X14.6005 Y3.0684
S255
G1 X14.6095 Y3.0934
S255
G1 X14.6208 Y3.1173
S255
G1 X14.6344 Y3.1401
S255
G1 X14.6502 Y3.1613
S255
G1 X14.6680 Y3.1810
S255
G1 X14.6877 Y3.1988
S255
G1 X14.7089 Y3.2146
S255
G1 X14.7317 Y3.2282
S255
G1 X14.7556 Y3.2395
S255
G1 X14.7806 Y3.2485
S255
G1 X14.8063 Y3.2549
S255
G1 X14.8325 Y3.2588
S255
G1 X14.8590 Y3.2601
S255
G1 X14.8855 Y3.2588
S255
G1 X14.9117 Y3.2549
S255
G1 X14.9374 Y3.2485
S255
G1 X14.9624 Y3.2395
S255
G1 X14.9863 Y3.2282
S255
G1 X15.0091 Y3.2146
S255
G1 X15.0303 Y3.1988
S255
G1 X15.0500 Y3.1810
S255
G1 X15.0678 Y3.1613
S255
G1 X15.0836 Y3.1401
S255
G1 X15.0972 Y3.1173
S255
G1 X15.1085 Y3.0934
S255
G1 X15.1175 Y3.0684
S255
G1 X15.1239 Y3.0427
S255
G1 X15.1278 Y3.0165
S255
G1 X15.1298 Y2.9758
S255
G1 X15.1298 Y2.1042
S255
G1 X15.1278 Y2.0635
S255
G1 X15.1239 Y2.0373
S255
G1 X15.1175 Y2.0116
S255
G1 X15.1085 Y1.9866
S255
G1 X15.0972 Y1.9627
S255
G1 X15.0836 Y1.9399
S255
G1 X15.0678 Y1.9187
S255
G1 X15.0500 Y1.8990
S255
G1 X15.0303 Y1.8812
S255
G1 X15.0091 Y1.8654
S255
G1 X14.9863 Y1.8518
S255
G1 X14.9624 Y1.8405
S255
G1 X14.9374 Y1.8315
S255
G1 X14.9117 Y1.8251
S255
G1 X14.8855 Y1.8212
S255
G1 X14.8590 Y1.8199
S255
S0
G0 Z2.0000
G0 X14.8590 Y1.6597
S255
G1 F1000
G1 Z-0.0500
S255
G1 F1000
S255
G1 X14.8168 Y1.6618
S255
G1 X14.7751 Y1.6680
S255
G1 X14.7341 Y1.6782
S255
G1 X14.6943 Y1.6925
S255
G1 X14.6562 Y1.7105
S255
G1 X14.6199 Y1.7322
S255
G1 X14.5860 Y1.7574
S255
G1 X14.5547 Y1.7857
S255
G1 X14.5264 Y1.8170
S255
G1 X14.5012 Y1.8509
S255
G1 X14.4795 Y1.8872
S255
G1 X14.4615 Y1.9253
S255
G1 X14.4472 Y1.9651
S255
G1 X14.4370 Y2.0061
S255
G1 X14.4308 Y2.0478
S255
G1 X14.4282 Y2.1003
S255
G1 X14.4282 Y2.9797
S255
G1 X14.4308 Y3.0322
S255
G1 X14.4370 Y3.0739
S255
G1 X14.4472 Y3.1149
S255
G1 X14.4615 Y3.1547
S255
G1 X14.4795 Y3.1928
S255
G1 X14.5012 Y3.2291
S255
G1 X14.5264 Y3.2630
S255
G1 X14.5547 Y3.2943
S255
G1 X14.5860 Y3.3226
S255
G1 X14.6199 Y3.3478
S255
G1 X14.6562 Y3.3695
S255
G1 X14.6943 Y3.3875
S255
G1 X14.7341 Y3.4018
S255
G1 X14.7751 Y3.4120
S255
G1 X14.8168 Y3.4182
S255
G1 X14.8590 Y3.4203
S255
G1 X14.9012 Y3.4182
S255
G1 X14.9429 Y3.4120
S255
G1 X14.9839 Y3.4018
S255
G1 X15.0237 Y3.3875
S255
G1 X15.0618 Y3.3695
S255
G1 X15.0981 Y3.3478
S255
G1 X15.1320 Y3.3226
S255
G1 X15.1633 Y3.2943
S255
G1 X15.1916 Y3.2630
S255
G1 X15.2168 Y3.2291
S255
G1 X15.2385 Y3.1928
S255
G1 X15.2565 Y3.1547
S255
G1 X15.2708 Y3.1149
S255
G1 X15.2810 Y3.0739
S255
G1 X15.2872 Y3.0322
S255
G1 X15.2898 Y2.9797
S255
G1 X15.2898 Y2.1003
S255
G1 X15.2872 Y2.0478
S255
G1 X15.2810 Y2.0061
S255
G1 X15.2708 Y1.9651
S255
G1 X15.2565 Y1.9253
S255
G1 X15.2385 Y1.8872
S255
G1 X15.2168 Y1.8509
S255
G1 X15.1916 Y1.8170
S255
G1 X15.1633 Y1.7857
S255
G1 X15.1320 Y1.7574
S255
G1 X15.0981 Y1.7322
S255
G1 X15.0618 Y1.7105
S255
G1 X15.0237 Y1.6925
S255
G1 X14.9839 Y1.6782
S255
G1 X14.9429 Y1.6680
S255
G1 X14.9012 Y1.6618
S255
G1 X14.8590 Y1.6597
S255
S0
G0 Z2.0000
G0 X14.8590 Y1.4995
S255
G1 F1000
G1 Z-0.0500
S255
G1 F1000
S255
G1 X14.8011 Y1.5024
S255
G1 X14.7438 Y1.5109
S255
G1 X14.6876 Y1.5249
S255
G1 X14.6330 Y1.5445
S255
G1 X14.5806 Y1.5692
S255
G1 X14.5309 Y1.5990
S255
G1 X14.4844 Y1.6336
S255
G1 X14.4415 Y1.6725
S255
G1 X14.4025 Y1.7154
S255
G1 X14.3680 Y1.7619
S255
G1 X14.3382 Y1.8116
S255
G1 X14.3135 Y1.8640
S255
G1 X14.2939 Y1.9186
S255
G1 X14.2799 Y1.9748
S255
G1 X14.2714 Y2.0321
S255
G1 X14.2682 Y2.0964
S255
G1 X14.2682 Y2.9836
S255
G1 X14.2714 Y3.0479
S255
G1 X14.2799 Y3.1052
S255
G1 X14.2939 Y3.1614
S255
G1 X14.3135 Y3.2160
S255
G1 X14.3382 Y3.2684
S255
G1 X14.3680 Y3.3181
S255
G1 X14.4025 Y3.3646
S255
G1 X14.4415 Y3.4075
S255
G1 X14.4844 Y3.4464
S255
G1 X14.5309 Y3.4810
S255
G1 X14.5806 Y3.5108
S255
G1 X14.6330 Y3.5355
S255
G1 X14.6876 Y3.5551
S255
G1 X14.7438 Y3.5691
S255
G1 X14.8011 Y3.5776
S255
G1 X14.8590 Y3.5805
S255
G1 X14.9169 Y3.5776
S255
G1 X14.9742 Y3.5691
S255
G1 X15.0304 Y3.5551
S255
G1 X15.0850 Y3.5355
S255
G1 X15.1374 Y3.5108
S255
G1 X15.1871 Y3.4810
S255
G1 X15.2336 Y3.4464
S255
G1 X15.2765 Y3.4075
S255
G1 X15.3155 Y3.3646
S255
G1 X15.3500 Y3.3181
S255
G1 X15.3798 Y3.2684
S255
G1 X15.4045 Y3.2160
S255
G1 X15.4241 Y3.1614
S255
G1 X15.4381 Y3.1052
S255
G1 X15.4466 Y3.0479
S255
G1 X15.4498 Y2.9836
S255
G1 X15.4498 Y2.0964
S255
G1 X15.4466 Y2.0321
S255
G1 X15.4381 Y1.9748
S255
G1 X15.4241 Y1.9186
S255
G1 X15.4045 Y1.8640
S255
G1 X15.3798 Y1.8116
S255
G1 X15.3500 Y1.7619
S255
G1 X15.3155 Y1.7154
S255
G1 X15.2765 Y1.6725
S255
G1 X15.2336 Y1.6336
S255
G1 X15.1871 Y1.5990
S255
G1 X15.1374 Y1.5692
S255
G1 X15.0850 Y1.5445
S255
G1 X15.0304 Y1.5249
S255
G1 X14.9742 Y1.5109
S255
G1 X14.9169 Y1.5024
S255
G1 X14.8590 Y1.4995
S255
S0
G0 Z2.0000
G0 X14.8590 Y1.3393
S255
G1 F1000
G1 Z-0.0500
S255
G1 F1000
S255
G1 X14.7854 Y1.3429
S255
G1 X14.7126 Y1.3537
S255
G1 X14.6411 Y1.3716
S255
G1 X14.5717 Y1.3965
S255
G1 X14.5051 Y1.4280
S255
G1 X14.4419 Y1.4658
S255
G1 X14.3828 Y1.5097
S255
G1 X14.3282 Y1.5592
S255
G1 X14.2787 Y1.6138
S255
G1 X14.2348 Y1.6729
S255
G1 X14.1970 Y1.7361
S255
G1 X14.1655 Y1.8027
S255
G1 X14.1406 Y1.8721
S255
G1 X14.1227 Y1.9436
S255
G1 X14.1119 Y2.0164
S255
G1 X14.1082 Y2.0925
S255
G1 X14.1082 Y2.9875
S255
G1 X14.1119 Y3.0636
S255
G1 X14.1227 Y3.1364
S255
G1 X14.1406 Y3.2079
S255
G1 X14.1655 Y3.2773
S255
G1 X14.1970 Y3.3439
S255
G1 X14.2348 Y3.4071
S255
G1 X14.2787 Y3.4662
S255
G1 X14.3282 Y3.5208
S255
G1 X14.3828 Y3.5703
S255
G1 X14.4419 Y3.6142
S255
G1 X14.5051 Y3.6520
S255
G1 X14.5717 Y3.6835
S255
G1 X14.6411 Y3.7084
S255
G1 X14.7126 Y3.7263
S255
G1 X14.7854 Y3.7371
S255
G1 X14.8590 Y3.7407
S255
G1 X14.9326 Y3.7371
S255
G1 X15.0054 Y3.7263
S255
G1 X15.0769 Y3.7084
S255
G1 X15.1463 Y3.6835
S255
G1 X15.2129 Y3.6520
S255
G1 X15.2761 Y3.6142
S255
G1 X15.3352 Y3.5703
S255
G1 X15.3898 Y3.5208
S255
G1 X15.4393 Y3.4662
S255
G1 X15.4832 Y3.4071
S255
G1 X15.5210 Y3.3439
S255
G1 X15.5525 Y3.2773
S255
G1 X15.5774 Y3.2079
S255
G1 X15.5953 Y3.1364
S255
G1 X15.6061 Y3.0636
S255
G1 X15.6098 Y2.9875
S255
G1 X15.6098 Y2.0925
S255
G1 X15.6061 Y2.0164
S255
G1 X15.5953 Y1.9436
S255
G1 X15.5774 Y1.8721
S255
G1 X15.5525 Y1.8027
S255
G1 X15.5210 Y1.7361
S255
G1 X15.4832 Y1.6729
S255
G1 X15.4393 Y1.6138
S255
G1 X15.3898 Y1.5592
S255
G1 X15.3352 Y1.5097
S255
G1 X15.2761 Y1.4658
S255
G1 X15.2129 Y1.4280
S255
G1 X15.1463 Y1.3965
S255
G1 X15.0769 Y1.3716
S255
G1 X15.0054 Y1.3537
S255
G1 X14.9326 Y1.3429
S255
G1 X14.8590 Y1.3393
S255
S0
G0 Z2.0000
G0 X17.3990 Y1.3393
S255
G1 F1000
G1 Z-0.0500
S255
G1 F1000
S255
G1 X17.3254 Y1.3429
S255
G1 X17.2526 Y1.3537
S255
G1 X17.1811 Y1.3716
S255
G1 X17.1117 Y1.3965
S255
G1 X17.0451 Y1.4280
S255
G1 X16.9819 Y1.4658
S255
G1 X16.9228 Y1.5097
S255
G1 X16.8682 Y1.5592
S255
G1 X16.8187 Y1.6138
S255
G1 X16.7748 Y1.6729
S255
G1 X16.7370 Y1.7361
S255
G1 X16.7055 Y1.8027
S255
G1 X16.6806 Y1.8721
S255
G1 X16.6627 Y1.9436
S255
G1 X16.6519 Y2.0164
S255
G1 X16.6482 Y2.0925
S255
G1 X16.6482 Y2.9875
S255
G1 X16.6519 Y3.0636
S255
G1 X16.6627 Y3.1364
S255
G1 X16.6806 Y3.2079
S255
G1 X16.7055 Y3.2773
S255
G1 X16.7370 Y3.3439
S255
G1 X16.7748 Y3.4071
S255
G1 X16.8187 Y3.4662
S255
G1 X16.8682 Y3.5208
S255
G1 X16.9228 Y3.5703
S255
G1 X16.9819 Y3.6142
S255
G1 X17.0451 Y3.6520
S255
G1 X17.1117 Y3.6835
S255
G1 X17.1811 Y3.7084
S255
G1 X17.2526 Y3.7263
S255
G1 X17.3254 Y3.7371
S255
G1 X17.3990 Y3.7407
S255
G1 X17.4726 Y3.7371
S255
G1 X17.5454 Y3.7263
S255
G1 X17.6169 Y3.7084
S255
G1 X17.6863 Y3.6835
S255
G1 X17.7529 Y3.6520
S255
G1 X17.8161 Y3.6142
S255
G1 X17.8752 Y3.5703
S255
G1 X17.9298 Y3.5208
S255
G1 X17.9793 Y3.4662
S255
G1 X18.0232 Y3.4071
S255
G1 X18.0610 Y3.3439
S255
G1 X18.0925 Y3.2773
S255
G1 X18.1174 Y3.2079
S255
G1 X18.1353 Y3.1364
S255
G1 X18.1461 Y3.0636
S255
G1 X18.1498 Y2.9875
S255
G1 X18.1498 Y2.0925
S255
G1 X18.1461 Y2.0164
S255
G1 X18.1353 Y1.9436
S255
G1 X18.1174 Y1.8721
S255
G1 X18.0925 Y1.8027
S255
G1 X18.0610 Y1.7361
S255
G1 X18.0232 Y1.6729
S255
G1 X17.9793 Y1.6138
S255
G1 X17.9298 Y1.5592
S255
G1 X17.8752 Y1.5097
S255
G1 X17.8161 Y1.4658
S255
G1 X17.7529 Y1.4280
S255
G1 X17.6863 Y1.3965
S255
G1 X17.6169 Y1.3716
S255
G1 X17.5454 Y1.3537
S255
G1 X17.4726 Y1.3429
S255
G1 X17.3990 Y1.3393
S255
S0
G0 Z2.0000
G0 X17.3990 Y1.4995
S255
G1 F1000
G1 Z-0.0500
S255
G1 F1000
S255
G1 X17.3411 Y1.5024
S255
G1 X17.2838 Y1.5109
S255
G1 X17.2276 Y1.5249
S255
G1 X17.1730 Y1.5445
S255
G1 X17.1206 Y1.5692
S255
G1 X17.0709 Y1.5990
S255
G1 X17.0244 Y1.6336
S255
G1 X16.9815 Y1.6725
S255
G1 X16.9425 Y1.7154
S255
G1 X16.9080 Y1.7619
S255
G1 X16.8782 Y1.8116
S255
G1 X16.8535 Y1.8640
S255
G1 X16.8339 Y1.9186
S255
G1 X16.8199 Y1.9748
S255
G1 X16.8114 Y2.0321
S255
G1 X16.8082 Y2.0964
S255
G1 X16.8082 Y2.9836
S255
G1 X16.8114 Y3.0479
S255
G1 X16.8199 Y3.1052
S255
G1 X16.8339 Y3.1614
S255
G1 X16.8535 Y3.2160
S255
G1 X16.8782 Y3.2684
S255
G1 X16.9080 Y3.3181
S255
G1 X16.9425 Y3.3646
S255
G1 X16.9815 Y3.4075
S255
G1 X17.0244 Y3.4464
S255
G1 X17.0709 Y3.4810
S255
G1 X17.1206 Y3.5108
S255
G1 X17.1730 Y3.5355
S255
G1 X17.2276 Y3.5551
S255
G1 X17.2838 Y3.5691
S255
G1 X17.3411 Y3.5776
S255
G1 X17.3990 Y3.5805
S255
G1 X17.4569 Y3.5776
S255
G1 X17.5142 Y3.5691
S255
G1 X17.5704 Y3.5551
S255
G1 X17.6250 Y3.5355
S255
G1 X17.6774 Y3.5108
S255
G1 X17.7271 Y3.4810
S255
G1 X17.7736 Y3.4464
S255
G1 X17.8165 Y3.4075
S255
G1 X17.8555 Y3.3646
S255
G1 X17.8900 Y3.3181
S255
G1 X17.9198 Y3.2684
S255
G1 X17.9445 Y3.2160
S255
G1 X17.9641 Y3.1614
S255
G1 X17.9781 Y3.1052
S255
G1 X17.9866 Y3.0479
S255
G1 X17.9898 Y2.9836
S255
G1 X17.9898 Y2.0964
S255
G1 X17.9866 Y2.0321
S255
G1 X17.9781 Y1.9748
S255
G1 X17.9641 Y1.9186
S255
G1 X17.9445 Y1.8640
S255
G1 X17.9198 Y1.8116
S255
G1 X17.8900 Y1.7619
S255
G1 X17.8555 Y1.7154
S255
G1 X17.8165 Y1.6725
S255
G1 X17.7736 Y1.6336
S255
G1 X17.7271 Y1.5990
S255
G1 X17.6774 Y1.5692
S255
G1 X17.6250 Y1.5445
S255
G1 X17.5704 Y1.5249
S255
G1 X17.5142 Y1.5109
S255
G1 X17.4569 Y1.5024
S255
G1 X17.3990 Y1.4995
S255
S0
G0 Z2.0000
G0 X17.3990 Y1.6597
S255
G1 F1000
G1 Z-0.0500
S255
G1 F1000
S255
G1 X17.3568 Y1.6618
S255
G1 X17.3151 Y1.6680
S255
G1 X17.2741 Y1.6782
S255
G1 X17.2343 Y1.6925
S255
G1 X17.1962 Y1.7105
S255
G1 X17.1599 Y1.7322
S255
G1 X17.1260 Y1.7574
S255
G1 X17.0947 Y1.7857
S255
G1 X17.0664 Y1.8170
S255
G1 X17.0412 Y1.8509
S255
G1 X17.0195 Y1.8872
S255
G1 X17.0015 Y1.9253
S255
G1 X16.9872 Y1.9651
S255
G1 X16.9770 Y2.0061
S255
G1 X16.9708 Y2.0478
S255
G1 X16.9682 Y2.1003
S255
G1 X16.9682 Y2.9797
S255
G1 X16.9708 Y3.0322
S255
G1 X16.9770 Y3.0739
S255
G1 X16.9872 Y3.1149
S255
G1 X17.0015 Y3.1547
S255
G1 X17.0195 Y3.1928
S255
G1 X17.0412 Y3.2291
S255
G1 X17.0664 Y3.2630
S255
G1 X17.0947 Y3.2943
S255
G1 X17.1260 Y3.3226
S255
G1 X17.1599 Y3.3478
S255
G1 X17.1962 Y3.3695
S255
G1 X17.2343 Y3.3875
S255
G1 X17.2741 Y3.4018
S255
G1 X17.3151 Y3.4120
S255
G1 X17.3568 Y3.4182
S255
G1 X17.3990 Y3.4203
S255
G1 X17.4412 Y3.4182
S255
G1 X17.4829 Y3.4120
S255
G1 X17.5239 Y3.4018
S255
G1 X17.5637 Y3.3875
S255
G1 X17.6018 Y3.3695
S255
G1 X17.6381 Y3.3478
S255
G1 X17.6720 Y3.3226
S255
G1 X17.7033 Y3.2943
S255
G1 X17.7316 Y3.2630
S255
G1 X17.7568 Y3.2291
S255
G1 X17.7785 Y3.1928
S255
G1 X17.7965 Y3.1547
S255
G1 X17.8108 Y3.1149
S255
G1 X17.8210 Y3.0739
S255
G1 X17.8272 Y3.0322
S255
G1 X17.8298 Y2.9797
S255
G1 X17.8298 Y2.1003
S255
G1 X17.8272 Y2.0478
S255
G1 X17.8210 Y2.0061
S255
G1 X17.8108 Y1.9651
S255
G1 X17.7965 Y1.9253
S255
G1 X17.7785 Y1.8872
S255
G1 X17.7568 Y1.8509
S255
G1 X17.7316 Y1.8170
S255
G1 X17.7033 Y1.7857
S255
G1 X17.6720 Y1.7574
S255
G1 X17.6381 Y1.7322
S255
G1 X17.6018 Y1.7105
S255
G1 X17.5637 Y1.6925
S255
G1 X17.5239 Y1.6782
S255
G1 X17.4829 Y1.6680
S255
G1 X17.4412 Y1.6618
S255
G1 X17.3990 Y1.6597
S255
S0
G0 Z2.0000
G0 X17.3990 Y1.8199
S255
G1 F1000
G1 Z-0.0500
S255
G1 F1000
S255
G1 X17.3725 Y1.8212
S255
G1 X17.3463 Y1.8251
S255
G1 X17.3206 Y1.8315
S255
G1 X17.2956 Y1.8405
S255
G1 X17.2717 Y1.8518
S255
G1 X17.2489 Y1.8654
S255
G1 X17.2277 Y1.8812
S255
G1 X17.2080 Y1.8990
S255
G1 X17.1902 Y1.9187
S255
G1 X17.1744 Y1.9399
S255
G1 X17.1608 Y1.9627
S255
G1 X17.1495 Y1.9866
S255
G1 X17.1405 Y2.0116
S255
G1 X17.1341 Y2.0373
S255
G1 X17.1302 Y2.0635
S255
G1 X17.1282 Y2.1042
S255
G1 X17.1282 Y2.9758
S255
G1 X17.1302 Y3.0165
S255
G1 X17.1341 Y3.0427
S255
G1 X17.1405 Y3.0684
S255
G1 X17.1495 Y3.0934
S255
G1 X17.1608 Y3.1173
S255
G1 X17.1744 Y3.1401
S255
G1 X17.1902 Y3.1613
S255
G1 X17.2080 Y3.1810
S255
G1 X17.2277 Y3.1988
S255
G1 X17.2489 Y3.2146
S255
G1 X17.2717 Y3.2282
S255
G1 X17.2956 Y3.2395
S255
G1 X17.3206 Y3.2485
S255
G1 X17.3463 Y3.2549
S255
G1 X17.3725 Y3.2588
S255
G1 X17.3990 Y3.2601
S255
G1 X17.4255 Y3.2588
S255
G1 X17.4517 Y3.2549
S255
G1 X17.4774 Y3.2485
S255
G1 X17.5024 Y3.2395
S255
G1 X17.5263 Y3.2282
S255
G1 X17.5491 Y3.2146
S255
G1 X17.5703 Y3.1988
S255
G1 X17.5900 Y3.1810
S255
G1 X17.6078 Y3.1613
S255
G1 X17.6236 Y3.1401
S255
G1 X17.6372 Y3.1173
S255
G1 X17.6485 Y3.0934
S255
G1 X17.6575 Y3.0684
S255
G1 X17.6639 Y3.0427
S255
G1 X17.6678 Y3.0165
S255
G1 X17.6698 Y2.9758
S255
G1 X17.6698 Y2.1042
S255
G1 X17.6678 Y2.0635
S255
G1 X17.6639 Y2.0373
S255
G1 X17.6575 Y2.0116
S255
G1 X17.6485 Y1.9866
S255
G1 X17.6372 Y1.9627
S255
G1 X17.6236 Y1.9399
S255
G1 X17.6078 Y1.9187
S255
G1 X17.5900 Y1.8990
S255
G1 X17.5703 Y1.8812
S255
G1 X17.5491 Y1.8654
S255
G1 X17.5263 Y1.8518
S255
G1 X17.5024 Y1.8405
S255
G1 X17.4774 Y1.8315
S255
G1 X17.4517 Y1.8251
S255
G1 X17.4255 Y1.8212
S255
G1 X17.3990 Y1.8199
S255
S0
G0 Z2.0000
G0 X17.3990 Y1.9801
S255
G1 F1000
G1 Z-0.0500
S255
G1 F1000
S255
G1 X17.3882 Y1.9806
S255
G1 X17.3776 Y1.9822
S255
G1 X17.3671 Y1.9848
S255
G1 X17.3569 Y1.9885
S255
G1 X17.3472 Y1.9931
S255
G1 X17.3379 Y1.9986
S255
G1 X17.3293 Y2.0050
S255
G1 X17.3213 Y2.0123
S255
G1 X17.3140 Y2.0203
S255
G1 X17.3076 Y2.0289
S255
G1 X17.3021 Y2.0382
S255
G1 X17.2975 Y2.0479
S255
G1 X17.2938 Y2.0581
S255
G1 X17.2912 Y2.0686
S255
G1 X17.2896 Y2.0792
S255
G1 X17.2882 Y2.1082
S255
G1 X17.2882 Y2.9718
S255
G1 X17.2896 Y3.0008
S255
G1 X17.2912 Y3.0114
S255
G1 X17.2938 Y3.0219
S255
G1 X17.2975 Y3.0321
S255
G1 X17.3021 Y3.0418
S255
G1 X17.3076 Y3.0511
S255
G1 X17.3140 Y3.0597
S255
G1 X17.3213 Y3.0677
S255
G1 X17.3293 Y3.0750
S255
G1 X17.3379 Y3.0814
S255
G1 X17.3472 Y3.0869
S255
G1 X17.3569 Y3.0915
S255
G1 X17.3671 Y3.0952
S255
G1 X17.3776 Y3.0978
S255
G1 X17.3882 Y3.0994
S255
G1 X17.3990 Y3.0999
S255
G1 X17.4098 Y3.0994
S255
G1 X17.4204 Y3.0978
S255
G1 X17.4309 Y3.0952
S255
G1 X17.4411 Y3.0915
S255
G1 X17.4508 Y3.0869
S255
G1 X17.4601 Y3.0814
S255
G1 X17.4687 Y3.0750
S255
G1 X17.4767 Y3.0677
S255
G1 X17.4840 Y3.0597
S255
G1 X17.4904 Y3.0511
S255
G1 X17.4959 Y3.0418
S255
G1 X17.5005 Y3.0321
S255
G1 X17.5042 Y3.0219
S255
G1 X17.5068 Y3.0114
S255
G1 X17.5084 Y3.0008
S255
G1 X17.5098 Y2.9718
S255
G1 X17.5098 Y2.1082
S255
G1 X17.5084 Y2.0792
S255
G1 X17.5068 Y2.0686
S255
G1 X17.5042 Y2.0581
S255
G1 X17.5005 Y2.0479
S255
G1 X17.4959 Y2.0382
S255
G1 X17.4904 Y2.0289
S255
G1 X17.4840 Y2.0203
S255
G1 X17.4767 Y2.0123
S255
G1 X17.4687 Y2.0050
S255
G1 X17.4601 Y1.9986
S255
G1 X17.4508 Y1.9931
S255
G1 X17.4411 Y1.9885
S255
G1 X17.4309 Y1.9848
S255
G1 X17.4204 Y1.9822
S255
G1 X17.4098 Y1.9806
S255
G1 X17.3990 Y1.9801
S255
S0
G0 Z2.0000
G0 X19.9390 Y1.9801
S255
G1 F1000
G1 Z-0.0500
S255
G1 F1000
S255
G1 X19.9282 Y1.9806
S255
G1 X19.9176 Y1.9822
S255
G1 X19.9071 Y1.9848
S255
G1 X19.8969 Y1.9885
S255
G1 X19.8872 Y1.9931
S255
G1 X19.8779 Y1.9986
S255
G1 X19.8693 Y2.0050
S255
G1 X19.8613 Y2.0123
S255
G1 X19.8540 Y2.0203
S255
G1 X19.8476 Y2.0289
S255
G1 X19.8421 Y2.0382
S255
G1 X19.8375 Y2.0479
S255
G1 X19.8338 Y2.0581
S255
G1 X19.8312 Y2.0686
S255
G1 X19.8296 Y2.0792
S255
G1 X19.8282 Y2.1082
S255
G1 X19.8282 Y2.9718
S255
G1 X19.8296 Y3.0008
S255
G1 X19.8312 Y3.0114
S255
G1 X19.8338 Y3.0219
S255
G1 X19.8375 Y3.0321
S255
G1 X19.8421 Y3.0418
S255
G1 X19.8476 Y3.0511
S255
G1 X19.8540 Y3.0597
S255
G1 X19.8613 Y3.0677
S255
G1 X19.8693 Y3.0750
S255
G1 X19.8779 Y3.0814
S255
G1 X19.8872 Y3.0869
S255
G1 X19.8969 Y3.0915
S255
G1 X19.9071 Y3.0952
S255
G1 X19.9176 Y3.0978
S255
G1 X19.9282 Y3.0994
S255
G1 X19.9390 Y3.0999
S255
G1 X19.9498 Y3.0994
S255
G1 X19.9604 Y3.0978
S255
G1 X19.9709 Y3.0952
S255
G1 X19.9811 Y3.0915
S255
G1 X19.9908 Y3.0869
S255
G1 X20.0001 Y3.0814
S255
G1 X20.0087 Y3.0750
S255
G1 X20.0167 Y3.0677
S255
G1 X20.0240 Y3.0597
S255
G1 X20.0304 Y3.0511
S255
G1 X20.0359 Y3.0418
S255
G1 X20.0405 Y3.0321
S255
G1 X20.0442 Y3.0219
S255
G1 X20.0468 Y3.0114
S255
G1 X20.0484 Y3.0008
S255
G1 X20.0498 Y2.9718
S255
G1 X20.0498 Y2.1082
S255
G1 X20.0484 Y2.0792
S255
G1 X20.0468 Y2.0686
S255
G1 X20.0442 Y2.0581
S255
G1 X20.0405 Y2.0479
S255
G1 X20.0359 Y2.0382
S255
G1 X20.0304 Y2.0289
S255
G1 X20.0240 Y2.0203
S255
G1 X20.0167 Y2.0123
S255
G1 X20.0087 Y2.0050
S255
G1 X20.0001 Y1.9986
S255
G1 X19.9908 Y1.9931
S255
G1 X19.9811 Y1.9885
S255
G1 X19.9709 Y1.9848
S255
G1 X19.9604 Y1.9822
S255
G1 X19.9498 Y1.9806
S255
G1 X19.9390 Y1.9801
S255
S0
G0 Z2.0000
G0 X19.9390 Y1.8199
S255
G1 F1000
G1 Z-0.0500
S255
G1 F1000
S255
G1 X19.9125 Y1.8212
S255
G1 X19.8863 Y1.8251
S255
G1 X19.8606 Y1.8315
S255
G1 X19.8356 Y1.8405
S255
G1 X19.8117 Y1.8518
S255
G1 X19.7889 Y1.8654
S255
G1 X19.7677 Y1.8812
S255
G1 X19.7480 Y1.8990
S255
G1 X19.7302 Y1.9187
S255
G1 X19.7144 Y1.9399
S255
G1 X19.7008 Y1.9627
S255
G1 X19.6895 Y1.9866
S255
G1 X19.6805 Y2.0116
S255
G1 X19.6741 Y2.0373
S255
G1 X19.6702 Y2.0635
S255
G1 X19.6682 Y2.1042
S255
G1 X19.6682 Y2.9758
S255
G1 X19.6702 Y3.0165
S255
G1 X19.6741 Y3.0427
S255
G1 X19.6805 Y3.0684
S255
G1 X19.6895 Y3.0934
S255
G1 X19.7008 Y3.1173
S255
G1 X19.7144 Y3.1401
S255
G1 X19.7302 Y3.1613
S255
G1 X19.7480 Y3.1810
S255
G1 X19.7677 Y3.1988
S255
G1 X19.7889 Y3.2146
S255
G1 X19.8117 Y3.2282
S255
G1 X19.8356 Y3.2395
S255
G1 X19.8606 Y3.2485
S255
G1 X19.8863 Y3.2549
S255
G1 X19.9125 Y3.2588
S255
G1 X19.9390 Y3.2601
S255
G1 X19.9655 Y3.2588
S255
G1 X19.9917 Y3.2549
S255
G1 X20.0174 Y3.2485
S255
G1 X20.0424 Y3.2395
S255
G1 X20.0663 Y3.2282
S255
G1 X20.0891 Y3.2146
S255
G1 X20.1103 Y3.1988
S255
G1 X20.1300 Y3.1810
S255
G1 X20.1478 Y3.1613
S255
G1 X20.1636 Y3.1401
S255
G1 X20.1772 Y3.1173
S255
G1 X20.1885 Y3.0934
S255
G1 X20.1975 Y3.0684
S255
G1 X20.2039 Y3.0427
S255
G1 X20.2078 Y3.0165
S255
G1 X20.2098 Y2.9758
S255
G1 X20.2098 Y2.1042
S255
G1 X20.2078 Y2.0635
S255
G1 X20.2039 Y2.0373
S255
G1 X20.1975 Y2.0116
S255
G1 X20.1885 Y1.9866
S255
G1 X20.1772 Y1.9627
S255
G1 X20.1636 Y1.9399
S255
G1 X20.1478 Y1.9187
S255
G1 X20.1300 Y1.8990
S255
G1 X20.1103 Y1.8812
S255
G1 X20.0891 Y1.8654
S255
G1 X20.0663 Y1.8518
S255
G1 X20.0424 Y1.8405
S255
G1 X20.0174 Y1.8315
S255
G1 X19.9917 Y1.8251
S255
G1 X19.9655 Y1.8212
S255
G1 X19.9390 Y1.8199
S255
S0
G0 Z2.0000
G0 X19.9390 Y1.6597
S255
G1 F1000
G1 Z-0.0500
S255
G1 F1000
S255
G1 X19.8968 Y1.6618
S255
G1 X19.8551 Y1.6680
S255
G1 X19.8141 Y1.6782
S255
G1 X19.7743 Y1.6925
S255
G1 X19.7362 Y1.7105
S255
G1 X19.6999 Y1.7322
S255
G1 X19.6660 Y1.7574
S255
G1 X19.6347 Y1.7857
S255
G1 X19.6064 Y1.8170
S255
G1 X19.5812 Y1.8509
S255
G1 X19.5595 Y1.8872
S255
G1 X19.5415 Y1.9253
S255
G1 X19.5272 Y1.9651
S255
G1 X19.5170 Y2.0061
S255
G1 X19.5108 Y2.0478
S255
G1 X19.5082 Y2.1003
S255
G1 X19.5082 Y2.9797
S255
G1 X19.5108 Y3.0322
S255
G1 X19.5170 Y3.0739
S255
G1 X19.5272 Y3.1149
S255
G1 X19.5415 Y3.1547
S255
G1 X19.5595 Y3.1928
S255
G1 X19.5812 Y3.2291
S255
G1 X19.6064 Y3.2630
S255
G1 X19.6347 Y3.2943
S255
G1 X19.6660 Y3.3226
S255
G1 X19.6999 Y3.3478
S255
G1 X19.7362 Y3.3695
S255
G1 X19.7743 Y3.3875
S255
G1 X19.8141 Y3.4018
S255
G1 X19.8551 Y3.4120
S255
G1 X19.8968 Y3.4182
S255
G1 X19.9390 Y3.4203
S255
G1 X19.9812 Y3.4182
S255
G1 X20.0229 Y3.4120
S255
G1 X20.0639 Y3.4018
S255
G1 X20.1037 Y3.3875
S255
G1 X20.1418 Y3.3695
S255
G1 X20.1781 Y3.3478
S255
G1 X20.2120 Y3.3226
S255
G1 X20.2433 Y3.2943
S255
G1 X20.2716 Y3.2630
S255
G1 X20.2968 Y3.2291
S255
G1 X20.3185 Y3.1928
S255
G1 X20.3365 Y3.1547
S255
G1 X20.3508 Y3.1149
S255
G1 X20.3610 Y3.0739
S255
G1 X20.3672 Y3.0322
S255
G1 X20.3698 Y2.9797
S255
G1 X20.3698 Y2.1003
S255
G1 X20.3672 Y2.0478
S255
G1 X20.3610 Y2.0061
S255
G1 X20.3508 Y1.9651
S255
G1 X20.3365 Y1.9253
S255
G1 X20.3185 Y1.8872
S255
G1 X20.2968 Y1.8509
S255
G1 X20.2716 Y1.8170
S255
G1 X20.2433 Y1.7857
S255
G1 X20.2120 Y1.7574
S255
G1 X20.1781 Y1.7322
S255
G1 X20.1418 Y1.7105
S255
G1 X20.1037 Y1.6925
S255
G1 X20.0639 Y1.6782
S255
G1 X20.0229 Y1.6680
S255
G1 X19.9812 Y1.6618
S255
G1 X19.9390 Y1.6597
S255
S0
G0 Z2.0000
G0 X19.9390 Y1.4995
S255
G1 F1000
G1 Z-0.0500
S255
G1 F1000
S255
G1 X19.8811 Y1.5024
S255
G1 X19.8238 Y1.5109
S255
G1 X19.7676 Y1.5249
S255
G1 X19.7130 Y1.5445
S255
G1 X19.6606 Y1.5692
S255
G1 X19.6109 Y1.5990
S255
G1 X19.5644 Y1.6336
S255
G1 X19.5215 Y1.6725
S255
G1 X19.4825 Y1.7154
S255
G1 X19.4480 Y1.7619
S255
G1 X19.4182 Y1.8116
S255
G1 X19.3935 Y1.8640
S255
G1 X19.3739 Y1.9186
S255
G1 X19.3599 Y1.9748
S255
G1 X19.3514 Y2.0321
S255
G1 X19.3482 Y2.0964
S255
G1 X19.3482 Y2.9836
S255
G1 X19.3514 Y3.0479
S255
G1 X19.3599 Y3.1052
S255
G1 X19.3739 Y3.1614
S255
G1 X19.3935 Y3.2160
S255
G1 X19.4182 Y3.2684
S255
G1 X19.4480 Y3.3181
S255
G1 X19.4825 Y3.3646
S255
G1 X19.5215 Y3.4075
S255
G1 X19.5644 Y3.4464
S255
G1 X19.6109 Y3.4810
S255
G1 X19.6606 Y3.5108
S255
G1 X19.7130 Y3.5355
S255
G1 X19.7676 Y3.5551
S255
G1 X19.8238 Y3.5691
S255
G1 X19.8811 Y3.5776
S255
G1 X19.9390 Y3.5805
S255
G1 X19.9969 Y3.5776
S255
G1 X20.0542 Y3.5691
S255
G1 X20.1104 Y3.5551
S255
G1 X20.1650 Y3.5355
S255
G1 X20.2174 Y3.5108
S255
G1 X20.2671 Y3.4810
S255
G1 X20.3136 Y3.4464
S255
G1 X20.3565 Y3.4075
S255
G1 X20.3955 Y3.3646
S255
G1 X20.4300 Y3.3181
S255
G1 X20.4598 Y3.2684
S255
G1 X20.4845 Y3.2160
S255
G1 X20.5041 Y3.1614
S255
G1 X20.5181 Y3.1052
S255
G1 X20.5266 Y3.0479
S255
G1 X20.5298 Y2.9836
S255
G1 X20.5298 Y2.0964
S255
G1 X20.5266 Y2.0321
S255
G1 X20.5181 Y1.9748
S255
G1 X20.5041 Y1.9186
S255
G1 X20.4845 Y1.8640
S255
G1 X20.4598 Y1.8116
S255
G1 X20.4300 Y1.7619
S255
G1 X20.3955 Y1.7154
S255
G1 X20.3565 Y1.6725
S255
G1 X20.3136 Y1.6336
S255
G1 X20.2671 Y1.5990
S255
G1 X20.2174 Y1.5692
S255
G1 X20.1650 Y1.5445
S255
G1 X20.1104 Y1.5249
S255
G1 X20.0542 Y1.5109
S255
G1 X19.9969 Y1.5024
S255
G1 X19.9390 Y1.4995
S255
S0
G0 Z2.0000
G0 X19.9390 Y1.3393
S255
G1 F1000
G1 Z-0.0500
S255
G1 F1000
S255
G1 X19.8654 Y1.3429
S255
G1 X19.7926 Y1.3537
S255
G1 X19.7211 Y1.3716
S255
G1 X19.6517 Y1.3965
S255
G1 X19.5851 Y1.4280
S255
G1 X19.5219 Y1.4658
S255
G1 X19.4628 Y1.5097
S255
G1 X19.4082 Y1.5592
S255
G1 X19.3587 Y1.6138
S255
G1 X19.3148 Y1.6729
S255
G1 X19.2770 Y1.7361
S255
G1 X19.2455 Y1.8027
S255
G1 X19.2206 Y1.8721
S255
G1 X19.2027 Y1.9436
S255
G1 X19.1919 Y2.0164
S255
G1 X19.1882 Y2.0925
S255
G1 X19.1882 Y2.9875
S255
G1 X19.1919 Y3.0636
S255
G1 X19.2027 Y3.1364
S255
G1 X19.2206 Y3.2079
S255
G1 X19.2455 Y3.2773
S255
G1 X19.2770 Y3.3439
S255
G1 X19.3148 Y3.4071
S255
G1 X19.3587 Y3.4662
S255
G1 X19.4082 Y3.5208
S255
G1 X19.4628 Y3.5703
S255
G1 X19.5219 Y3.6142
S255
G1 X19.5851 Y3.6520
S255
G1 X19.6517 Y3.6835
S255
G1 X19.7211 Y3.7084
S255
G1 X19.7926 Y3.7263
S255
G1 X19.8654 Y3.7371
S255
G1 X19.9390 Y3.7407
S255
G1 X20.0126 Y3.7371
S255
G1 X20.0854 Y3.7263
S255
G1 X20.1569 Y3.7084
S255
G1 X20.2263 Y3.6835
S255
G1 X20.2929 Y3.6520
S255
G1 X20.3561 Y3.6142
S255
G1 X20.4152 Y3.5703
S255
G1 X20.4698 Y3.5208
S255
G1 X20.5193 Y3.4662
S255
G1 X20.5632 Y3.4071
S255
G1 X20.6010 Y3.3439
S255
G1 X20.6325 Y3.2773
S255
G1 X20.6574 Y3.2079
S255
G1 X20.6753 Y3.1364
S255
G1 X20.6861 Y3.0636
S255
G1 X20.6898 Y2.9875
S255
G1 X20.6898 Y2.0925
S255
G1 X20.6861 Y2.0164
S255
G1 X20.6753 Y1.9436
S255
G1 X20.6574 Y1.8721
S255
G1 X20.6325 Y1.8027
S255
G1 X20.6010 Y1.7361
S255
G1 X20.5632 Y1.6729
S255
G1 X20.5193 Y1.6138
S255
G1 X20.4698 Y1.5592
S255
G1 X20.4152 Y1.5097
S255
G1 X20.3561 Y1.4658
S255
G1 X20.2929 Y1.4280
S255
G1 X20.2263 Y1.3965
S255
G1 X20.1569 Y1.3716
S255
G1 X20.0854 Y1.3537
S255
G1 X20.0126 Y1.3429
S255
G1 X19.9390 Y1.3393
S255
S0
G0 Z2.0000
G0 X22.4790 Y1.3393
S255
G1 F1000
G1 Z-0.0500
S255
G1 F1000
S255
G1 X22.4054 Y1.3429
S255
G1 X22.3326 Y1.3537
S255
G1 X22.2611 Y1.3716
S255
G1 X22.1917 Y1.3965
S255
G1 X22.1251 Y1.4280
S255
G1 X22.0619 Y1.4658
S255
G1 X22.0028 Y1.5097
S255
G1 X21.9482 Y1.5592
S255
G1 X21.8987 Y1.6138
S255
G1 X21.8548 Y1.6729
S255
G1 X21.8170 Y1.7361
S255
G1 X21.7855 Y1.8027
S255
G1 X21.7606 Y1.8721
S255
G1 X21.7427 Y1.9436
S255
G1 X21.7319 Y2.0164
S255
G1 X21.7282 Y2.0925
S255
G1 X21.7282 Y2.9875
S255
G1 X21.7319 Y3.0636
S255
G1 X21.7427 Y3.1364
S255
G1 X21.7606 Y3.2079
S255
G1 X21.7855 Y3.2773
S255
G1 X21.8170 Y3.3439
S255
G1 X21.8548 Y3.4071
S255
G1 X21.8987 Y3.4662
S255
G1 X21.9482 Y3.5208
S255
G1 X22.0028 Y3.5703
S255
G1 X22.0619 Y3.6142
S255
G1 X22.1251 Y3.6520
S255
G1 X22.1917 Y3.6835
S255
G1 X22.2611 Y3.7084
S255
G1 X22.3326 Y3.7263
S255
G1 X22.4054 Y3.7371
S255
G1 X22.4790 Y3.7407
S255
G1 X22.5526 Y3.7371
S255
G1 X22.6254 Y3.7263
S255
G1 X22.6969 Y3.7084
S255
G1 X22.7663 Y3.6835
S255
G1 X22.8329 Y3.6520
S255
G1 X22.8961 Y3.6142
S255
G1 X22.9552 Y3.5703
S255
G1 X23.0098 Y3.5208
S255
G1 X23.0593 Y3.4662
S255
G1 X23.1032 Y3.4071
S255
G1 X23.1410 Y3.3439
S255
G1 X23.1725 Y3.2773
S255
G1 X23.1974 Y3.2079
S255
G1 X23.2153 Y3.1364
S255
G1 X23.2261 Y3.0636
S255
G1 X23.2298 Y2.9875
S255
G1 X23.2298 Y2.0925
S255
G1 X23.2261 Y2.0164
S255
G1 X23.2153 Y1.9436
S255
G1 X23.1974 Y1.8721
S255
G1 X23.1725 Y1.8027
S255
G1 X23.1410 Y1.7361
S255
G1 X23.1032 Y1.6729
S255
G1 X23.0593 Y1.6138
S255
G1 X23.0098 Y1.5592
S255
G1 X22.9552 Y1.5097
S255
G1 X22.8961 Y1.4658
S255
G1 X22.8329 Y1.4280
S255
G1 X22.7663 Y1.3965
S255
G1 X22.6969 Y1.3716
S255
G1 X22.6254 Y1.3537
S255
G1 X22.5526 Y1.3429
S255
G1 X22.4790 Y1.3393
S255
S0
G0 Z2.0000
G0 X22.4790 Y1.4995
S255
G1 F1000
G1 Z-0.0500
S255
G1 F1000
S255
G1 X22.4211 Y1.5024
S255
G1 X22.3638 Y1.5109
S255
G1 X22.3076 Y1.5249
S255
G1 X22.2530 Y1.5445
S255
G1 X22.2006 Y1.5692
S255
G1 X22.1509 Y1.5990
S255
G1 X22.1044 Y1.6336
S255
G1 X22.0615 Y1.6725
S255
G1 X22.0225 Y1.7154
S255
G1 X21.9880 Y1.7619
S255
G1 X21.9582 Y1.8116
S255
G1 X21.9335 Y1.8640
S255
G1 X21.9139 Y1.9186
S255
G1 X21.8999 Y1.9748
S255
G1 X21.8914 Y2.0321
S255
G1 X21.8882 Y2.0964
S255
G1 X21.8882 Y2.9836
S255
G1 X21.8914 Y3.0479
S255
G1 X21.8999 Y3.1052
S255
G1 X21.9139 Y3.1614
S255
G1 X21.9335 Y3.2160
S255
G1 X21.9582 Y3.2684
S255
G1 X21.9880 Y3.3181
S255
G1 X22.0225 Y3.3646
S255
G1 X22.0615 Y3.4075
S255
G1 X22.1044 Y3.4464
S255
G1 X22.1509 Y3.4810
S255
G1 X22.2006 Y3.5108
S255
G1 X22.2530 Y3.5355
S255
G1 X22.3076 Y3.5551
S255
G1 X22.3638 Y3.5691
S255
G1 X22.4211 Y3.5776
S255
G1 X22.4790 Y3.5805
S255
G1 X22.5369 Y3.5776
S255
G1 X22.5942 Y3.5691
S255
G1 X22.6504 Y3.5551
S255
G1 X22.7050 Y3.5355
S255
G1 X22.7574 Y3.5108
S255
G1 X22.8071 Y3.4810
S255
G1 X22.8536 Y3.4464
S255
G1 X22.8965 Y3.4075
S255
G1 X22.9355 Y3.3646
S255
G1 X22.9700 Y3.3181
S255
G1 X22.9998 Y3.2684
S255
G1 X23.0245 Y3.2160
S255
G1 X23.0441 Y3.1614
S255
G1 X23.0581 Y3.1052
S255
G1 X23.0666 Y3.0479
S255
G1 X23.0698 Y2.9836
S255
G1 X23.0698 Y2.0964
S255
G1 X23.0666 Y2.0321
S255
G1 X23.0581 Y1.9748
S255
G1 X23.0441 Y1.9186
S255
G1 X23.0245 Y1.8640
S255
G1 X22.9998 Y1.8116
S255
G1 X22.9700 Y1.7619
S255
G1 X22.9355 Y1.7154
S255
G1 X22.8965 Y1.6725
S255
G1 X22.8536 Y1.6336
S255
G1 X22.8071 Y1.5990
S255
G1 X22.7574 Y1.5692
S255
G1 X22.7050 Y1.5445
S255
G1 X22.6504 Y1.5249
S255
G1 X22.5942 Y1.5109
S255
G1 X22.5369 Y1.5024
S255
G1 X22.4790 Y1.4995
S255
S0
G0 Z2.0000
G0 X22.4790 Y1.6597
S255
G1 F1000
G1 Z-0.0500
S255
G1 F1000
S255
G1 X22.4368 Y1.6618
S255
G1 X22.3951 Y1.6680
S255
G1 X22.3541 Y1.6782
S255
G1 X22.3143 Y1.6925
S255
G1 X22.2762 Y1.7105
S255
G1 X22.2399 Y1.7322
S255
G1 X22.2060 Y1.7574
S255
G1 X22.1747 Y1.7857
S255
G1 X22.1464 Y1.8170
S255
G1 X22.1212 Y1.8509
S255
G1 X22.0995 Y1.8872
S255
G1 X22.0815 Y1.9253
S255
G1 X22.0672 Y1.9651
S255
G1 X22.0570 Y2.0061
S255
G1 X22.0508 Y2.0478
S255
G1 X22.0482 Y2.1003
S255
G1 X22.0482 Y2.9797
S255
G1 X22.0508 Y3.0322
S255
G1 X22.0570 Y3.0739
S255
G1 X22.0672 Y3.1149
S255
G1 X22.0815 Y3.1547
S255
G1 X22.0995 Y3.1928
S255
G1 X22.1212 Y3.2291
S255
G1 X22.1464 Y3.2630
S255
G1 X22.1747 Y3.2943
S255
G1 X22.2060 Y3.3226
S255
G1 X22.2399 Y3.3478
S255
G1 X22.2762 Y3.3695
S255
G1 X22.3143 Y3.3875
S255
G1 X22.3541 Y3.4018
S255
G1 X22.3951 Y3.4120
S255
G1 X22.4368 Y3.4182
S255
G1 X22.4790 Y3.4203
S255
G1 X22.5212 Y3.4182
S255
G1 X22.5629 Y3.4120
S255
G1 X22.6039 Y3.4018
S255
G1 X22.6437 Y3.3875
S255
G1 X22.6818 Y3.3695
S255
G1 X22.7181 Y3.3478
S255
G1 X22.7520 Y3.3226
S255
G1 X22.7833 Y3.2943
S255
G1 X22.8116 Y3.2630
S255
G1 X22.8368 Y3.2291
S255
G1 X22.8585 Y3.1928
S255
G1 X22.8765 Y3.1547
S255
G1 X22.8908 Y3.1149
S255
G1 X22.9010 Y3.0739
S255
G1 X22.9072 Y3.0322
S255
G1 X22.9098 Y2.9797
S255
G1 X22.9098 Y2.1003
S255
G1 X22.9072 Y2.0478
S255
G1 X22.9010 Y2.0061
S255
G1 X22.8908 Y1.9651
S255
G1 X22.8765 Y1.9253
S255
G1 X22.8585 Y1.8872
S255
G1 X22.8368 Y1.8509
S255
G1 X22.8116 Y1.8170
S255
G1 X22.7833 Y1.7857
S255
G1 X22.7520 Y1.7574
S255
G1 X22.7181 Y1.7322
S255
G1 X22.6818 Y1.7105
S255
G1 X22.6437 Y1.6925
S255
G1 X22.6039 Y1.6782
S255
G1 X22.5629 Y1.6680
S255
G1 X22.5212 Y1.6618
S255
G1 X22.4790 Y1.6597
S255
S0
G0 Z2.0000
G0 X22.4790 Y1.8199
S255
G1 F1000
G1 Z-0.0500
S255
G1 F1000
S255
G1 X22.4525 Y1.8212
S255
G1 X22.4263 Y1.8251
S255
G1 X22.4006 Y1.8315
S255
G1 X22.3756 Y1.8405
S255
G1 X22.3517 Y1.8518
S255
G1 X22.3289 Y1.8654
S255
G1 X22.3077 Y1.8812
S255
G1 X22.2880 Y1.8990
S255
G1 X22.2702 Y1.9187
S255
G1 X22.2544 Y1.9399
S255
G1 X22.2408 Y1.9627
S255
G1 X22.2295 Y1.9866
S255
G1 X22.2205 Y2.0116
S255
G1 X22.2141 Y2.0373
S255
G1 X22.2102 Y2.0635
S255
G1 X22.2082 Y2.1042
S255
G1 X22.2082 Y2.9758
S255
G1 X22.2102 Y3.0165
S255
G1 X22.2141 Y3.0427
S255
G1 X22.2205 Y3.0684
S255
G1 X22.2295 Y3.0934
S255
G1 X22.2408 Y3.1173
S255
G1 X22.2544 Y3.1401
S255
G1 X22.2702 Y3.1613
S255
G1 X22.2880 Y3.1810
S255
G1 X22.3077 Y3.1988
S255
G1 X22.3289 Y3.2146
S255
G1 X22.3517 Y3.2282
S255
G1 X22.3756 Y3.2395
S255
G1 X22.4006 Y3.2485
S255
G1 X22.4263 Y3.2549
S255
G1 X22.4525 Y3.2588
S255
G1 X22.4790 Y3.2601
S255
G1 X22.5055 Y3.2588
S255
G1 X22.5317 Y3.2549
S255
G1 X22.5574 Y3.2485
S255
G1 X22.5824 Y3.2395
S255
G1 X22.6063 Y3.2282
S255
G1 X22.6291 Y3.2146
S255
G1 X22.6503 Y3.1988
S255
G1 X22.6700 Y3.1810
S255
G1 X22.6878 Y3.1613
S255
G1 X22.7036 Y3.1401
S255
G1 X22.7172 Y3.1173
S255
G1 X22.7285 Y3.0934
S255
G1 X22.7375 Y3.0684
S255
G1 X22.7439 Y3.0427
S255
G1 X22.7478 Y3.0165
S255
G1 X22.7498 Y2.9758
S255
G1 X22.7498 Y2.1042
S255
G1 X22.7478 Y2.0635
S255
G1 X22.7439 Y2.0373
S255
G1 X22.7375 Y2.0116
S255
G1 X22.7285 Y1.9866
S255
G1 X22.7172 Y1.9627
S255
G1 X22.7036 Y1.9399
S255
G1 X22.6878 Y1.9187
S255
G1 X22.6700 Y1.8990
S255
G1 X22.6503 Y1.8812
S255
G1 X22.6291 Y1.8654
S255
G1 X22.6063 Y1.8518
S255
G1 X22.5824 Y1.8405
S255
G1 X22.5574 Y1.8315
S255
G1 X22.5317 Y1.8251
S255
G1 X22.5055 Y1.8212
S255
G1 X22.4790 Y1.8199
S255
S0
G0 Z2.0000
G0 X22.4790 Y1.9801
S255
G1 F1000
G1 Z-0.0500
S255
G1 F1000
S255
G1 X22.4682 Y1.9806
S255
G1 X22.4576 Y1.9822
S255
G1 X22.4471 Y1.9848
S255
G1 X22.4369 Y1.9885
S255
G1 X22.4272 Y1.9931
S255
G1 X22.4179 Y1.9986
S255
G1 X22.4093 Y2.0050
S255
G1 X22.4013 Y2.0123
S255
G1 X22.3940 Y2.0203
S255
G1 X22.3876 Y2.0289
S255
G1 X22.3821 Y2.0382
S255
G1 X22.3775 Y2.0479
S255
G1 X22.3738 Y2.0581
S255
G1 X22.3712 Y2.0686
S255
G1 X22.3696 Y2.0792
S255
G1 X22.3682 Y2.1082
S255
G1 X22.3682 Y2.9718
S255
G1 X22.3696 Y3.0008
S255
G1 X22.3712 Y3.0114
S255
G1 X22.3738 Y3.0219
S255
G1 X22.3775 Y3.0321
S255
G1 X22.3821 Y3.0418
S255
G1 X22.3876 Y3.0511
S255
G1 X22.3940 Y3.0597
S255
G1 X22.4013 Y3.0677
S255
G1 X22.4093 Y3.0750
S255
G1 X22.4179 Y3.0814
S255
G1 X22.4272 Y3.0869
S255
G1 X22.4369 Y3.0915
S255
G1 X22.4471 Y3.0952
S255
G1 X22.4576 Y3.0978
S255
G1 X22.4682 Y3.0994
S255
G1 X22.4790 Y3.0999
S255
G1 X22.4898 Y3.0994
S255
G1 X22.5004 Y3.0978
S255
G1 X22.5109 Y3.0952
S255
G1 X22.5211 Y3.0915
S255
G1 X22.5308 Y3.0869
S255
G1 X22.5401 Y3.0814
S255
G1 X22.5487 Y3.0750
S255
G1 X22.5567 Y3.0677
S255
G1 X22.5640 Y3.0597
S255
G1 X22.5704 Y3.0511
S255
G1 X22.5759 Y3.0418
S255
G1 X22.5805 Y3.0321
S255
G1 X22.5842 Y3.0219
S255
G1 X22.5868 Y3.0114
S255
G1 X22.5884 Y3.0008
S255
G1 X22.5898 Y2.9718
S255
G1 X22.5898 Y2.1082
S255
G1 X22.5884 Y2.0792
S255
G1 X22.5868 Y2.0686
S255
G1 X22.5842 Y2.0581
S255
G1 X22.5805 Y2.0479
S255
G1 X22.5759 Y2.0382
S255
G1 X22.5704 Y2.0289
S255
G1 X22.5640 Y2.0203
S255
G1 X22.5567 Y2.0123
S255
G1 X22.5487 Y2.0050
S255
G1 X22.5401 Y1.9986
S255
G1 X22.5308 Y1.9931
S255
G1 X22.5211 Y1.9885
S255
G1 X22.5109 Y1.9848
S255
G1 X22.5004 Y1.9822
S255
G1 X22.4898 Y1.9806
S255
G1 X22.4790 Y1.9801
S255
S0
G0 Z2.0000
G0 X25.0190 Y1.9801
S255
G1 F1000
G1 Z-0.0500
S255
G1 F1000
S255
G1 X25.0082 Y1.9806
S255
G1 X24.9976 Y1.9822
S255
G1 X24.9871 Y1.9848
S255
G1 X24.9769 Y1.9885
S255
G1 X24.9672 Y1.9931
S255
G1 X24.9579 Y1.9986
S255
G1 X24.9493 Y2.0050
S255
G1 X24.9413 Y2.0123
S255
G1 X24.9340 Y2.0203
S255
G1 X24.9276 Y2.0289
S255
G1 X24.9221 Y2.0382
S255
G1 X24.9175 Y2.0479
S255
G1 X24.9138 Y2.0581
S255
G1 X24.9112 Y2.0686
S255
G1 X24.9096 Y2.0792
S255
G1 X24.9082 Y2.1082
S255
G1 X24.9082 Y2.9718
S255
G1 X24.9096 Y3.0008
S255
G1 X24.9112 Y3.0114
S255
G1 X24.9138 Y3.0219
S255
G1 X24.9175 Y3.0321
S255
G1 X24.9221 Y3.0418
S255
G1 X24.9276 Y3.0511
S255
G1 X24.9340 Y3.0597
S255
G1 X24.9413 Y3.0677
S255
G1 X24.9493 Y3.0750
S255
G1 X24.9579 Y3.0814
S255
G1 X24.9672 Y3.0869
S255
G1 X24.9769 Y3.0915
S255
G1 X24.9871 Y3.0952
S255
G1 X24.9976 Y3.0978
S255
G1 X25.0082 Y3.0994
S255
G1 X25.0190 Y3.0999
S255
G1 X25.0298 Y3.0994
S255
G1 X25.0404 Y3.0978
S255
G1 X25.0509 Y3.0952
S255
G1 X25.0611 Y3.0915
S255
G1 X25.0708 Y3.0869
S255
G1 X25.0801 Y3.0814
S255
G1 X25.0887 Y3.0750
S255
G1 X25.0967 Y3.0677
S255
G1 X25.1040 Y3.0597
S255
G1 X25.1104 Y3.0511
S255
G1 X25.1159 Y3.0418
S255
G1 X25.1205 Y3.0321
S255
G1 X25.1242 Y3.0219
S255
G1 X25.1268 Y3.0114
S255
G1 X25.1284 Y3.0008
S255
G1 X25.1298 Y2.9718
S255
G1 X25.1298 Y2.1082
S255
G1 X25.1284 Y2.0792
S255
G1 X25.1268 Y2.0686
S255
G1 X25.1242 Y2.0581
S255
G1 X25.1205 Y2.0479
S255
G1 X25.1159 Y2.0382
S255
G1 X25.1104 Y2.0289
S255
G1 X25.1040 Y2.0203
S255
G1 X25.0967 Y2.0123
S255
G1 X25.0887 Y2.0050
S255
G1 X25.0801 Y1.9986
S255
G1 X25.0708 Y1.9931
S255
G1 X25.0611 Y1.9885
S255
G1 X25.0509 Y1.9848
S255
G1 X25.0404 Y1.9822
S255
G1 X25.0298 Y1.9806
S255
G1 X25.0190 Y1.9801
S255
S0
G0 Z2.0000
G0 X25.0190 Y1.8199
S255
G1 F1000
G1 Z-0.0500
S255
G1 F1000
S255
G1 X24.9925 Y1.8212
S255
G1 X24.9663 Y1.8251
S255
G1 X24.9406 Y1.8315
S255
G1 X24.9156 Y1.8405
S255
G1 X24.8917 Y1.8518
S255
G1 X24.8689 Y1.8654
S255
G1 X24.8477 Y1.8812
S255
G1 X24.8280 Y1.8990
S255
G1 X24.8102 Y1.9187
S255
G1 X24.7944 Y1.9399
S255
G1 X24.7808 Y1.9627
S255
G1 X24.7695 Y1.9866
S255
G1 X24.7605 Y2.0116
S255
G1 X24.7541 Y2.0373
S255
G1 X24.7502 Y2.0635
S255
G1 X24.7482 Y2.1042
S255
G1 X24.7482 Y2.9758
S255
G1 X24.7502 Y3.0165
S255
G1 X24.7541 Y3.0427
S255
G1 X24.7605 Y3.0684
S255
G1 X24.7695 Y3.0934
S255
G1 X24.7808 Y3.1173
S255
G1 X24.7944 Y3.1401
S255
G1 X24.8102 Y3.1613
S255
G1 X24.8280 Y3.1810
S255
G1 X24.8477 Y3.1988
S255
G1 X24.8689 Y3.2146
S255
G1 X24.8917 Y3.2282
S255
G1 X24.9156 Y3.2395
S255
G1 X24.9406 Y3.2485
S255
G1 X24.9663 Y3.2549
S255
G1 X24.9925 Y3.2588
S255
G1 X25.0190 Y3.2601
S255
G1 X25.0455 Y3.2588
S255
G1 X25.0717 Y3.2549
S255
G1 X25.0974 Y3.2485
S255
G1 X25.1224 Y3.2395
S255
G1 X25.1463 Y3.2282
S255
G1 X25.1691 Y3.2146
S255
G1 X25.1903 Y3.1988
S255
G1 X25.2100 Y3.1810
S255
G1 X25.2278 Y3.1613
S255
G1 X25.2436 Y3.1401
S255
G1 X25.2572 Y3.1173
S255
G1 X25.2685 Y3.0934
S255
G1 X25.2775 Y3.0684
S255
G1 X25.2839 Y3.0427
S255
G1 X25.2878 Y3.0165
S255
G1 X25.2898 Y2.9758
S255
G1 X25.2898 Y2.1042
S255
G1 X25.2878 Y2.0635
S255
G1 X25.2839 Y2.0373
S255
G1 X25.2775 Y2.0116
S255
G1 X25.2685 Y1.9866
S255
G1 X25.2572 Y1.9627
S255
G1 X25.2436 Y1.9399
S255
G1 X25.2278 Y1.9187
S255
G1 X25.2100 Y1.8990
S255
G1 X25.1903 Y1.8812
S255
G1 X25.1691 Y1.8654
S255
G1 X25.1463 Y1.8518
S255
G1 X25.1224 Y1.8405
S255
G1 X25.0974 Y1.8315
S255
G1 X25.0717 Y1.8251
S255
G1 X25.0455 Y1.8212
S255
G1 X25.0190 Y1.8199
S255
S0
G0 Z2.0000
G0 X25.0190 Y1.6597
S255
G1 F1000
G1 Z-0.0500
S255
G1 F1000
S255
G1 X24.9768 Y1.6618
S255
G1 X24.9351 Y1.6680
S255
G1 X24.8941 Y1.6782
S255
G1 X24.8543 Y1.6925
S255
G1 X24.8162 Y1.7105
S255
G1 X24.7799 Y1.7322
S255
G1 X24.7460 Y1.7574
S255
G1 X24.7147 Y1.7857
S255
G1 X24.6864 Y1.8170
S255
G1 X24.6612 Y1.8509
S255
G1 X24.6395 Y1.8872
S255
G1 X24.6215 Y1.9253
S255
G1 X24.6072 Y1.9651
S255
G1 X24.5970 Y2.0061
S255
G1 X24.5908 Y2.0478
S255
G1 X24.5882 Y2.1003
S255
G1 X24.5882 Y2.9797
S255
G1 X24.5908 Y3.0322
S255
G1 X24.5970 Y3.0739
S255
G1 X24.6072 Y3.1149
S255
G1 X24.6215 Y3.1547
S255
G1 X24.6395 Y3.1928
S255
G1 X24.6612 Y3.2291
S255
G1 X24.6864 Y3.2630
S255
G1 X24.7147 Y3.2943
S255
G1 X24.7460 Y3.3226
S255
G1 X24.7799 Y3.3478
S255
G1 X24.8162 Y3.3695
S255
G1 X24.8543 Y3.3875
S255
G1 X24.8941 Y3.4018
S255
G1 X24.9351 Y3.4120
S255
G1 X24.9768 Y3.4182
S255
G1 X25.0190 Y3.4203
S255
G1 X25.0612 Y3.4182
S255
G1 X25.1029 Y3.4120
S255
G1 X25.1439 Y3.4018
S255
G1 X25.1837 Y3.3875
S255
G1 X25.2218 Y3.3695
S255
G1 X25.2581 Y3.3478
S255
G1 X25.2920 Y3.3226
S255
G1 X25.3233 Y3.2943
S255
G1 X25.3516 Y3.2630
S255
G1 X25.3768 Y3.2291
S255
G1 X25.3985 Y3.1928
S255
G1 X25.4165 Y3.1547
S255
G1 X25.4308 Y3.1149
S255
G1 X25.4410 Y3.0739
S255
G1 X25.4472 Y3.0322
S255
G1 X25.4498 Y2.9797
S255
G1 X25.4498 Y2.1003
S255
G1 X25.4472 Y2.0478
S255
G1 X25.4410 Y2.0061
S255
G1 X25.4308 Y1.9651
S255
G1 X25.4165 Y1.9253
S255
G1 X25.3985 Y1.8872
S255
G1 X25.3768 Y1.8509
S255
G1 X25.3516 Y1.8170
S255
G1 X25.3233 Y1.7857
S255
G1 X25.2920 Y1.7574
S255
G1 X25.2581 Y1.7322
S255
G1 X25.2218 Y1.7105
S255
G1 X25.1837 Y1.6925
S255
G1 X25.1439 Y1.6782
S255
G1 X25.1029 Y1.6680
S255
G1 X25.0612 Y1.6618
S255
G1 X25.0190 Y1.6597
S255
S0
G0 Z2.0000
G0 X25.0190 Y1.4995
S255
G1 F1000
G1 Z-0.0500
S255
G1 F1000
S255
G1 X24.9611 Y1.5024
S255
G1 X24.9038 Y1.5109
S255
G1 X24.8476 Y1.5249
S255
G1 X24.7930 Y1.5445
S255
G1 X24.7406 Y1.5692
S255
G1 X24.6909 Y1.5990
S255
G1 X24.6444 Y1.6336
S255
G1 X24.6015 Y1.6725
S255
G1 X24.5625 Y1.7154
S255
G1 X24.5280 Y1.7619
S255
G1 X24.4982 Y1.8116
S255
G1 X24.4735 Y1.8640
S255
G1 X24.4539 Y1.9186
S255
G1 X24.4399 Y1.9748
S255
G1 X24.4314 Y2.0321
S255
G1 X24.4282 Y2.0964
S255
G1 X24.4282 Y2.9836
S255
G1 X24.4314 Y3.0479
S255
G1 X24.4399 Y3.1052
S255
G1 X24.4539 Y3.1614
S255
G1 X24.4735 Y3.2160
S255
G1 X24.4982 Y3.2684
S255
G1 X24.5280 Y3.3181
S255
G1 X24.5625 Y3.3646
S255
G1 X24.6015 Y3.4075
S255
G1 X24.6444 Y3.4464
S255
G1 X24.6909 Y3.4810
S255
G1 X24.7406 Y3.5108
S255
G1 X24.7930 Y3.5355
S255
G1 X24.8476 Y3.5551
S255
G1 X24.9038 Y3.5691
S255
G1 X24.9611 Y3.5776
S255
G1 X25.0190 Y3.5805
S255
G1 X25.0769 Y3.5776
S255
G1 X25.1342 Y3.5691
S255
G1 X25.1904 Y3.5551
S255
G1 X25.2450 Y3.5355
S255
G1 X25.2974 Y3.5108
S255
G1 X25.3471 Y3.4810
S255
G1 X25.3936 Y3.4464
S255
G1 X25.4365 Y3.4075
S255
G1 X25.4755 Y3.3646
S255
G1 X25.5100 Y3.3181
S255
G1 X25.5398 Y3.2684
S255
G1 X25.5645 Y3.2160
S255
G1 X25.5841 Y3.1614
S255
G1 X25.5981 Y3.1052
S255
G1 X25.6066 Y3.0479
S255
G1 X25.6098 Y2.9836
S255
G1 X25.6098 Y2.0964
S255
G1 X25.6066 Y2.0321
S255
G1 X25.5981 Y1.9748
S255
G1 X25.5841 Y1.9186
S255
G1 X25.5645 Y1.8640
S255
G1 X25.5398 Y1.8116
S255
G1 X25.5100 Y1.7619
S255
G1 X25.4755 Y1.7154
S255
G1 X25.4365 Y1.6725
S255
G1 X25.3936 Y1.6336
S255
G1 X25.3471 Y1.5990
S255
G1 X25.2974 Y1.5692
S255
G1 X25.2450 Y1.5445
S255
G1 X25.1904 Y1.5249
S255
G1 X25.1342 Y1.5109
S255
G1 X25.0769 Y1.5024
S255
G1 X25.0190 Y1.4995
S255
S0
G0 Z2.0000
G0 X25.0190 Y1.3393
S255
G1 F1000
G1 Z-0.0500
S255
G1 F1000
S255
G1 X24.9454 Y1.3429
S255
G1 X24.8726 Y1.3537
S255
G1 X24.8011 Y1.3716
S255
G1 X24.7317 Y1.3965
S255
G1 X24.6651 Y1.4280
S255
G1 X24.6019 Y1.4658
S255
G1 X24.5428 Y1.5097
S255
G1 X24.4882 Y1.5592
S255
G1 X24.4387 Y1.6138
S255
G1 X24.3948 Y1.6729
S255
G1 X24.3570 Y1.7361
S255
G1 X24.3255 Y1.8027
S255
G1 X24.3006 Y1.8721
S255
G1 X24.2827 Y1.9436
S255
G1 X24.2719 Y2.0164
S255
G1 X24.2682 Y2.0925
S255
G1 X24.2682 Y2.9875
S255
G1 X24.2719 Y3.0636
S255
G1 X24.2827 Y3.1364
S255
G1 X24.3006 Y3.2079
S255
G1 X24.3255 Y3.2773
S255
G1 X24.3570 Y3.3439
S255
G1 X24.3948 Y3.4071
S255
G1 X24.4387 Y3.4662
S255
G1 X24.4882 Y3.5208
S255
G1 X24.5428 Y3.5703
S255
G1 X24.6019 Y3.6142
S255
G1 X24.6651 Y3.6520
S255
G1 X24.7317 Y3.6835
S255
G1 X24.8011 Y3.7084
S255
G1 X24.8726 Y3.7263
S255
G1 X24.9454 Y3.7371
S255
G1 X25.0190 Y3.7407
S255
G1 X25.0926 Y3.7371
S255
G1 X25.1654 Y3.7263
S255
G1 X25.2369 Y3.7084
S255
G1 X25.3063 Y3.6835
S255
G1 X25.3729 Y3.6520
S255
G1 X25.4361 Y3.6142
S255
G1 X25.4952 Y3.5703
S255
G1 X25.5498 Y3.5208
S255
G1 X25.5993 Y3.4662
S255
G1 X25.6432 Y3.4071
S255
G1 X25.6810 Y3.3439
S255
G1 X25.7125 Y3.2773
S255
G1 X25.7374 Y3.2079
S255
G1 X25.7553 Y3.1364
S255
G1 X25.7661 Y3.0636
S255
G1 X25.7698 Y2.9875
S255
G1 X25.7698 Y2.0925
S255
G1 X25.7661 Y2.0164
S255
G1 X25.7553 Y1.9436
S255
G1 X25.7374 Y1.8721
S255
G1 X25.7125 Y1.8027
S255
G1 X25.6810 Y1.7361
S255
G1 X25.6432 Y1.6729
S255
G1 X25.5993 Y1.6138
S255
G1 X25.5498 Y1.5592
S255
G1 X25.4952 Y1.5097
S255
G1 X25.4361 Y1.4658
S255
G1 X25.3729 Y1.4280
S255
G1 X25.3063 Y1.3965
S255
G1 X25.2369 Y1.3716
S255
G1 X25.1654 Y1.3537
S255
G1 X25.0926 Y1.3429
S255
G1 X25.0190 Y1.3393
S255
S0
G0 Z2.0000
G0 X27.5590 Y1.3393
S255
G1 F1000
G1 Z-0.0500
S255
G1 F1000
S255
G1 X27.4854 Y1.3429
S255
G1 X27.4126 Y1.3537
S255
G1 X27.3411 Y1.3716
S255
G1 X27.2717 Y1.3965
S255
G1 X27.2051 Y1.4280
S255
G1 X27.1419 Y1.4658
S255
G1 X27.0828 Y1.5097
S255
G1 X27.0282 Y1.5592
S255
G1 X26.9787 Y1.6138
S255
G1 X26.9348 Y1.6729
S255
G1 X26.8970 Y1.7361
S255
G1 X26.8655 Y1.8027
S255
G1 X26.8406 Y1.8721
S255
G1 X26.8227 Y1.9436
S255
G1 X26.8119 Y2.0164
S255
G1 X26.8082 Y2.0925
S255
G1 X26.8082 Y2.9875
S255
G1 X26.8119 Y3.0636
S255
G1 X26.8227 Y3.1364
S255
G1 X26.8406 Y3.2079
S255
G1 X26.8655 Y3.2773
S255
G1 X26.8970 Y3.3439
S255
G1 X26.9348 Y3.4071
S255
G1 X26.9787 Y3.4662
S255
G1 X27.0282 Y3.5208
S255
G1 X27.0828 Y3.5703
S255
G1 X27.1419 Y3.6142
S255
G1 X27.2051 Y3.6520
S255
G1 X27.2717 Y3.6835
S255
G1 X27.3411 Y3.7084
S255
G1 X27.4126 Y3.7263
S255
G1 X27.4854 Y3.7371
S255
G1 X27.5590 Y3.7407
S255
G1 X27.6326 Y3.7371
S255
G1 X27.7054 Y3.7263
S255
G1 X27.7769 Y3.7084
S255
G1 X27.8463 Y3.6835
S255
G1 X27.9129 Y3.6520
S255
G1 X27.9761 Y3.6142
S255
G1 X28.0352 Y3.5703
S255
G1 X28.0898 Y3.5208
S255
G1 X28.1393 Y3.4662
S255
G1 X28.1832 Y3.4071
S255
G1 X28.2210 Y3.3439
S255
G1 X28.2525 Y3.2773
S255
G1 X28.2774 Y3.2079
S255
G1 X28.2953 Y3.1364
S255
G1 X28.3061 Y3.0636
S255
G1 X28.3098 Y2.9875
S255
G1 X28.3098 Y2.0925
S255
G1 X28.3061 Y2.0164
S255
G1 X28.2953 Y1.9436
S255
G1 X28.2774 Y1.8721
S255
G1 X28.2525 Y1.8027
S255
G1 X28.2210 Y1.7361
S255
G1 X28.1832 Y1.6729
S255
G1 X28.1393 Y1.6138
S255
G1 X28.0898 Y1.5592
S255
G1 X28.0352 Y1.5097
S255
G1 X27.9761 Y1.4658
S255
G1 X27.9129 Y1.4280
S255
G1 X27.8463 Y1.3965
S255
G1 X27.7769 Y1.3716
S255
G1 X27.7054 Y1.3537
S255
G1 X27.6326 Y1.3429
S255
G1 X27.5590 Y1.3393
S255
S0
G0 Z2.0000
G0 X27.5590 Y1.4995
S255
G1 F1000
G1 Z-0.0500
S255
G1 F1000
S255
G1 X27.5011 Y1.5024
S255
G1 X27.4438 Y1.5109
S255
G1 X27.3876 Y1.5249
S255
G1 X27.3330 Y1.5445
S255
G1 X27.2806 Y1.5692
S255
G1 X27.2309 Y1.5990
S255
G1 X27.1844 Y1.6336
S255
G1 X27.1415 Y1.6725
S255
G1 X27.1025 Y1.7154
S255
G1 X27.0680 Y1.7619
S255
G1 X27.0382 Y1.8116
S255
G1 X27.0135 Y1.8640
S255
G1 X26.9939 Y1.9186
S255
G1 X26.9799 Y1.9748
S255
G1 X26.9714 Y2.0321
S255
G1 X26.9682 Y2.0964
S255
G1 X26.9682 Y2.9836
S255
G1 X26.9714 Y3.0479
S255
G1 X26.9799 Y3.1052
S255
G1 X26.9939 Y3.1614
S255
G1 X27.0135 Y3.2160
S255
G1 X27.0382 Y3.2684
S255
G1 X27.0680 Y3.3181
S255
G1 X27.1025 Y3.3646
S255
G1 X27.1415 Y3.4075
S255
G1 X27.1844 Y3.4464
S255
G1 X27.2309 Y3.4810
S255
G1 X27.2806 Y3.5108
S255
G1 X27.3330 Y3.5355
S255
G1 X27.3876 Y3.5551
S255
G1 X27.4438 Y3.5691
S255
G1 X27.5011 Y3.5776
S255
G1 X27.5590 Y3.5805
S255
G1 X27.6169 Y3.5776
S255
G1 X27.6742 Y3.5691
S255
G1 X27.7304 Y3.5551
S255
G1 X27.7850 Y3.5355
S255
G1 X27.8374 Y3.5108
S255
G1 X27.8871 Y3.4810
S255
G1 X27.9336 Y3.4464
S255
G1 X27.9765 Y3.4075
S255
G1 X28.0155 Y3.3646
S255
G1 X28.0500 Y3.3181
S255
G1 X28.0798 Y3.2684
S255
G1 X28.1045 Y3.2160
S255
G1 X28.1241 Y3.1614
S255
G1 X28.1381 Y3.1052
S255
G1 X28.1466 Y3.0479
S255
G1 X28.1498 Y2.9836
S255
G1 X28.1498 Y2.0964
S255
G1 X28.1466 Y2.0321
S255
G1 X28.1381 Y1.9748
S255
G1 X28.1241 Y1.9186
S255
G1 X28.1045 Y1.8640
S255
G1 X28.0798 Y1.8116
S255
G1 X28.0500 Y1.7619
S255
G1 X28.0155 Y1.7154
S255
G1 X27.9765 Y1.6725
S255
G1 X27.9336 Y1.6336
S255
G1 X27.8871 Y1.5990
S255
G1 X27.8374 Y1.5692
S255
G1 X27.7850 Y1.5445
S255
G1 X27.7304 Y1.5249
S255
G1 X27.6742 Y1.5109
S255
G1 X27.6169 Y1.5024
S255
G1 X27.5590 Y1.4995
S255
S0
G0 Z2.0000
G0 X27.5590 Y1.6597
S255
G1 F1000
G1 Z-0.0500
S255
G1 F1000
S255
G1 X27.5168 Y1.6618
S255
G1 X27.4751 Y1.6680
S255
G1 X27.4341 Y1.6782
S255
G1 X27.3943 Y1.6925
S255
G1 X27.3562 Y1.7105
S255
G1 X27.3199 Y1.7322
S255
G1 X27.2860 Y1.7574
S255
G1 X27.2547 Y1.7857
S255
G1 X27.2264 Y1.8170
S255
G1 X27.2012 Y1.8509
S255
G1 X27.1795 Y1.8872
S255
G1 X27.1615 Y1.9253
S255
G1 X27.1472 Y1.9651
S255
G1 X27.1370 Y2.0061
S255
G1 X27.1308 Y2.0478
S255
G1 X27.1282 Y2.1003
S255
G1 X27.1282 Y2.9797
S255
G1 X27.1308 Y3.0322
S255
G1 X27.1370 Y3.0739
S255
G1 X27.1472 Y3.1149
S255
G1 X27.1615 Y3.1547
S255
G1 X27.1795 Y3.1928
S255
G1 X27.2012 Y3.2291
S255
G1 X27.2264 Y3.2630
S255
G1 X27.2547 Y3.2943
S255
G1 X27.2860 Y3.3226
S255
G1 X27.3199 Y3.3478
S255
G1 X27.3562 Y3.3695
S255
G1 X27.3943 Y3.3875
S255
G1 X27.4341 Y3.4018
S255
G1 X27.4751 Y3.4120
S255
G1 X27.5168 Y3.4182
S255
G1 X27.5590 Y3.4203
S255
G1 X27.6012 Y3.4182
S255
G1 X27.6429 Y3.4120
S255
G1 X27.6839 Y3.4018
S255
G1 X27.7237 Y3.3875
S255
G1 X27.7618 Y3.3695
S255
G1 X27.7981 Y3.3478
S255
G1 X27.8320 Y3.3226
S255
G1 X27.8633 Y3.2943
S255
G1 X27.8916 Y3.2630
S255
G1 X27.9168 Y3.2291
S255
G1 X27.9385 Y3.1928
S255
G1 X27.9565 Y3.1547
S255
G1 X27.9708 Y3.1149
S255
G1 X27.9810 Y3.0739
S255
G1 X27.9872 Y3.0322
S255
G1 X27.9898 Y2.9797
S255
G1 X27.9898 Y2.1003
S255
G1 X27.9872 Y2.0478
S255
G1 X27.9810 Y2.0061
S255
G1 X27.9708 Y1.9651
S255
G1 X27.9565 Y1.9253
S255
G1 X27.9385 Y1.8872
S255
G1 X27.9168 Y1.8509
S255
G1 X27.8916 Y1.8170
S255
G1 X27.8633 Y1.7857
S255
G1 X27.8320 Y1.7574
S255
G1 X27.7981 Y1.7322
S255
G1 X27.7618 Y1.7105
S255
G1 X27.7237 Y1.6925
S255
G1 X27.6839 Y1.6782
S255
G1 X27.6429 Y1.6680
S255
G1 X27.6012 Y1.6618
S255
G1 X27.5590 Y1.6597
S255
S0
G0 Z2.0000
G0 X27.5590 Y1.8199
S255
G1 F1000
G1 Z-0.0500
S255
G1 F1000
S255
G1 X27.5325 Y1.8212
S255
G1 X27.5063 Y1.8251
S255
G1 X27.4806 Y1.8315
S255
G1 X27.4556 Y1.8405
S255
G1 X27.4317 Y1.8518
S255
G1 X27.4089 Y1.8654
S255
G1 X27.3877 Y1.8812
S255
G1 X27.3680 Y1.8990
S255
G1 X27.3502 Y1.9187
S255
G1 X27.3344 Y1.9399
S255
G1 X27.3208 Y1.9627
S255
G1 X27.3095 Y1.9866
S255
G1 X27.3005 Y2.0116
S255
G1 X27.2941 Y2.0373
S255
G1 X27.2902 Y2.0635
S255
G1 X27.2882 Y2.1042
S255
G1 X27.2882 Y2.9758
S255
G1 X27.2902 Y3.0165
S255
G1 X27.2941 Y3.0427
S255
G1 X27.3005 Y3.0684
S255
G1 X27.3095 Y3.0934
S255
G1 X27.3208 Y3.1173
S255
G1 X27.3344 Y3.1401
S255
G1 X27.3502 Y3.1613
S255
G1 X27.3680 Y3.1810
S255
G1 X27.3877 Y3.1988
S255
G1 X27.4089 Y3.2146
S255
G1 X27.4317 Y3.2282
S255
G1 X27.4556 Y3.2395
S255
G1 X27.4806 Y3.2485
S255
G1 X27.5063 Y3.2549
S255
G1 X27.5325 Y3.2588
S255
G1 X27.5590 Y3.2601
S255
G1 X27.5855 Y3.2588
S255
G1 X27.6117 Y3.2549
S255
G1 X27.6374 Y3.2485
S255
G1 X27.6624 Y3.2395
S255
G1 X27.6863 Y3.2282
S255
G1 X27.7091 Y3.2146
S255
G1 X27.7303 Y3.1988
S255
G1 X27.7500 Y3.1810
S255
G1 X27.7678 Y3.1613
S255
G1 X27.7836 Y3.1401
S255
G1 X27.7972 Y3.1173
S255
G1 X27.8085 Y3.0934
S255
G1 X27.8175 Y3.0684
S255
G1 X27.8239 Y3.0427
S255
G1 X27.8278 Y3.0165
S255
G1 X27.8298 Y2.9758
S255
G1 X27.8298 Y2.1042
S255
G1 X27.8278 Y2.0635
S255
G1 X27.8239 Y2.0373
S255
G1 X27.8175 Y2.0116
S255
G1 X27.8085 Y1.9866
S255
G1 X27.7972 Y1.9627
S255
G1 X27.7836 Y1.9399
S255
G1 X27.7678 Y1.9187
S255
G1 X27.7500 Y1.8990
S255
G1 X27.7303 Y1.8812
S255
G1 X27.7091 Y1.8654
S255
G1 X27.6863 Y1.8518
S255
G1 X27.6624 Y1.8405
S255
G1 X27.6374 Y1.8315
S255
G1 X27.6117 Y1.8251
S255
G1 X27.5855 Y1.8212
S255
G1 X27.5590 Y1.8199
S255
S0
G0 Z2.0000
G0 X27.5590 Y1.9801
S255
G1 F1000
G1 Z-0.0500
S255
G1 F1000
S255
G1 X27.5482 Y1.9806
S255
G1 X27.5376 Y1.9822
S255
G1 X27.5271 Y1.9848
S255
G1 X27.5169 Y1.9885
S255
G1 X27.5072 Y1.9931
S255
G1 X27.4979 Y1.9986
S255
G1 X27.4893 Y2.0050
S255
G1 X27.4813 Y2.0123
S255
G1 X27.4740 Y2.0203
S255
G1 X27.4676 Y2.0289
S255
G1 X27.4621 Y2.0382
S255
G1 X27.4575 Y2.0479
S255
G1 X27.4538 Y2.0581
S255
G1 X27.4512 Y2.0686
S255
G1 X27.4496 Y2.0792
S255
G1 X27.4482 Y2.1082
S255
G1 X27.4482 Y2.9718
S255
G1 X27.4496 Y3.0008
S255
G1 X27.4512 Y3.0114
S255
G1 X27.4538 Y3.0219
S255
G1 X27.4575 Y3.0321
S255
G1 X27.4621 Y3.0418
S255
G1 X27.4676 Y3.0511
S255
G1 X27.4740 Y3.0597
S255
G1 X27.4813 Y3.0677
S255
G1 X27.4893 Y3.0750
S255
G1 X27.4979 Y3.0814
S255
G1 X27.5072 Y3.0869
S255
G1 X27.5169 Y3.0915
S255
G1 X27.5271 Y3.0952
S255
G1 X27.5376 Y3.0978
S255
G1 X27.5482 Y3.0994
S255
G1 X27.5590 Y3.0999
S255
G1 X27.5698 Y3.0994
S255
G1 X27.5804 Y3.0978
S255
G1 X27.5909 Y3.0952
S255
G1 X27.6011 Y3.0915
S255
G1 X27.6108 Y3.0869
S255
G1 X27.6201 Y3.0814
S255
G1 X27.6287 Y3.0750
S255
G1 X27.6367 Y3.0677
S255
G1 X27.6440 Y3.0597
S255
G1 X27.6504 Y3.0511
S255
G1 X27.6559 Y3.0418
S255
G1 X27.6605 Y3.0321
S255
G1 X27.6642 Y3.0219
S255
G1 X27.6668 Y3.0114
S255
G1 X27.6684 Y3.0008
S255
G1 X27.6698 Y2.9718
S255
G1 X27.6698 Y2.1082
S255
G1 X27.6684 Y2.0792
S255
G1 X27.6668 Y2.0686
S255
G1 X27.6642 Y2.0581
S255
G1 X27.6605 Y2.0479
S255
G1 X27.6559 Y2.0382
S255
G1 X27.6504 Y2.0289
S255
G1 X27.6440 Y2.0203
S255
G1 X27.6367 Y2.0123
S255
G1 X27.6287 Y2.0050
S255
G1 X27.6201 Y1.9986
S255
G1 X27.6108 Y1.9931
S255
G1 X27.6011 Y1.9885
S255
G1 X27.5909 Y1.9848
S255
G1 X27.5804 Y1.9822
S255
G1 X27.5698 Y1.9806
S255
G1 X27.5590 Y1.9801
S255
S0
G0 Z2.0000
G0 X30.0990 Y1.9801
S255
G1 F1000
G1 Z-0.0500
S255
G1 F1000
S255
G1 X30.0882 Y1.9806
S255
G1 X30.0776 Y1.9822
S255
G1 X30.0671 Y1.9848
S255
G1 X30.0569 Y1.9885
S255
G1 X30.0472 Y1.9931
S255
G1 X30.0379 Y1.9986
S255
G1 X30.0293 Y2.0050
S255
G1 X30.0213 Y2.0123
S255
G1 X30.0140 Y2.0203
S255
G1 X30.0076 Y2.0289
S255
G1 X30.0021 Y2.0382
S255
G1 X29.9975 Y2.0479
S255
G1 X29.9938 Y2.0581
S255
G1 X29.9912 Y2.0686
S255
G1 X29.9896 Y2.0792
S255
G1 X29.9882 Y2.1082
S255
G1 X29.9882 Y2.9718
S255
G1 X29.9896 Y3.0008
S255
G1 X29.9912 Y3.0114
S255
G1 X29.9938 Y3.0219
S255
G1 X29.9975 Y3.0321
S255
G1 X30.0021 Y3.0418
S255
G1 X30.0076 Y3.0511
S255
G1 X30.0140 Y3.0597
S255
G1 X30.0213 Y3.0677
S255
G1 X30.0293 Y3.0750
S255
G1 X30.0379 Y3.0814
S255
G1 X30.0472 Y3.0869
S255
G1 X30.0569 Y3.0915
S255
G1 X30.0671 Y3.0952
S255
G1 X30.0776 Y3.0978
S255
G1 X30.0882 Y3.0994
S255
G1 X30.0990 Y3.0999
S255
G1 X30.1098 Y3.0994
S255
G1 X30.1204 Y3.0978
S255
G1 X30.1309 Y3.0952
S255
G1 X30.1411 Y3.0915
S255
G1 X30.1508 Y3.0869
S255
G1 X30.1601 Y3.0814
S255
G1 X30.1687 Y3.0750
S255
G1 X30.1767 Y3.0677
S255
G1 X30.1840 Y3.0597
S255
G1 X30.1904 Y3.0511
S255
G1 X30.1959 Y3.0418
S255
G1 X30.2005 Y3.0321
S255
G1 X30.2042 Y3.0219
S255
G1 X30.2068 Y3.0114
S255
G1 X30.2084 Y3.0008
S255
G1 X30.2098 Y2.9718
S255
G1 X30.2098 Y2.1082
S255
G1 X30.2084 Y2.0792
S255
G1 X30.2068 Y2.0686
S255
G1 X30.2042 Y2.0581
S255
G1 X30.2005 Y2.0479
S255
G1 X30.1959 Y2.0382
S255
G1 X30.1904 Y2.0289
S255
G1 X30.1840 Y2.0203
S255
G1 X30.1767 Y2.0123
S255
G1 X30.1687 Y2.0050
S255
G1 X30.1601 Y1.9986
S255
G1 X30.1508 Y1.9931
S255
G1 X30.1411 Y1.9885
S255
G1 X30.1309 Y1.9848
S255
G1 X30.1204 Y1.9822
S255
G1 X30.1098 Y1.9806
S255
G1 X30.0990 Y1.9801
S255
S0
G0 Z2.0000
G0 X30.0990 Y1.8199
S255
G1 F1000
G1 Z-0.0500
S255
G1 F1000
S255
G1 X30.0725 Y1.8212
S255
G1 X30.0463 Y1.8251
S255
G1 X30.0206 Y1.8315
S255
G1 X29.9956 Y1.8405
S255
G1 X29.9717 Y1.8518
S255
G1 X29.9489 Y1.8654
S255
G1 X29.9277 Y1.8812
S255
G1 X29.9080 Y1.8990
S255
G1 X29.8902 Y1.9187
S255
G1 X29.8744 Y1.9399
S255
G1 X29.8608 Y1.9627
S255
G1 X29.8495 Y1.9866
S255
G1 X29.8405 Y2.0116
S255
G1 X29.8341 Y2.0373
S255
G1 X29.8302 Y2.0635
S255
G1 X29.8282 Y2.1042
S255
G1 X29.8282 Y2.9758
S255
G1 X29.8302 Y3.0165
S255
G1 X29.8341 Y3.0427
S255
G1 X29.8405 Y3.0684
S255
G1 X29.8495 Y3.0934
S255
G1 X29.8608 Y3.1173
S255
G1 X29.8744 Y3.1401
S255
G1 X29.8902 Y3.1613
S255
G1 X29.9080 Y3.1810
S255
G1 X29.9277 Y3.1988
S255
G1 X29.9489 Y3.2146
S255
G1 X29.9717 Y3.2282
S255
G1 X29.9956 Y3.2395
S255
G1 X30.0206 Y3.2485
S255
G1 X30.0463 Y3.2549
S255
G1 X30.0725 Y3.2588
S255
G1 X30.0990 Y3.2601
S255
G1 X30.1255 Y3.2588
S255
G1 X30.1517 Y3.2549
S255
G1 X30.1774 Y3.2485
S255
G1 X30.2024 Y3.2395
S255
G1 X30.2263 Y3.2282
S255
G1 X30.2491 Y3.2146
S255
G1 X30.2703 Y3.1988
S255
G1 X30.2900 Y3.1810
S255
G1 X30.3078 Y3.1613
S255
G1 X30.3236 Y3.1401
S255
G1 X30.3372 Y3.1173
S255
G1 X30.3485 Y3.0934
S255
G1 X30.3575 Y3.0684
S255
G1 X30.3639 Y3.0427
S255
G1 X30.3678 Y3.0165
S255
G1 X30.3698 Y2.9758
S255
G1 X30.3698 Y2.1042
S255
G1 X30.3678 Y2.0635
S255
G1 X30.3639 Y2.0373
S255
G1 X30.3575 Y2.0116
S255
G1 X30.3485 Y1.9866
S255
G1 X30.3372 Y1.9627
S255
G1 X30.3236 Y1.9399
S255
G1 X30.3078 Y1.9187
S255
G1 X30.2900 Y1.8990
S255
G1 X30.2703 Y1.8812
S255
G1 X30.2491 Y1.8654
S255
G1 X30.2263 Y1.8518
S255
G1 X30.2024 Y1.8405
S255
G1 X30.1774 Y1.8315
S255
G1 X30.1517 Y1.8251
S255
G1 X30.1255 Y1.8212
S255
G1 X30.0990 Y1.8199
S255
S0
G0 Z2.0000
G0 X30.0990 Y1.6597
S255
G1 F1000
G1 Z-0.0500
S255
G1 F1000
S255
G1 X30.0568 Y1.6618
S255
G1 X30.0151 Y1.6680
S255
G1 X29.9741 Y1.6782
S255
G1 X29.9343 Y1.6925
S255
G1 X29.8962 Y1.7105
S255
G1 X29.8599 Y1.7322
S255
G1 X29.8260 Y1.7574
S255
G1 X29.7947 Y1.7857
S255
G1 X29.7664 Y1.8170
S255
G1 X29.7412 Y1.8509
S255
G1 X29.7195 Y1.8872
S255
G1 X29.7015 Y1.9253
S255
G1 X29.6872 Y1.9651
S255
G1 X29.6770 Y2.0061
S255
G1 X29.6708 Y2.0478
S255
G1 X29.6682 Y2.1003
S255
G1 X29.6682 Y2.9797
S255
G1 X29.6708 Y3.0322
S255
G1 X29.6770 Y3.0739
S255
G1 X29.6872 Y3.1149
S255
G1 X29.7015 Y3.1547
S255
G1 X29.7195 Y3.1928
S255
G1 X29.7412 Y3.2291
S255
G1 X29.7664 Y3.2630
S255
G1 X29.7947 Y3.2943
S255
G1 X29.8260 Y3.3226
S255
G1 X29.8599 Y3.3478
S255
G1 X29.8962 Y3.3695
S255
G1 X29.9343 Y3.3875
S255
G1 X29.9741 Y3.4018
S255
G1 X30.0151 Y3.4120
S255
G1 X30.0568 Y3.4182
S255
G1 X30.0990 Y3.4203
S255
G1 X30.1412 Y3.4182
S255
G1 X30.1829 Y3.4120
S255
G1 X30.2239 Y3.4018
S255
G1 X30.2637 Y3.3875
S255
G1 X30.3018 Y3.3695
S255
G1 X30.3381 Y3.3478
S255
G1 X30.3720 Y3.3226
S255
G1 X30.4033 Y3.2943
S255
G1 X30.4316 Y3.2630
S255
G1 X30.4568 Y3.2291
S255
G1 X30.4785 Y3.1928
S255
G1 X30.4965 Y3.1547
S255
G1 X30.5108 Y3.1149
S255
G1 X30.5210 Y3.0739
S255
G1 X30.5272 Y3.0322
S255
G1 X30.5298 Y2.9797
S255
G1 X30.5298 Y2.1003
S255
G1 X30.5272 Y2.0478
S255
G1 X30.5210 Y2.0061
S255
G1 X30.5108 Y1.9651
S255
G1 X30.4965 Y1.9253
S255
G1 X30.4785 Y1.8872
S255
G1 X30.4568 Y1.8509
S255
G1 X30.4316 Y1.8170
S255
G1 X30.4033 Y1.7857
S255
G1 X30.3720 Y1.7574
S255
G1 X30.3381 Y1.7322
S255
G1 X30.3018 Y1.7105
S255
G1 X30.2637 Y1.6925
S255
G1 X30.2239 Y1.6782
S255
G1 X30.1829 Y1.6680
S255
G1 X30.1412 Y1.6618
S255
G1 X30.0990 Y1.6597
S255
S0
G0 Z2.0000
G0 X30.0990 Y1.4995
S255
G1 F1000
G1 Z-0.0500
S255
G1 F1000
S255
G1 X30.0411 Y1.5024
S255
G1 X29.9838 Y1.5109
S255
G1 X29.9276 Y1.5249
S255
G1 X29.8730 Y1.5445
S255
G1 X29.8206 Y1.5692
S255
G1 X29.7709 Y1.5990
S255
G1 X29.7244 Y1.6336
S255
G1 X29.6815 Y1.6725
S255
G1 X29.6425 Y1.7154
S255
G1 X29.6080 Y1.7619
S255
G1 X29.5782 Y1.8116
S255
G1 X29.5535 Y1.8640
S255
G1 X29.5339 Y1.9186
S255
G1 X29.5199 Y1.9748
S255
G1 X29.5114 Y2.0321
S255
G1 X29.5082 Y2.0964
S255
G1 X29.5082 Y2.9836
S255
G1 X29.5114 Y3.0479
S255
G1 X29.5199 Y3.1052
S255
G1 X29.5339 Y3.1614
S255
G1 X29.5535 Y3.2160
S255
G1 X29.5782 Y3.2684
S255
G1 X29.6080 Y3.3181
S255
G1 X29.6425 Y3.3646
S255
G1 X29.6815 Y3.4075
S255
G1 X29.7244 Y3.4464
S255
G1 X29.7709 Y3.4810
S255
G1 X29.8206 Y3.5108
S255
G1 X29.8730 Y3.5355
S255
G1 X29.9276 Y3.5551
S255
G1 X29.9838 Y3.5691
S255
G1 X30.0411 Y3.5776
S255
G1 X30.0990 Y3.5805
S255
G1 X30.1569 Y3.5776
S255
G1 X30.2142 Y3.5691
S255
G1 X30.2704 Y3.5551
S255
G1 X30.3250 Y3.5355
S255
G1 X30.3774 Y3.5108
S255
G1 X30.4271 Y3.4810
S255
G1 X30.4736 Y3.4464
S255
G1 X30.5165 Y3.4075
S255
G1 X30.5555 Y3.3646
S255
G1 X30.5900 Y3.3181
S255
G1 X30.6198 Y3.2684
S255
G1 X30.6445 Y3.2160
S255
G1 X30.6641 Y3.1614
S255
G1 X30.6781 Y3.1052
S255
G1 X30.6866 Y3.0479
S255
G1 X30.6898 Y2.9836
S255
G1 X30.6898 Y2.0964
S255
G1 X30.6866 Y2.0321
S255
G1 X30.6781 Y1.9748
S255
G1 X30.6641 Y1.9186
S255
G1 X30.6445 Y1.8640
S255
G1 X30.6198 Y1.8116
S255
G1 X30.5900 Y1.7619
S255
G1 X30.5555 Y1.7154
S255
G1 X30.5165 Y1.6725
S255
G1 X30.4736 Y1.6336
S255
G1 X30.4271 Y1.5990
S255
G1 X30.3774 Y1.5692
S255
G1 X30.3250 Y1.5445
S255
G1 X30.2704 Y1.5249
S255
G1 X30.2142 Y1.5109
S255
G1 X30.1569 Y1.5024
S255
G1 X30.0990 Y1.4995
S255
S0
G0 Z2.0000
G0 X30.0990 Y1.3393
S255
G1 F1000
G1 Z-0.0500
S255
G1 F1000
S255
G1 X30.0254 Y1.3429
S255
G1 X29.9526 Y1.3537
S255
G1 X29.8811 Y1.3716
S255
G1 X29.8117 Y1.3965
S255
G1 X29.7451 Y1.4280
S255
G1 X29.6819 Y1.4658
S255
G1 X29.6228 Y1.5097
S255
G1 X29.5682 Y1.5592
S255
G1 X29.5187 Y1.6138
S255
G1 X29.4748 Y1.6729
S255
G1 X29.4370 Y1.7361
S255
G1 X29.4055 Y1.8027
S255
G1 X29.3806 Y1.8721
S255
G1 X29.3627 Y1.9436
S255
G1 X29.3519 Y2.0164
S255
G1 X29.3482 Y2.0925
S255
G1 X29.3482 Y2.9875
S255
G1 X29.3519 Y3.0636
S255
G1 X29.3627 Y3.1364
S255
G1 X29.3806 Y3.2079
S255
G1 X29.4055 Y3.2773
S255
G1 X29.4370 Y3.3439
S255
G1 X29.4748 Y3.4071
S255
G1 X29.5187 Y3.4662
S255
G1 X29.5682 Y3.5208
S255
G1 X29.6228 Y3.5703
S255
G1 X29.6819 Y3.6142
S255
G1 X29.7451 Y3.6520
S255
G1 X29.8117 Y3.6835
S255
G1 X29.8811 Y3.7084
S255
G1 X29.9526 Y3.7263
S255
G1 X30.0254 Y3.7371
S255
G1 X30.0990 Y3.7407
S255
G1 X30.1726 Y3.7371
S255
G1 X30.2454 Y3.7263
S255
G1 X30.3169 Y3.7084
S255
G1 X30.3863 Y3.6835
S255
G1 X30.4529 Y3.6520
S255
G1 X30.5161 Y3.6142
S255
G1 X30.5752 Y3.5703
S255
G1 X30.6298 Y3.5208
S255
G1 X30.6793 Y3.4662
S255
G1 X30.7232 Y3.4071
S255
G1 X30.7610 Y3.3439
S255
G1 X30.7925 Y3.2773
S255
G1 X30.8174 Y3.2079
S255
G1 X30.8353 Y3.1364
S255
G1 X30.8461 Y3.0636
S255
G1 X30.8498 Y2.9875
S255
G1 X30.8498 Y2.0925
S255
G1 X30.8461 Y2.0164
S255
G1 X30.8353 Y1.9436
S255
G1 X30.8174 Y1.8721
S255
G1 X30.7925 Y1.8027
S255
G1 X30.7610 Y1.7361
S255
G1 X30.7232 Y1.6729
S255
G1 X30.6793 Y1.6138
S255
G1 X30.6298 Y1.5592
S255
G1 X30.5752 Y1.5097
S255
G1 X30.5161 Y1.4658
S255
G1 X30.4529 Y1.4280
S255
G1 X30.3863 Y1.3965
S255
G1 X30.3169 Y1.3716
S255
G1 X30.2454 Y1.3537
S255
G1 X30.1726 Y1.3429
S255
G1 X30.0990 Y1.3393
S255
S0
G0 Z2.0000
G0 X32.6390 Y1.3393
S255
G1 F1000
G1 Z-0.0500
S255
G1 F1000
S255
G1 X32.5654 Y1.3429
S255
G1 X32.4926 Y1.3537
S255
G1 X32.4211 Y1.3716
S255
G1 X32.3517 Y1.3965
S255
G1 X32.2851 Y1.4280
S255
G1 X32.2219 Y1.4658
S255
G1 X32.1628 Y1.5097
S255
G1 X32.1082 Y1.5592
S255
G1 X32.0587 Y1.6138
S255
G1 X32.0148 Y1.6729
S255
G1 X31.9770 Y1.7361
S255
G1 X31.9455 Y1.8027
S255
G1 X31.9206 Y1.8721
S255
G1 X31.9027 Y1.9436
S255
G1 X31.8919 Y2.0164
S255
G1 X31.8882 Y2.0925
S255
G1 X31.8882 Y2.9875
S255
G1 X31.8919 Y3.0636
S255
G1 X31.9027 Y3.1364
S255
G1 X31.9206 Y3.2079
S255
G1 X31.9455 Y3.2773
S255
G1 X31.9770 Y3.3439
S255
G1 X32.0148 Y3.4071
S255
G1 X32.0587 Y3.4662
S255
G1 X32.1082 Y3.5208
S255
G1 X32.1628 Y3.5703
S255
G1 X32.2219 Y3.6142
S255
G1 X32.2851 Y3.6520
S255
G1 X32.3517 Y3.6835
S255
G1 X32.4211 Y3.7084
S255
G1 X32.4926 Y3.7263
S255
G1 X32.5654 Y3.7371
S255
G1 X32.6390 Y3.7407
S255
G1 X32.7126 Y3.7371
S255
G1 X32.7854 Y3.7263
S255
G1 X32.8569 Y3.7084
S255
G1 X32.9263 Y3.6835
S255
G1 X32.9929 Y3.6520
S255
G1 X33.0561 Y3.6142
S255
G1 X33.1152 Y3.5703
S255
G1 X33.1698 Y3.5208
S255
G1 X33.2193 Y3.4662
S255
G1 X33.2632 Y3.4071
S255
G1 X33.3010 Y3.3439
S255
G1 X33.3325 Y3.2773
S255
G1 X33.3574 Y3.2079
S255
G1 X33.3753 Y3.1364
S255
G1 X33.3861 Y3.0636
S255
G1 X33.3898 Y2.9875
S255
G1 X33.3898 Y2.0925
S255
G1 X33.3861 Y2.0164
S255
G1 X33.3753 Y1.9436
S255
G1 X33.3574 Y1.8721
S255
G1 X33.3325 Y1.8027
S255
G1 X33.3010 Y1.7361
S255
G1 X33.2632 Y1.6729
S255
G1 X33.2193 Y1.6138
S255
G1 X33.1698 Y1.5592
S255
G1 X33.1152 Y1.5097
S255
G1 X33.0561 Y1.4658
S255
G1 X32.9929 Y1.4280
S255
G1 X32.9263 Y1.3965
S255
G1 X32.8569 Y1.3716
S255
G1 X32.7854 Y1.3537
S255
G1 X32.7126 Y1.3429
S255
G1 X32.6390 Y1.3393
S255
S0
G0 Z2.0000
G0 X32.6390 Y1.4995
S255
G1 F1000
G1 Z-0.0500
S255
G1 F1000
S255
G1 X32.5811 Y1.5024
S255
G1 X32.5238 Y1.5109
S255
G1 X32.4676 Y1.5249
S255
G1 X32.4130 Y1.5445
S255
G1 X32.3606 Y1.5692
S255
G1 X32.3109 Y1.5990
S255
G1 X32.2644 Y1.6336
S255
G1 X32.2215 Y1.6725
S255
G1 X32.1825 Y1.7154
S255
G1 X32.1480 Y1.7619
S255
G1 X32.1182 Y1.8116
S255
G1 X32.0935 Y1.8640
S255
G1 X32.0739 Y1.9186
S255
G1 X32.0599 Y1.9748
S255
G1 X32.0514 Y2.0321
S255
G1 X32.0482 Y2.0964
S255
G1 X32.0482 Y2.9836
S255
G1 X32.0514 Y3.0479
S255
G1 X32.0599 Y3.1052
S255
G1 X32.0739 Y3.1614
S255
G1 X32.0935 Y3.2160
S255
G1 X32.1182 Y3.2684
S255
G1 X32.1480 Y3.3181
S255
G1 X32.1825 Y3.3646
S255
G1 X32.2215 Y3.4075
S255
G1 X32.2644 Y3.4464
S255
G1 X32.3109 Y3.4810
S255
G1 X32.3606 Y3.5108
S255
G1 X32.4130 Y3.5355
S255
G1 X32.4676 Y3.5551
S255
G1 X32.5238 Y3.5691
S255
G1 X32.5811 Y3.5776
S255
G1 X32.6390 Y3.5805
S255
G1 X32.6969 Y3.5776
S255
G1 X32.7542 Y3.5691
S255
G1 X32.8104 Y3.5551
S255
G1 X32.8650 Y3.5355
S255
G1 X32.9174 Y3.5108
S255
G1 X32.9671 Y3.4810
S255
G1 X33.0136 Y3.4464
S255
G1 X33.0565 Y3.4075
S255
G1 X33.0955 Y3.3646
S255
G1 X33.1300 Y3.3181
S255
G1 X33.1598 Y3.2684
S255
G1 X33.1845 Y3.2160
S255
G1 X33.2041 Y3.1614
S255
G1 X33.2181 Y3.1052
S255
G1 X33.2266 Y3.0479
S255
G1 X33.2298 Y2.9836
S255
G1 X33.2298 Y2.0964
S255
G1 X33.2266 Y2.0321
S255
G1 X33.2181 Y1.9748
S255
G1 X33.2041 Y1.9186
S255
G1 X33.1845 Y1.8640
S255
G1 X33.1598 Y1.8116
S255
G1 X33.1300 Y1.7619
S255
G1 X33.0955 Y1.7154
S255
G1 X33.0565 Y1.6725
S255
G1 X33.0136 Y1.6336
S255
G1 X32.9671 Y1.5990
S255
G1 X32.9174 Y1.5692
S255
G1 X32.8650 Y1.5445
S255
G1 X32.8104 Y1.5249
S255
G1 X32.7542 Y1.5109
S255
G1 X32.6969 Y1.5024
S255
G1 X32.6390 Y1.4995
S255
S0
G0 Z2.0000
G0 X32.6390 Y1.6597
S255
G1 F1000
G1 Z-0.0500
S255
G1 F1000
S255
G1 X32.5968 Y1.6618
S255
G1 X32.5551 Y1.6680
S255
G1 X32.5141 Y1.6782
S255
G1 X32.4743 Y1.6925
S255
G1 X32.4362 Y1.7105
S255
G1 X32.3999 Y1.7322
S255
G1 X32.3660 Y1.7574
S255
G1 X32.3347 Y1.7857
S255
G1 X32.3064 Y1.8170
S255
G1 X32.2812 Y1.8509
S255
G1 X32.2595 Y1.8872
S255
G1 X32.2415 Y1.9253
S255
G1 X32.2272 Y1.9651
S255
G1 X32.2170 Y2.0061
S255
G1 X32.2108 Y2.0478
S255
G1 X32.2082 Y2.1003
S255
G1 X32.2082 Y2.9797
S255
G1 X32.2108 Y3.0322
S255
G1 X32.2170 Y3.0739
S255
G1 X32.2272 Y3.1149
S255
G1 X32.2415 Y3.1547
S255
G1 X32.2595 Y3.1928
S255
G1 X32.2812 Y3.2291
S255
G1 X32.3064 Y3.2630
S255
G1 X32.3347 Y3.2943
S255
G1 X32.3660 Y3.3226
S255
G1 X32.3999 Y3.3478
S255
G1 X32.4362 Y3.3695
S255
G1 X32.4743 Y3.3875
S255
G1 X32.5141 Y3.4018
S255
G1 X32.5551 Y3.4120
S255
G1 X32.5968 Y3.4182
S255
G1 X32.6390 Y3.4203
S255
G1 X32.6812 Y3.4182
S255
G1 X32.7229 Y3.4120
S255
G1 X32.7639 Y3.4018
S255
G1 X32.8037 Y3.3875
S255
G1 X32.8418 Y3.3695
S255
G1 X32.8781 Y3.3478
S255
G1 X32.9120 Y3.3226
S255
G1 X32.9433 Y3.2943
S255
G1 X32.9716 Y3.2630
S255
G1 X32.9968 Y3.2291
S255
G1 X33.0185 Y3.1928
S255
G1 X33.0365 Y3.1547
S255
G1 X33.0508 Y3.1149
S255
G1 X33.0610 Y3.0739
S255
G1 X33.0672 Y3.0322
S255
G1 X33.0698 Y2.9797
S255
G1 X33.0698 Y2.1003
S255
G1 X33.0672 Y2.0478
S255
G1 X33.0610 Y2.0061
S255
G1 X33.0508 Y1.9651
S255
G1 X33.0365 Y1.9253
S255
G1 X33.0185 Y1.8872
S255
G1 X32.9968 Y1.8509
S255
G1 X32.9716 Y1.8170
S255
G1 X32.9433 Y1.7857
S255
G1 X32.9120 Y1.7574
S255
G1 X32.8781 Y1.7322
S255
G1 X32.8418 Y1.7105
S255
G1 X32.8037 Y1.6925
S255
G1 X32.7639 Y1.6782
S255
G1 X32.7229 Y1.6680
S255
G1 X32.6812 Y1.6618
S255
G1 X32.6390 Y1.6597
S255
S0
G0 Z2.0000
G0 X32.6390 Y1.8199
S255
G1 F1000
G1 Z-0.0500
S255
G1 F1000
S255
G1 X32.6125 Y1.8212
S255
G1 X32.5863 Y1.8251
S255
G1 X32.5606 Y1.8315
S255
G1 X32.5356 Y1.8405
S255
G1 X32.5117 Y1.8518
S255
G1 X32.4889 Y1.8654
S255
G1 X32.4677 Y1.8812
S255
G1 X32.4480 Y1.8990
S255
G1 X32.4302 Y1.9187
S255
G1 X32.4144 Y1.9399
S255
G1 X32.4008 Y1.9627
S255
G1 X32.3895 Y1.9866
S255
G1 X32.3805 Y2.0116
S255
G1 X32.3741 Y2.0373
S255
G1 X32.3702 Y2.0635
S255
G1 X32.3682 Y2.1042
S255
G1 X32.3682 Y2.9758
S255
G1 X32.3702 Y3.0165
S255
G1 X32.3741 Y3.0427
S255
G1 X32.3805 Y3.0684
S255
G1 X32.3895 Y3.0934
S255
G1 X32.4008 Y3.1173
S255
G1 X32.4144 Y3.1401
S255
G1 X32.4302 Y3.1613
S255
G1 X32.4480 Y3.1810
S255
G1 X32.4677 Y3.1988
S255
G1 X32.4889 Y3.2146
S255
G1 X32.5117 Y3.2282
S255
G1 X32.5356 Y3.2395
S255
