G90
G21
M4

(Name: Gerber_BottomLayer.GBL_ncc_cnc)
(Units: MM)


(It is made to work with MACH3 compatible motion controllers.)

(Feedrate_XY: 60.0 mm/min)
(Feedrate_Z: 60.0 mm/min)
(Feedrate rapids 1500.0 mm/min)

(Z_Cut: -0.1866 mm)
(Z_Move: 2.0 mm)
(Z Start: None mm)
(Z End: 15.0 mm)
(X,Y End: None mm)
(Steps per circle: 64)
(Preprocessor Geometry: default)

(X range:    0.4392 ...   99.5605  mm)
(Y range:    0.5001 ...   99.0904  mm)

(Spindle Speed: 0.0 RPM)
G21
G90
G94

S255
G1 F1000

S0
G0 Z15.0000
G0 X0.0000 Y0.0000
G0 Z15.0000

S255
G1 F1000
S0
G0 X27.3711 Y8.8290
S255
G1 F1000
G1 Z-0.1866
S255
G1 F1000
S255
G1 X27.3711 Y8.7521
S255
G1 X27.1365 Y9.0636
S255
G1 X27.3711 Y8.8290
S255
G1 X27.4911 Y8.8787
S255
G1 X27.4911 Y8.3934
S255
G1 X26.0100 Y10.3598
S255
G1 X27.4911 Y8.8787
S255
G1 X27.6111 Y8.9284
S255
G1 X27.6111 Y8.0346
S255
G1 X24.8835 Y11.6560
S255
G1 X27.6111 Y8.9284
S255
G1 X27.7311 Y8.9781
S255
G1 X27.7311 Y7.6758
S255
G1 X23.7570 Y12.9521
S255
G1 X27.7311 Y8.9781
S255
G1 X27.8511 Y9.0279
S255
G1 X27.8511 Y7.3170
S255
G1 X22.6305 Y14.2483
S255
G1 X27.8511 Y9.0279
S255
G1 X27.9711 Y9.0776
S255
G1 X27.9711 Y6.9582
S255
G1 X21.5040 Y15.5445
S255
G1 X27.9711 Y9.0776
S255
G1 X28.0911 Y9.1273
S255
G1 X28.0911 Y6.5995
S255
G1 X20.3776 Y16.8406
S255
G1 X28.0911 Y9.1273
S255
G1 X28.2111 Y9.1770
S255
G1 X28.2111 Y6.2407
S255
G1 X19.2511 Y18.1368
S255
G1 X28.2111 Y9.1770
S255
G1 X28.3311 Y9.2267
S255
G1 X28.3311 Y5.8819
S255
G1 X18.1246 Y19.4330
S255
G1 X28.3311 Y9.2267
S255
G1 X28.4511 Y9.2764
S255
G1 X28.4511 Y5.5231
S255
G1 X16.9981 Y20.7292
S255
G1 X28.4511 Y9.2764
S255
G1 X28.5711 Y9.3261
S255
G1 X28.5711 Y5.1643
S255
G1 X15.8716 Y22.0253
S255
G1 X28.5711 Y9.3261
S255
G1 X28.6911 Y9.3758
S255
G1 X28.6911 Y4.8055
S255
G1 X14.7451 Y23.3215
S255
G1 X28.6911 Y9.3758
S255
G1 X28.8111 Y9.4255
S255
G1 X28.8111 Y4.4468
S255
G1 X13.6186 Y24.6177
S255
G1 X28.8111 Y9.4255
S255
G1 X28.9311 Y9.4752
S255
G1 X28.9311 Y4.0880
S255
G1 X12.4922 Y25.9139
S255
G1 X28.9311 Y9.4752
S255
G1 X29.0511 Y9.5249
S255
G1 X29.0511 Y3.7292
S255
G1 X11.3657 Y27.2100
S255
G1 X29.0511 Y9.5249
S255
G1 X29.1711 Y9.5746
S255
G1 X29.1711 Y3.3704
S255
G1 X10.2392 Y28.5062
S255
G1 X29.1711 Y9.5746
S255
G1 X29.2911 Y9.6243
S255
G1 X29.2911 Y3.0116
S255
G1 X9.1127 Y29.8024
S255
G1 X29.2911 Y9.6243
S255
G1 X29.4111 Y9.6740
S255
G1 X29.4111 Y2.6528
S255
G1 X7.9862 Y31.0985
S255
G1 X29.4111 Y9.6740
S255
G1 X29.5311 Y9.7237
S255
G1 X29.5311 Y2.2941
S255
G1 X6.8597 Y32.3947
S255
G1 X29.5311 Y9.7237
S255
G1 X29.6511 Y9.7734
S255
G1 X29.6511 Y1.9353
S255
G1 X5.7332 Y33.6909
S255
G1 X29.6511 Y9.7734
S255
G1 X29.7711 Y9.8232
S255
G1 X29.7711 Y1.5765
S255
G1 X4.6067 Y34.9871
S255
G1 X29.7711 Y9.8232
S255
G1 X29.8911 Y9.8729
S255
G1 X29.8911 Y1.2177
S255
G1 X3.4803 Y36.2832
S255
G1 X29.8911 Y9.8729
S255
S0
G0 Z2.0000
G0 X33.1528 Y7.6986
S255
G1 F1000
G1 Z-0.1866
S255
G1 F1000
S255
G1 X33.1619 Y7.7126
S255
G1 X33.1828 Y7.7480
S255
G1 X33.1828 Y7.7094
S255
G1 X33.1528 Y7.6986
S255
S0
G0 Z2.0000
G0 X33.3028 Y7.6248
S255
G1 F1000
G1 Z-0.1866
S255
G1 F1000
S255
G1 X33.1928 Y7.5854
S255
G1 X33.0864 Y7.5350
S255
G1 X32.9854 Y7.4745
S255
G1 X32.8908 Y7.4044
S255
G1 X32.8035 Y7.3253
S255
G1 X32.7244 Y7.2380
S255
G1 X32.6543 Y7.1434
S255
G1 X32.5937 Y7.0424
S255
G1 X32.5434 Y6.9360
S255
G1 X32.5037 Y6.8251
S255
G1 X32.4751 Y6.7108
S255
G1 X32.4578 Y6.5944
S255
G1 X32.4521 Y6.4767
S255
G1 X32.4578 Y6.3591
S255
G1 X32.4751 Y6.2426
S255
G1 X32.5037 Y6.1284
S255
G1 X32.5434 Y6.0175
S255
G1 X32.5937 Y5.9111
S255
G1 X32.6543 Y5.8101
S255
G1 X32.7244 Y5.7155
S255
G1 X32.8035 Y5.6282
S255
G1 X32.8908 Y5.5491
S255
G1 X32.9854 Y5.4790
S255
G1 X33.0864 Y5.4184
S255
G1 X33.1928 Y5.3681
S255
G1 X33.3037 Y5.3284
S255
G1 X33.4179 Y5.2998
S255
G1 X33.5344 Y5.2825
S255
G1 X33.6521 Y5.2767
S255
G1 X33.7697 Y5.2825
S255
G1 X33.8862 Y5.2998
S255
G1 X34.0004 Y5.3284
S255
G1 X34.1113 Y5.3681
S255
G1 X34.2133 Y5.4162
S255
G1 X34.2220 Y5.4209
S255
G1 X34.3187 Y5.4790
S255
G1 X34.4133 Y5.5491
S255
G1 X34.4970 Y5.6248
S255
G1 X34.5040 Y5.6318
S255
G1 X34.5765 Y5.7118
S255
G1 X34.5827 Y5.7193
S255
G1 X34.6498 Y5.8101
S255
G1 X34.7104 Y5.9111
S255
G1 X34.7607 Y6.0175
S255
G1 X34.7988 Y6.1237
S255
G1 X34.8017 Y6.1331
S255
G1 X34.8279 Y6.2378
S255
G1 X34.8298 Y6.2475
S255
G1 X34.8463 Y6.3591
S255
G1 X34.8520 Y6.4767
S255
G1 X34.8466 Y6.5895
S255
G1 X34.8457 Y6.5992
S255
G1 X34.8290 Y6.7108
S255
G1 X34.8004 Y6.8251
S255
G1 X34.7607 Y6.9360
S255
G1 X34.7126 Y7.0380
S255
G1 X34.7079 Y7.0467
S255
G1 X34.6524 Y7.1393
S255
G1 X34.6470 Y7.1474
S255
G1 X34.5797 Y7.2380
S255
G1 X34.5006 Y7.3253
S255
G1 X34.4133 Y7.4044
S255
G1 X34.3227 Y7.4717
S255
G1 X34.3146 Y7.4771
S255
G1 X34.2220 Y7.5326
S255
G1 X34.2133 Y7.5373
S255
G1 X34.1113 Y7.5854
S255
G1 X34.0030 Y7.6242
S255
G1 X34.0051 Y12.8089
S255
G1 X35.7050 Y14.5089
S255
G1 X47.6250 Y14.5089
S255
G1 X47.6593 Y14.5106
S255
G1 X47.6933 Y14.5156
S255
G1 X47.7266 Y14.5240
S255
G1 X47.7590 Y14.5355
S255
G1 X47.7900 Y14.5502
S255
G1 X47.8195 Y14.5679
S255
G1 X47.8471 Y14.5883
S255
G1 X47.8690 Y14.6080
S255
G1 X48.6346 Y15.3734
S255
G1 X48.6544 Y15.3952
S255
G1 X48.6607 Y15.4028
S255
G1 X48.6767 Y15.4245
S255
G1 X48.6807 Y15.4306
S255
G1 X48.6958 Y15.4560
S255
G1 X48.7105 Y15.4870
S255
G1 X48.7205 Y15.5147
S255
G1 X48.7234 Y15.5241
S255
G1 X48.7304 Y15.5527
S255
G1 X48.7354 Y15.5867
S255
G1 X48.7371 Y15.6210
S255
G1 X48.7371 Y21.3385
S255
G1 X48.7354 Y21.3703
S255
G1 X48.7304 Y21.4043
S255
G1 X48.7220 Y21.4376
S255
G1 X48.7105 Y21.4700
S255
G1 X48.6958 Y21.5010
S255
G1 X48.6781 Y21.5305
S255
G1 X48.6577 Y21.5581
S255
G1 X48.6380 Y21.5800
S255
G1 X47.9996 Y22.2186
S255
G1 X47.9741 Y22.2417
S255
G1 X47.9505 Y22.2593
S255
G1 X47.9424 Y22.2647
S255
G1 X47.9170 Y22.2798
S255
G1 X47.8905 Y22.2925
S255
G1 X47.8814 Y22.2962
S255
G1 X47.8536 Y22.3060
S255
G1 X47.8251 Y22.3133
S255
G1 X47.8155 Y22.3152
S255
G1 X47.7888 Y22.3192
S255
G1 X47.7520 Y22.3211
S255
G1 X47.4601 Y22.3211
S255
G1 X47.4346 Y22.3922
S255
G1 X47.3906 Y22.4854
S255
G1 X47.3860 Y22.4941
S255
G1 X47.3329 Y22.5824
S255
G1 X47.2716 Y22.6652
S255
G1 X47.2654 Y22.6728
S255
G1 X47.1961 Y22.7491
S255
G1 X47.1180 Y22.8200
S255
G1 X47.1123 Y22.8246
S255
G1 X47.0334 Y22.8830
S255
G1 X47.0253 Y22.8885
S255
G1 X46.9368 Y22.9414
S255
G1 X46.8437 Y22.9855
S255
G1 X46.8347 Y22.9893
S255
G1 X46.7376 Y23.0239
S255
G1 X46.6377 Y23.0490
S255
G1 X46.6305 Y23.0506
S255
G1 X46.5261 Y23.0660
S255
G1 X46.4208 Y23.0712
S255
G1 X45.9183 Y23.0712
S255
G1 X45.8154 Y23.0663
S255
G1 X45.8056 Y23.0654
S255
G1 X45.7085 Y23.0510
S255
G1 X45.6989 Y23.0490
S255
G1 X45.5990 Y23.0239
S255
G1 X45.4974 Y22.9875
S255
G1 X45.3998 Y22.9414
S255
G1 X45.3072 Y22.8859
S255
G1 X45.2205 Y22.8216
S255
G1 X45.1440 Y22.7525
S255
G1 X45.1388 Y22.7473
S255
G1 X45.0680 Y22.6691
S255
G1 X45.0065 Y22.5864
S255
G1 X45.0011 Y22.5782
S255
G1 X44.9506 Y22.4941
S255
G1 X44.9460 Y22.4854
S255
G1 X44.9020 Y22.3922
S255
G1 X44.8765 Y22.3211
S255
G1 X43.2516 Y22.3211
S255
G1 X43.2125 Y22.4302
S255
G1 X43.1643 Y22.5323
S255
G1 X43.1597 Y22.5409
S255
G1 X43.1016 Y22.6377
S255
G1 X43.0344 Y22.7284
S255
G1 X43.0282 Y22.7360
S255
G1 X42.9523 Y22.8195
S255
G1 X42.8651 Y22.8986
S255
G1 X42.7745 Y22.9659
S255
G1 X42.7663 Y22.9714
S255
G1 X42.6695 Y23.0293
S255
G1 X42.5630 Y23.0797
S255
G1 X42.4568 Y23.1178
S255
G1 X42.4474 Y23.1206
S255
G1 X42.3379 Y23.1479
S255
G1 X42.2263 Y23.1646
S255
G1 X42.2165 Y23.1656
S255
G1 X42.1038 Y23.1710
S255
G1 X41.9862 Y23.1652
S255
G1 X41.8697 Y23.1479
S255
G1 X41.7602 Y23.1206
S255
G1 X41.7508 Y23.1178
S255
G1 X41.6446 Y23.0797
S255
G1 X41.5425 Y23.0315
S255
G1 X41.5339 Y23.0269
S255
G1 X41.4371 Y22.9688
S255
G1 X41.3464 Y22.9016
S255
G1 X41.3388 Y22.8954
S255
G1 X41.2588 Y22.8229
S255
G1 X41.2519 Y22.8160
S255
G1 X41.1794 Y22.7360
S255
G1 X41.1732 Y22.7284
S255
G1 X41.1060 Y22.6377
S255
G1 X41.0479 Y22.5409
S255
G1 X41.0433 Y22.5323
S255
G1 X40.9951 Y22.4302
S255
G1 X40.9570 Y22.3240
S255
G1 X40.9542 Y22.3146
S255
G1 X40.9269 Y22.2051
S255
G1 X40.9102 Y22.0935
S255
G1 X40.9092 Y22.0837
S255
G1 X40.9038 Y21.9710
S255
G1 X40.9096 Y21.8534
S255
G1 X40.9260 Y21.7417
S255
G1 X40.9279 Y21.7321
S255
G1 X40.9555 Y21.6227
S255
G1 X40.9934 Y21.5164
S255
G1 X40.9971 Y21.5073
S255
G1 X41.0455 Y21.4053
S255
G1 X41.1034 Y21.3085
S255
G1 X41.1089 Y21.3003
S255
G1 X41.1762 Y21.2097
S255
G1 X41.2519 Y21.1260
S255
G1 X41.2588 Y21.1191
S255
G1 X41.3425 Y21.0434
S255
G1 X41.4331 Y20.9761
S255
G1 X41.4413 Y20.9706
S255
G1 X41.5381 Y20.9127
S255
G1 X41.6401 Y20.8643
S255
G1 X41.6492 Y20.8606
S255
G1 X41.7555 Y20.8227
S255
G1 X41.8649 Y20.7951
S255
G1 X41.8745 Y20.7932
S255
G1 X41.9813 Y20.7774
S255
G1 X41.9911 Y20.7764
S255
G1 X42.1038 Y20.7710
S255
G1 X42.2165 Y20.7764
S255
G1 X42.2263 Y20.7774
S255
G1 X42.3379 Y20.7941
S255
G1 X42.4521 Y20.8227
S255
G1 X42.5630 Y20.8623
S255
G1 X42.6651 Y20.9105
S255
G1 X42.6737 Y20.9151
S255
G1 X42.7705 Y20.9732
S255
G1 X42.8651 Y21.0434
S255
G1 X42.9523 Y21.1225
S255
G1 X43.0314 Y21.2097
S255
G1 X43.1016 Y21.3043
S255
G1 X43.1621 Y21.4053
S255
G1 X43.2125 Y21.5118
S255
G1 X43.2516 Y21.6209
S255
G1 X44.8767 Y21.6209
S255
G1 X44.9020 Y21.5503
S255
G1 X44.9471 Y21.4549
S255
G1 X44.9506 Y21.4484
S255
G1 X45.0011 Y21.3643
S255
G1 X45.0051 Y21.3581
S255
G1 X45.0680 Y21.2734
S255
G1 X45.1371 Y21.1970
S255
G1 X45.1440 Y21.1900
S255
G1 X45.2168 Y21.1241
S255
G1 X45.2224 Y21.1194
S255
G1 X45.3072 Y21.0566
S255
G1 X45.3955 Y21.0036
S255
G1 X45.4042 Y20.9989
S255
G1 X45.4974 Y20.9550
S255
G1 X45.5943 Y20.9202
S255
G1 X45.6037 Y20.9173
S255
G1 X45.7037 Y20.8924
S255
G1 X45.8105 Y20.8765
S255
G1 X45.9183 Y20.8713
S255
G1 X46.4183 Y20.8713
S255
G1 X46.5237 Y20.8763
S255
G1 X46.5310 Y20.8771
S255
G1 X46.6329 Y20.8924
S255
G1 X46.7329 Y20.9173
S255
G1 X46.7423 Y20.9202
S255
G1 X46.8347 Y20.9532
S255
G1 X46.8415 Y20.9560
S255
G1 X46.9368 Y21.0011
S255
G1 X47.0294 Y21.0566
S255
G1 X47.1161 Y21.1209
S255
G1 X47.1926 Y21.1900
S255
G1 X47.1978 Y21.1952
S255
G1 X47.2686 Y21.2734
S255
G1 X47.3301 Y21.3561
S255
G1 X47.3356 Y21.3643
S255
G1 X47.3860 Y21.4484
S255
G1 X47.3906 Y21.4571
S255
G1 X47.4346 Y21.5503
S255
G1 X47.4600 Y21.6209
S255
G1 X47.6070 Y21.6209
S255
G1 X48.0369 Y21.1910
S255
G1 X48.0369 Y15.7660
S255
G1 X47.4800 Y15.2091
S255
G1 X35.5600 Y15.2091
S255
G1 X35.5306 Y15.2078
S255
G1 X35.5208 Y15.2068
S255
G1 X35.4917 Y15.2024
S255
G1 X35.4631 Y15.1954
S255
G1 X35.4537 Y15.1925
S255
G1 X35.4260 Y15.1825
S255
G1 X35.3928 Y15.1666
S255
G1 X35.3655 Y15.1501
S255
G1 X35.3418 Y15.1327
S255
G1 X35.3342 Y15.1264
S255
G1 X35.3124 Y15.1066
S255
G1 X33.4074 Y13.2016
S255
G1 X33.3876 Y13.1798
S255
G1 X33.3813 Y13.1723
S255
G1 X33.3639 Y13.1485
S255
G1 X33.3487 Y13.1234
S255
G1 X33.3440 Y13.1147
S255
G1 X33.3316 Y13.0881
S255
G1 X33.3193 Y13.0534
S255
G1 X33.3116 Y13.0224
S255
G1 X33.3072 Y12.9933
S255
G1 X33.3062 Y12.9835
S255
G1 X33.3049 Y12.9541
S255
G1 X33.3028 Y7.6248
S255
S0
G0 Z2.0000
G0 X34.1231 Y7.7471
S255
G1 F1000
G1 Z-0.1866
S255
G1 F1000
S255
G1 X34.1231 Y7.7088
S255
G1 X34.1528 Y7.6980
S255
G1 X34.1440 Y7.7116
S255
G1 X34.1231 Y7.7471
S255
G1 X34.8637 Y6.9992
S255
G1 X34.8721 Y6.9805
S255
G1 X34.9118 Y6.8702
S255
G1 X34.9156 Y6.8585
S255
G1 X34.9443 Y6.7448
S255
G1 X34.9470 Y6.7328
S255
G1 X34.9644 Y6.6168
S255
G1 X34.9658 Y6.6047
S255
G1 X34.9718 Y6.4875
S255
G1 X34.9720 Y6.4753
S255
G1 X34.9665 Y6.3581
S255
G1 X34.9655 Y6.3459
S255
G1 X34.9485 Y6.2299
S255
G1 X34.9464 Y6.2178
S255
G1 X34.9181 Y6.1040
S255
G1 X34.9148 Y6.0922
S255
G1 X34.8750 Y5.9803
S255
G1 X34.8700 Y5.9680
S255
G1 X34.8634 Y5.9538
S255
G1 X34.8797 Y5.9644
S255
G1 X34.8893 Y5.9697
S255
G1 X34.8991 Y5.9746
S255
G1 X34.9461 Y5.9958
S255
G1 X34.9587 Y6.0006
S255
G1 X34.9722 Y6.0048
S255
G1 X34.9829 Y6.0075
S255
G1 X34.9937 Y6.0096
S255
G1 X35.0126 Y6.0120
S255
G1 X35.0292 Y6.0127
S255
G1 X35.0733 Y6.0127
S255
G1 X35.0914 Y6.0120
S255
G1 X35.1103 Y6.0096
S255
G1 X35.1294 Y6.0054
S255
G1 X35.1476 Y5.9998
S255
G1 X35.1630 Y5.9936
S255
G1 X35.2098 Y5.9722
S255
G1 X35.2265 Y5.9631
S255
G1 X35.2407 Y5.9537
S255
G1 X35.2339 Y5.9682
S255
G1 X35.2290 Y5.9805
S255
G1 X35.1892 Y6.0924
S255
G1 X35.1858 Y6.1042
S255
G1 X35.1575 Y6.2180
S255
G1 X35.1554 Y6.2301
S255
G1 X35.1384 Y6.3462
S255
G1 X35.1375 Y6.3584
S255
G1 X35.1319 Y6.4755
S255
G1 X35.1322 Y6.4878
S255
G1 X35.1375 Y6.5956
S255
G1 X35.1384 Y6.6078
S255
G1 X35.1554 Y6.7239
S255
G1 X35.1575 Y6.7360
S255
G1 X35.1858 Y6.8498
S255
G1 X35.1892 Y6.8616
S255
G1 X35.2290 Y6.9735
S255
G1 X35.2339 Y6.9858
S255
G1 X35.2403 Y6.9995
S255
G1 X35.2265 Y6.9904
S255
G1 X35.2098 Y6.9813
S255
G1 X35.1630 Y6.9599
S255
G1 X35.1453 Y6.9529
S255
G1 X35.1294 Y6.9480
S255
G1 X35.1103 Y6.9439
S255
G1 X35.0914 Y6.9415
S255
G1 X35.0733 Y6.9408
S255
G1 X35.0292 Y6.9408
S255
G1 X35.0128 Y6.9415
S255
G1 X35.0020 Y6.9426
S255
G1 X34.9912 Y6.9443
S255
G1 X34.9728 Y6.9485
S255
G1 X34.9595 Y6.9526
S255
G1 X34.9470 Y6.9573
S255
G1 X34.8974 Y6.9795
S255
G1 X34.8806 Y6.9883
S255
G1 X34.8637 Y6.9992
S255
G1 X35.0490 Y6.8208
S255
G1 X35.0519 Y6.8090
S255
G1 X35.0549 Y6.8208
S255
G1 X35.0490 Y6.8208
S255
G1 X35.0520 Y6.1447
S255
G1 X35.0490 Y6.1327
S255
G1 X35.0550 Y6.1327
S255
G1 X35.0520 Y6.1447
S255
S0
G0 Z2.0000
G0 X35.9808 Y7.7468
S255
G1 F1000
G1 Z-0.1866
S255
G1 F1000
S255
G1 X35.9808 Y7.7090
S255
G1 X35.9514 Y7.6984
S255
G1 X35.9600 Y7.7117
S255
G1 X35.9808 Y7.7468
S255
S0
G0 Z2.0000
G0 X36.9510 Y7.6989
S255
G1 F1000
G1 Z-0.1866
S255
G1 F1000
S255
G1 X36.9210 Y7.7097
S255
G1 X36.9210 Y7.7483
S255
G1 X36.9421 Y7.7126
S255
G1 X36.9510 Y7.6989
S255
S0
G0 Z2.0000
G0 X36.9197 Y10.4367
S255
G1 F1000
G1 Z-0.1866
S255
G1 F1000
S255
G1 X36.9197 Y10.4524
S255
G1 X36.9302 Y10.4577
S255
G1 X36.9261 Y10.4499
S255
G1 X36.9197 Y10.4367
S255
S0
G0 Z2.0000
G0 X36.0994 Y10.5278
S255
G1 F1000
G1 Z-0.1866
S255
G1 F1000
S255
G1 X36.1008 Y7.6245
S255
G1 X35.9927 Y7.5857
S255
G1 X35.8862 Y7.5353
S255
G1 X35.7852 Y7.4748
S255
G1 X35.6945 Y7.4076
S255
G1 X35.6869 Y7.4014
S255
G1 X35.6069 Y7.3289
S255
G1 X35.6000 Y7.3220
S255
G1 X35.5243 Y7.2383
S255
G1 X35.4541 Y7.1437
S255
G1 X35.3936 Y7.0427
S255
G1 X35.3452 Y6.9407
S255
G1 X35.3415 Y6.9316
S255
G1 X35.3051 Y6.8300
S255
G1 X35.3023 Y6.8206
S255
G1 X35.2749 Y6.7111
S255
G1 X35.2577 Y6.5946
S255
G1 X35.2519 Y6.4770
S255
G1 X35.2577 Y6.3594
S255
G1 X35.2749 Y6.2429
S255
G1 X35.3036 Y6.1287
S255
G1 X35.3432 Y6.0178
S255
G1 X35.3936 Y5.9113
S255
G1 X35.4541 Y5.8103
S255
G1 X35.5243 Y5.7157
S255
G1 X35.6034 Y5.6285
S255
G1 X35.6906 Y5.5494
S255
G1 X35.7852 Y5.4792
S255
G1 X35.8862 Y5.4187
S255
G1 X35.9927 Y5.3683
S255
G1 X36.1035 Y5.3287
S255
G1 X36.2178 Y5.3001
S255
G1 X36.3343 Y5.2828
S255
G1 X36.4519 Y5.2770
S255
G1 X36.5646 Y5.2824
S255
G1 X36.5719 Y5.2830
S255
G1 X36.6860 Y5.3001
S255
G1 X36.8002 Y5.3287
S255
G1 X36.9111 Y5.3683
S255
G1 X37.0132 Y5.4165
S255
G1 X37.0218 Y5.4211
S255
G1 X37.1144 Y5.4766
S255
G1 X37.1226 Y5.4821
S255
G1 X37.2132 Y5.5494
S255
G1 X37.2969 Y5.6251
S255
G1 X37.3038 Y5.6320
S255
G1 X37.3795 Y5.7157
S255
G1 X37.4497 Y5.8103
S255
G1 X37.5102 Y5.9113
S255
G1 X37.5605 Y6.0178
S255
G1 X37.6002 Y6.1287
S255
G1 X37.6288 Y6.2429
S255
G1 X37.6461 Y6.3594
S255
G1 X37.6519 Y6.4745
S255
G1 X37.6518 Y6.4819
S255
G1 X37.6465 Y6.5897
S255
G1 X37.6455 Y6.5995
S255
G1 X37.6288 Y6.7111
S255
G1 X37.6002 Y6.8253
S255
G1 X37.5605 Y6.9362
S255
G1 X37.5124 Y7.0383
S255
G1 X37.5078 Y7.0469
S255
G1 X37.4523 Y7.1395
S255
G1 X37.4468 Y7.1477
S255
G1 X37.3795 Y7.2383
S255
G1 X37.3004 Y7.3255
S255
G1 X37.2132 Y7.4046
S255
G1 X37.1226 Y7.4719
S255
G1 X37.1144 Y7.4774
S255
G1 X37.0218 Y7.5329
S255
G1 X37.0132 Y7.5375
S255
G1 X36.9111 Y7.5857
S255
G1 X36.8011 Y7.6251
S255
G1 X36.7996 Y10.5283
S255
G1 X36.8732 Y10.5632
S255
G1 X36.9489 Y10.6086
S255
G1 X37.0199 Y10.6613
S255
G1 X37.0853 Y10.7206
S255
G1 X37.1446 Y10.7860
S255
G1 X37.1972 Y10.8570
S255
G1 X37.2426 Y10.9327
S255
G1 X37.2794 Y11.0103
S255
G1 X37.3086 Y11.0911
S255
G1 X37.3115 Y11.1004
S255
G1 X37.3316 Y11.1814
S255
G1 X37.3446 Y11.2688
S255
G1 X37.3489 Y11.3570
S255
G1 X37.3489 Y11.7570
S255
G1 X37.3449 Y11.8403
S255
G1 X37.3440 Y11.8501
S255
G1 X37.3316 Y11.9326
S255
G1 X37.3102 Y12.0182
S255
G1 X37.2804 Y12.1014
S255
G1 X37.2449 Y12.1768
S255
G1 X37.2402 Y12.1855
S255
G1 X37.1972 Y12.2570
S255
G1 X37.1446 Y12.3279
S255
G1 X37.0887 Y12.3898
S255
G1 X37.0818 Y12.3967
S255
G1 X37.0199 Y12.4527
S255
G1 X36.9489 Y12.5053
S255
G1 X36.8774 Y12.5483
S255
G1 X36.8688 Y12.5529
S255
G1 X36.7911 Y12.5894
S255
G1 X36.7102 Y12.6182
S255
G1 X36.6245 Y12.6397
S255
G1 X36.5371 Y12.6526
S255
G1 X36.4489 Y12.6570
S255
G1 X36.3607 Y12.6526
S255
G1 X36.2733 Y12.6397
S255
G1 X36.1877 Y12.6182
S255
G1 X36.1045 Y12.5885
S255
G1 X36.0247 Y12.5507
S255
G1 X35.9489 Y12.5053
S255
G1 X35.8780 Y12.4527
S255
G1 X35.8125 Y12.3934
S255
G1 X35.7532 Y12.3279
S255
G1 X35.7006 Y12.2570
S255
G1 X35.6552 Y12.1812
S255
G1 X35.6194 Y12.1059
S255
G1 X35.6165 Y12.0991
S255
G1 X35.5877 Y12.0182
S255
G1 X35.5673 Y11.9373
S255
G1 X35.5654 Y11.9277
S255
G1 X35.5539 Y11.8501
S255
G1 X35.5529 Y11.8403
S255
G1 X35.5489 Y11.7570
S255
G1 X35.5490 Y11.3545
S255
G1 X35.5533 Y11.2688
S255
G1 X35.5654 Y11.1862
S255
G1 X35.5667 Y11.1790
S255
G1 X35.5864 Y11.1004
S255
G1 X35.5892 Y11.0911
S255
G1 X35.6174 Y11.0126
S255
G1 X35.6530 Y10.9371
S255
G1 X35.6576 Y10.9284
S255
G1 X35.7006 Y10.8570
S255
G1 X35.7532 Y10.7860
S255
G1 X35.8125 Y10.7206
S255
G1 X35.8743 Y10.6645
S255
G1 X35.8818 Y10.6582
S255
G1 X35.9449 Y10.6115
S255
G1 X35.9531 Y10.6060
S255
G1 X36.0247 Y10.5632
S255
G1 X36.0994 Y10.5278
S255
G1 X35.9685 Y10.4572
S255
G1 X35.9794 Y10.4518
S255
G1 X35.9794 Y10.4359
S255
G1 X35.9685 Y10.4572
S255
S0
G0 Z2.0000
G0 X34.3515 Y5.0549
S255
G1 F1000
G1 Z-0.1866
S255
G1 F1000
S255
G1 X34.2837 Y5.0956
S255
G1 X34.2730 Y5.1016
S255
G1 X34.1635 Y5.1535
S255
G1 X34.1471 Y5.1601
S255
G1 X34.0441 Y5.1970
S255
G1 X34.0315 Y5.2010
S255
G1 X34.0090 Y5.2067
S255
G1 X34.0315 Y5.2125
S255
G1 X34.0441 Y5.2165
S255
G1 X34.1471 Y5.2533
S255
G1 X34.1635 Y5.2600
S255
G1 X34.2730 Y5.3119
S255
G1 X34.2837 Y5.3179
S255
G1 X34.3515 Y5.3586
S255
G1 X34.3450 Y5.3439
S255
G1 X34.3297 Y5.3051
S255
G1 X34.3259 Y5.2947
S255
G1 X34.3228 Y5.2842
S255
G1 X34.3196 Y5.2711
S255
G1 X34.3168 Y5.2548
S255
G1 X34.3154 Y5.2408
S255
G1 X34.3149 Y5.2258
S255
G1 X34.3149 Y5.1862
S255
G1 X34.3152 Y5.1752
S255
G1 X34.3168 Y5.1587
S255
G1 X34.3196 Y5.1424
S255
G1 X34.3228 Y5.1293
S255
G1 X34.3277 Y5.1135
S255
G1 X34.3450 Y5.0696
S255
G1 X34.3515 Y5.0549
S255
G1 X33.2951 Y5.2067
S255
G1 X33.2755 Y5.2018
S255
G1 X33.2623 Y5.1978
S255
G1 X33.1570 Y5.1601
S255
G1 X33.1433 Y5.1547
S255
G1 X33.0311 Y5.1016
S255
G1 X33.0204 Y5.0956
S255
G1 X32.9531 Y5.0552
S255
G1 X32.9595 Y5.0696
S255
G1 X32.9748 Y5.1084
S255
G1 X32.9785 Y5.1188
S255
G1 X32.9817 Y5.1293
S255
G1 X32.9848 Y5.1425
S255
G1 X32.9876 Y5.1587
S255
G1 X32.9890 Y5.1727
S255
G1 X32.9895 Y5.1877
S255
G1 X32.9895 Y5.2273
S255
G1 X32.9892 Y5.2383
S255
G1 X32.9876 Y5.2547
S255
G1 X32.9848 Y5.2710
S255
G1 X32.9817 Y5.2842
S255
G1 X32.9767 Y5.2999
S255
G1 X32.9595 Y5.3439
S255
G1 X32.9531 Y5.3583
S255
G1 X33.0204 Y5.3179
S255
G1 X33.0311 Y5.3119
S255
G1 X33.1433 Y5.2588
S255
G1 X33.1570 Y5.2533
S255
G1 X33.2623 Y5.2157
S255
G1 X33.2755 Y5.2117
S255
G1 X33.2951 Y5.2067
S255
S0
G0 Z2.0000
G0 X33.3026 Y2.7888
S255
G1 F1000
G1 Z-0.1866
S255
G1 F1000
S255
G1 X33.3040 Y2.7622
S255
G1 X33.3091 Y2.7282
S255
G1 X33.3174 Y2.6949
S255
G1 X33.3272 Y2.6671
S255
G1 X33.3299 Y2.6603
S255
G1 X33.3415 Y2.6359
S255
G1 X33.3461 Y2.6272
S255
G1 X33.3613 Y2.6020
S255
G1 X33.3818 Y2.5744
S255
G1 X33.4049 Y2.5490
S255
G1 X33.9154 Y2.0384
S255
G1 X33.9409 Y2.0153
S255
G1 X33.9685 Y1.9949
S255
G1 X33.9980 Y1.9772
S255
G1 X34.0290 Y1.9625
S255
G1 X34.0614 Y1.9510
S255
G1 X34.0947 Y1.9426
S255
G1 X34.1287 Y1.9376
S255
G1 X34.1605 Y1.9359
S255
G1 X42.9209 Y1.9359
S255
G1 X42.9503 Y1.9372
S255
G1 X42.9601 Y1.9382
S255
G1 X42.9868 Y1.9422
S255
G1 X42.9940 Y1.9437
S255
G1 X43.0225 Y1.9510
S255
G1 X43.0549 Y1.9625
S255
G1 X43.0816 Y1.9750
S255
G1 X43.0902 Y1.9796
S255
G1 X43.1154 Y1.9949
S255
G1 X43.1430 Y2.0153
S255
G1 X43.1685 Y2.0384
S255
G1 X43.5585 Y2.4284
S255
G1 X43.8232 Y2.1637
S255
G1 X43.8469 Y2.1423
S255
G1 X43.8725 Y2.1233
S255
G1 X43.8997 Y2.1066
S255
G1 X43.9083 Y2.1020
S255
G1 X43.9350 Y2.0895
S255
G1 X43.9674 Y2.0780
S255
G1 X43.9959 Y2.0707
S255
G1 X44.0055 Y2.0688
S255
G1 X44.0347 Y2.0646
S255
G1 X44.0665 Y2.0629
S255
G1 X53.2128 Y2.0630
S255
G1 X53.2422 Y2.0646
S255
G1 X53.2714 Y2.0688
S255
G1 X53.2810 Y2.0707
S255
G1 X53.3095 Y2.0780
S255
G1 X53.3419 Y2.0895
S255
G1 X53.3686 Y2.1020
S255
G1 X53.3772 Y2.1066
S255
G1 X53.4045 Y2.1233
S255
G1 X53.4300 Y2.1423
S255
G1 X53.4537 Y2.1637
S255
G1 X53.7185 Y2.4284
S255
G1 X53.9832 Y2.1637
S255
G1 X54.0069 Y2.1423
S255
G1 X54.0325 Y2.1233
S255
G1 X54.0597 Y2.1066
S255
G1 X54.0683 Y2.1020
S255
G1 X54.0950 Y2.0895
S255
G1 X54.1274 Y2.0780
S255
G1 X54.1559 Y2.0707
S255
G1 X54.1655 Y2.0688
S255
G1 X54.1947 Y2.0646
S255
G1 X54.2265 Y2.0629
S255
G1 X63.2434 Y2.0629
S255
G1 X63.2752 Y2.0646
S255
G1 X63.3044 Y2.0688
S255
G1 X63.3140 Y2.0707
S255
G1 X63.3425 Y2.0780
S255
G1 X63.3703 Y2.0878
S255
G1 X63.3794 Y2.0915
S255
G1 X63.4060 Y2.1042
S255
G1 X63.4334 Y2.1205
S255
G1 X63.4630 Y2.1423
S255
G1 X63.4867 Y2.1637
S255
G1 X63.6245 Y2.3014
S255
G1 X63.7622 Y2.1637
S255
G1 X63.7859 Y2.1423
S255
G1 X63.8155 Y2.1205
S255
G1 X63.8430 Y2.1042
S255
G1 X63.8695 Y2.0915
S255
G1 X63.8786 Y2.0878
S255
G1 X63.9064 Y2.0780
S255
G1 X63.9349 Y2.0707
S255
G1 X63.9445 Y2.0688
S255
G1 X63.9737 Y2.0646
S255
G1 X64.0031 Y2.0630
S255
G1 X68.3260 Y2.0629
S255
G1 X68.3603 Y2.0646
S255
G1 X68.3895 Y2.0688
S255
G1 X68.3991 Y2.0707
S255
G1 X68.4276 Y2.0780
S255
G1 X68.4554 Y2.0878
S255
G1 X68.4645 Y2.0915
S255
G1 X68.4910 Y2.1042
S255
G1 X68.5205 Y2.1219
S255
G1 X68.5442 Y2.1393
S255
G1 X68.5518 Y2.1456
S255
G1 X68.5736 Y2.1654
S255
G1 X69.5930 Y3.1850
S255
G1 X69.6127 Y3.2069
S255
G1 X69.6331 Y3.2345
S255
G1 X69.6508 Y3.2640
S255
G1 X69.6655 Y3.2950
S255
G1 X69.6770 Y3.3274
S255
G1 X69.6854 Y3.3607
S255
G1 X69.6904 Y3.3947
S255
G1 X69.6921 Y3.4265
S255
G1 X69.6921 Y8.5090
S255
G1 X69.6904 Y8.5433
S255
G1 X69.6854 Y8.5773
S255
G1 X69.6770 Y8.6106
S255
G1 X69.6672 Y8.6384
S255
G1 X69.6635 Y8.6475
S255
G1 X69.6508 Y8.6740
S255
G1 X69.6357 Y8.6994
S255
G1 X69.6303 Y8.7075
S255
G1 X69.6127 Y8.7311
S255
G1 X69.5913 Y8.7548
S255
G1 X68.4221 Y9.9240
S255
G1 X68.4221 Y18.4021
S255
G1 X68.4963 Y18.4373
S255
G1 X68.5720 Y18.4827
S255
G1 X68.6430 Y18.5353
S255
G1 X68.7084 Y18.5946
S255
G1 X68.7677 Y18.6600
S255
G1 X68.8203 Y18.7310
S255
G1 X68.8657 Y18.8067
S255
G1 X68.9035 Y18.8866
S255
G1 X68.9332 Y18.9697
S255
G1 X68.9536 Y19.0506
S255
G1 X68.9555 Y19.0603
S255
G1 X68.9679 Y19.1452
S255
G1 X68.9720 Y19.2310
S255
G1 X68.9720 Y19.6310
S255
G1 X68.9677 Y19.7192
S255
G1 X68.9547 Y19.8066
S255
G1 X68.9332 Y19.8923
S255
G1 X68.9035 Y19.9754
S255
G1 X68.8679 Y20.0509
S255
G1 X68.8633 Y20.0595
S255
G1 X68.8229 Y20.1269
S255
G1 X68.8175 Y20.1350
S255
G1 X68.7677 Y20.2020
S255
G1 X68.7084 Y20.2674
S255
G1 X68.6430 Y20.3267
S255
G1 X68.5760 Y20.3765
S255
G1 X68.5679 Y20.3819
S255
G1 X68.5005 Y20.4223
S255
G1 X68.4919 Y20.4269
S255
G1 X68.4164 Y20.4625
S255
G1 X68.3333 Y20.4922
S255
G1 X68.2476 Y20.5137
S255
G1 X68.1651 Y20.5261
S255
G1 X68.1553 Y20.5270
S255
G1 X68.0769 Y20.5309
S255
G1 X68.0671 Y20.5309
S255
G1 X67.9838 Y20.5267
S255
G1 X67.8964 Y20.5137
S255
G1 X67.8107 Y20.4922
S255
G1 X67.7322 Y20.4643
S255
G1 X67.7231 Y20.4605
S255
G1 X67.6456 Y20.4235
S255
G1 X67.5720 Y20.3793
S255
G1 X67.5049 Y20.3297
S255
G1 X67.4973 Y20.3235
S255
G1 X67.4339 Y20.2656
S255
G1 X67.3763 Y20.2020
S255
G1 X67.3251 Y20.1330
S255
G1 X67.3211 Y20.1269
S255
G1 X67.2795 Y20.0574
S255
G1 X67.2668 Y20.0313
S255
G1 X66.7966 Y20.0313
S255
G1 X65.7513 Y21.0766
S255
G1 X65.7513 Y27.9454
S255
G1 X66.7966 Y28.9907
S255
G1 X66.9741 Y28.9907
S255
G1 X67.0140 Y28.9243
S255
G1 X67.0827 Y28.8316
S255
G1 X67.0874 Y28.8260
S255
G1 X67.1599 Y28.7460
S255
G1 X67.1650 Y28.7408
S255
G1 X67.2505 Y28.6634
S255
G1 X67.3411 Y28.5961
S255
G1 X67.3493 Y28.5906
S255
G1 X67.4419 Y28.5351
S255
G1 X67.4483 Y28.5316
S255
G1 X67.5481 Y28.4843
S255
G1 X67.5572 Y28.4806
S255
G1 X67.6635 Y28.4427
S255
G1 X67.7729 Y28.4151
S255
G1 X67.7825 Y28.4132
S255
G1 X67.8942 Y28.3968
S255
G1 X68.0069 Y28.3911
S255
G1 X68.0143 Y28.3910
S255
G1 X68.1245 Y28.3964
S255
G1 X68.1343 Y28.3974
S255
G1 X68.2459 Y28.4141
S255
G1 X68.3554 Y28.4414
S255
G1 X68.3648 Y28.4442
S255
G1 X68.4710 Y28.4823
S255
G1 X68.5731 Y28.5305
S255
G1 X68.5796 Y28.5339
S255
G1 X68.6785 Y28.5932
S255
G1 X68.7692 Y28.6604
S255
G1 X68.7768 Y28.6666
S255
G1 X68.8586 Y28.7408
S255
G1 X68.8637 Y28.7460
S255
G1 X68.9362 Y28.8260
S255
G1 X68.9409 Y28.8316
S255
G1 X69.0096 Y28.9243
S255
G1 X69.0495 Y28.9907
S255
G1 X69.8549 Y28.9909
S255
G1 X69.9088 Y28.9936
S255
G1 X69.9671 Y29.0023
S255
G1 X70.0242 Y29.0166
S255
G1 X70.0797 Y29.0364
S255
G1 X70.1330 Y29.0616
S255
G1 X70.1835 Y29.0919
S255
G1 X70.2308 Y29.1270
S255
G1 X70.2727 Y29.1648
S255
G1 X71.2904 Y30.1826
S255
G1 X71.3300 Y30.2262
S255
G1 X71.3623 Y30.2695
S255
G1 X71.3664 Y30.2756
S255
G1 X71.3954 Y30.3240
S255
G1 X71.4186 Y30.3728
S255
G1 X71.4223 Y30.3819
S255
G1 X71.4404 Y30.4328
S255
G1 X71.4536 Y30.4851
S255
G1 X71.4556 Y30.4947
S255
G1 X71.4634 Y30.5482
S255
G1 X71.4662 Y30.6045
S255
G1 X71.4663 Y35.8979
S255
G1 X71.4921 Y35.9105
S255
G1 X71.5637 Y35.9533
S255
G1 X71.5698 Y35.9575
S255
G1 X71.6386 Y36.0089
S255
G1 X71.7021 Y36.0666
S255
G1 X71.7582 Y36.1283
S255
G1 X71.7645 Y36.1359
S255
G1 X71.8154 Y36.2050
S255
G1 X71.8595 Y36.2787
S255
G1 X71.8952 Y36.3541
S255
G1 X71.8990 Y36.3632
S255
G1 X71.9270 Y36.4417
S255
G1 X71.9474 Y36.5226
S255
G1 X71.9493 Y36.5323
S255
G1 X71.9614 Y36.6148
S255
G1 X71.9656 Y36.6981
S255
G1 X71.9656 Y36.7079
S255
G1 X71.9614 Y36.7912
S255
G1 X71.9484 Y36.8786
S255
G1 X71.9270 Y36.9643
S255
G1 X71.8990 Y37.0428
S255
G1 X71.8952 Y37.0519
S255
G1 X71.8617 Y37.1229
S255
G1 X71.8570 Y37.1315
S255
G1 X71.8141 Y37.2030
S255
G1 X71.7645 Y37.2701
S255
G1 X71.7582 Y37.2777
S255
G1 X71.7021 Y37.3394
S255
G1 X71.6404 Y37.3955
S255
G1 X71.6348 Y37.4002
S255
G1 X71.5658 Y37.4513
S255
G1 X71.4943 Y37.4943
S255
G1 X71.4856 Y37.4989
S255
G1 X71.4102 Y37.5345
S255
G1 X71.3317 Y37.5627
S255
G1 X71.3223 Y37.5656
S255
G1 X71.2413 Y37.5857
S255
G1 X71.1564 Y37.5984
S255
G1 X71.1491 Y37.5990
S255
G1 X71.0657 Y37.6030
S255
G1 X70.6608 Y37.6029
S255
G1 X70.5775 Y37.5987
S255
G1 X70.4950 Y37.5865
S255
G1 X70.4854 Y37.5846
S255
G1 X70.4068 Y37.5649
S255
G1 X70.3259 Y37.5363
S255
G1 X70.3168 Y37.5325
S255
G1 X70.2415 Y37.4967
S255
G1 X70.1699 Y37.4539
S255
G1 X70.1617 Y37.4485
S255
G1 X70.0948 Y37.3987
S255
G1 X70.0329 Y37.3428
S255
G1 X70.0260 Y37.3358
S255
G1 X69.9700 Y37.2740
S255
G1 X69.9202 Y37.2070
S255
G1 X69.9148 Y37.1989
S255
G1 X69.8720 Y37.1273
S255
G1 X69.8343 Y37.0474
S255
G1 X69.8060 Y36.9689
S255
G1 X69.8032 Y36.9595
S255
G1 X69.7830 Y36.8786
S255
G1 X69.7701 Y36.7912
S255
G1 X69.7659 Y36.7079
S255
G1 X69.7659 Y36.6981
S255
G1 X69.7697 Y36.6197
S255
G1 X69.7707 Y36.6099
S255
G1 X69.7830 Y36.5274
S255
G1 X69.8045 Y36.4417
S255
G1 X69.8343 Y36.3586
S255
G1 X69.8709 Y36.2809
S255
G1 X69.9148 Y36.2071
S255
G1 X69.9202 Y36.1990
S255
G1 X69.9700 Y36.1320
S255
G1 X70.0260 Y36.0702
S255
G1 X70.0311 Y36.0649
S255
G1 X70.0948 Y36.0073
S255
G1 X70.1637 Y35.9561
S255
G1 X70.1699 Y35.9521
S255
G1 X70.2393 Y35.9105
S255
G1 X70.2657 Y35.8977
S255
G1 X70.2657 Y30.8556
S255
G1 X69.6014 Y30.1913
S255
G1 X69.0495 Y30.1913
S255
G1 X69.0096 Y30.2577
S255
G1 X68.9409 Y30.3504
S255
G1 X68.9362 Y30.3560
S255
G1 X68.8637 Y30.4360
S255
G1 X68.8586 Y30.4412
S255
G1 X68.7768 Y30.5154
S255
G1 X68.7692 Y30.5216
S255
G1 X68.6785 Y30.5888
S255
G1 X68.5796 Y30.6481
S255
G1 X68.5731 Y30.6515
S255
G1 X68.4710 Y30.6997
S255
G1 X68.3648 Y30.7378
S255
G1 X68.3554 Y30.7406
S255
G1 X68.2459 Y30.7679
S255
G1 X68.1343 Y30.7846
S255
G1 X68.1245 Y30.7856
S255
G1 X68.0167 Y30.7909
S255
G1 X68.0093 Y30.7910
S255
G1 X67.8991 Y30.7856
S255
G1 X67.8893 Y30.7846
S255
G1 X67.7777 Y30.7679
S255
G1 X67.6682 Y30.7406
S255
G1 X67.6588 Y30.7378
S255
G1 X67.5526 Y30.6997
S255
G1 X67.4505 Y30.6515
S255
G1 X67.4440 Y30.6481
S255
G1 X67.3451 Y30.5888
S255
G1 X67.2544 Y30.5216
S255
G1 X67.2468 Y30.5154
S255
G1 X67.1650 Y30.4412
S255
G1 X67.1599 Y30.4360
S255
G1 X67.0874 Y30.3560
S255
G1 X67.0827 Y30.3504
S255
G1 X67.0140 Y30.2577
S255
G1 X66.9741 Y30.1913
S255
G1 X66.5480 Y30.1913
S255
G1 X66.4916 Y30.1886
S255
G1 X66.4357 Y30.1806
S255
G1 X66.4261 Y30.1786
S255
G1 X66.3738 Y30.1654
S255
G1 X66.3229 Y30.1473
S255
G1 X66.3160 Y30.1446
S255
G1 X66.2650 Y30.1204
S255
G1 X66.2145 Y30.0901
S255
G1 X66.1672 Y30.0550
S255
G1 X66.1253 Y30.0172
S255
G1 X64.7248 Y28.6167
S255
G1 X64.6870 Y28.5748
S255
G1 X64.6519 Y28.5275
S255
G1 X64.6216 Y28.4770
S255
G1 X64.5984 Y28.4282
S255
G1 X64.5947 Y28.4191
S255
G1 X64.5781 Y28.3729
S255
G1 X64.5753 Y28.3635
S255
G1 X64.5623 Y28.3111
S255
G1 X64.5536 Y28.2528
S255
G1 X64.5507 Y28.1940
S255
G1 X64.5507 Y20.8280
S255
G1 X64.5536 Y20.7692
S255
G1 X64.5614 Y20.7157
S255
G1 X64.5634 Y20.7061
S255
G1 X64.5773 Y20.6514
S255
G1 X64.5947 Y20.6029
S255
G1 X64.5984 Y20.5938
S255
G1 X64.6216 Y20.5450
S255
G1 X64.6493 Y20.4987
S255
G1 X64.6547 Y20.4905
S255
G1 X64.6870 Y20.4472
S255
G1 X64.7248 Y20.4053
S255
G1 X66.1236 Y19.0066
S255
G1 X66.1672 Y18.9670
S255
G1 X66.2125 Y18.9333
S255
G1 X66.2187 Y18.9293
S255
G1 X66.2650 Y18.9016
S255
G1 X66.3138 Y18.8784
S255
G1 X66.3229 Y18.8747
S255
G1 X66.3738 Y18.8566
S255
G1 X66.4261 Y18.8434
S255
G1 X66.4357 Y18.8414
S255
G1 X66.4892 Y18.8336
S255
G1 X66.5480 Y18.8307
S255
G1 X67.2668 Y18.8307
S255
G1 X67.2795 Y18.8046
S255
G1 X67.3211 Y18.7351
S255
G1 X67.3251 Y18.7290
S255
G1 X67.3763 Y18.6600
S255
G1 X67.4322 Y18.5982
S255
G1 X67.4374 Y18.5929
S255
G1 X67.5010 Y18.5353
S255
G1 X67.5720 Y18.4827
S255
G1 X67.6477 Y18.4373
S255
G1 X67.7219 Y18.4021
S255
G1 X67.7219 Y9.7790
S255
G1 X67.7238 Y9.7422
S255
G1 X67.7286 Y9.7107
S255
G1 X67.7356 Y9.6821
S255
G1 X67.7385 Y9.6727
S255
G1 X67.7476 Y9.6473
S255
G1 X67.7505 Y9.6405
S255
G1 X67.7632 Y9.6140
S255
G1 X67.7809 Y9.5845
S255
G1 X67.8013 Y9.5569
S255
G1 X67.8210 Y9.5350
S255
G1 X68.9919 Y8.3640
S255
G1 X68.9919 Y3.5740
S255
G1 X68.1810 Y2.7631
S255
G1 X67.5917 Y2.7631
S255
G1 X67.5981 Y2.7696
S255
G1 X67.6029 Y2.7752
S255
G1 X67.6072 Y2.7812
S255
G1 X67.6122 Y2.7896
S255
G1 X67.6164 Y2.7985
S255
G1 X67.6190 Y2.8054
S255
G1 X67.6216 Y2.8148
S255
G1 X67.6230 Y2.8221
S255
G1 X67.6238 Y2.8294
S255
G1 X67.6240 Y2.8367
S255
G1 X67.6240 Y2.9683
S255
G1 X68.0174 Y2.9684
S255
G1 X68.0293 Y2.9697
S255
G1 X68.0781 Y2.9795
S255
G1 X68.0852 Y2.9817
S255
G1 X68.0922 Y2.9845
S255
G1 X68.0989 Y2.9878
S255
G1 X68.1054 Y2.9916
S255
G1 X68.1419 Y3.0161
S255
G1 X68.1477 Y3.0206
S255
G1 X68.1549 Y3.0271
S255
G1 X68.7296 Y3.6018
S255
G1 X68.7344 Y3.6073
S255
G1 X68.7388 Y3.6130
S255
G1 X68.7647 Y3.6518
S255
G1 X68.7695 Y3.6606
S255
G1 X68.7724 Y3.6674
S255
G1 X68.7748 Y3.6745
S255
G1 X68.7767 Y3.6818
S255
G1 X68.7853 Y3.7257
S255
G1 X68.7862 Y3.7328
S255
G1 X68.7867 Y3.7424
S255
G1 X68.7866 Y8.2004
S255
G1 X68.7853 Y8.2123
S255
G1 X68.7767 Y8.2562
S255
G1 X68.7741 Y8.2659
S255
G1 X68.7715 Y8.2729
S255
G1 X68.7672 Y8.2819
S255
G1 X68.7634 Y8.2884
S255
G1 X68.7388 Y8.3250
S255
G1 X68.7313 Y8.3344
S255
G1 X67.6851 Y9.3812
S255
G1 X67.6232 Y9.4531
S255
G1 X67.5777 Y9.5273
S255
G1 X67.5446 Y9.6077
S255
G1 X67.5244 Y9.6922
S255
G1 X67.5167 Y9.7871
S255
G1 X67.5167 Y18.1666
S255
G1 X67.5159 Y18.1790
S255
G1 X67.5110 Y18.2119
S255
G1 X67.5084 Y18.2241
S255
G1 X67.5043 Y18.2359
S255
G1 X67.4890 Y18.2678
S255
G1 X67.4855 Y18.2745
S255
G1 X67.4815 Y18.2809
S255
G1 X67.4754 Y18.2889
S255
G1 X67.4494 Y18.3169
S255
G1 X67.4397 Y18.3256
S255
G1 X67.3392 Y18.4042
S255
G1 X67.2450 Y18.4980
S255
G1 X67.2018 Y18.5536
S255
G1 X67.1953 Y18.5603
S255
G1 X67.1711 Y18.5828
S255
G1 X67.1612 Y18.5905
S255
G1 X67.1526 Y18.5958
S255
G1 X67.1207 Y18.6113
S255
G1 X67.1138 Y18.6143
S255
G1 X67.1044 Y18.6174
S255
G1 X67.0946 Y18.6197
S255
G1 X67.0592 Y18.6250
S255
G1 X67.0493 Y18.6257
S255
G1 X66.5531 Y18.6257
S255
G1 X66.4618 Y18.6305
S255
G1 X66.4423 Y18.6327
S255
G1 X66.3325 Y18.6553
S255
G1 X66.2287 Y18.6919
S255
G1 X66.1304 Y18.7428
S255
G1 X66.0591 Y18.7913
S255
G1 X66.0426 Y18.8044
S255
G1 X65.9748 Y18.8655
S255
G1 X64.5855 Y20.2548
S255
G1 X64.5244 Y20.3226
S255
G1 X64.5113 Y20.3391
S255
G1 X64.4628 Y20.4104
S255
G1 X64.4119 Y20.5087
S255
G1 X64.3753 Y20.6125
S255
G1 X64.3527 Y20.7223
S255
G1 X64.3505 Y20.7418
S255
G1 X64.3457 Y20.8332
S255
G1 X64.3457 Y28.1888
S255
G1 X64.3505 Y28.2802
S255
G1 X64.3527 Y28.2997
S255
G1 X64.3753 Y28.4095
S255
G1 X64.4119 Y28.5133
S255
G1 X64.4628 Y28.6116
S255
G1 X64.5113 Y28.6829
S255
G1 X64.5244 Y28.6994
S255
G1 X64.5855 Y28.7672
S255
G1 X65.9748 Y30.1565
S255
G1 X66.0426 Y30.2176
S255
G1 X66.0591 Y30.2307
S255
G1 X66.1304 Y30.2791
S255
G1 X66.2287 Y30.3301
S255
G1 X66.3325 Y30.3667
S255
G1 X66.4423 Y30.3893
S255
G1 X66.4618 Y30.3915
S255
G1 X66.5531 Y30.3963
S255
G1 X66.7649 Y30.3964
S255
G1 X66.7726 Y30.3971
S255
G1 X66.7801 Y30.3983
S255
G1 X66.8242 Y30.4075
S255
G1 X66.8363 Y30.4111
S255
G1 X66.8455 Y30.4151
S255
G1 X66.8564 Y30.4213
S255
G1 X66.8946 Y30.4491
S255
G1 X66.9035 Y30.4565
S255
G1 X66.9100 Y30.4631
S255
G1 X67.0187 Y30.5845
S255
G1 X67.1358 Y30.6898
S255
G1 X67.2641 Y30.7807
S255
G1 X67.4022 Y30.8566
S255
G1 X67.5479 Y30.9174
S255
G1 X67.6990 Y30.9609
S255
G1 X67.8546 Y30.9870
S255
G1 X68.0120 Y30.9960
S255
G1 X68.1690 Y30.9870
S255
G1 X68.3246 Y30.9609
S255
G1 X68.4757 Y30.9174
S255
G1 X68.6214 Y30.8566
S255
G1 X68.7595 Y30.7807
S255
G1 X68.8878 Y30.6898
S255
G1 X69.0049 Y30.5845
S255
G1 X69.1184 Y30.4581
S255
G1 X69.1272 Y30.4505
S255
G1 X69.1631 Y30.4242
S255
G1 X69.1693 Y30.4200
S255
G1 X69.1759 Y30.4162
S255
G1 X69.1873 Y30.4111
S255
G1 X69.1993 Y30.4075
S255
G1 X69.2460 Y30.3978
S255
G1 X69.2561 Y30.3965
S255
G1 X69.2638 Y30.3963
S255
G1 X69.4329 Y30.3963
S255
G1 X69.4425 Y30.3967
S255
G1 X69.4497 Y30.3977
S255
G1 X69.4960 Y30.4068
S255
G1 X69.5053 Y30.4096
S255
G1 X69.5122 Y30.4123
S255
G1 X69.5209 Y30.4166
S255
G1 X69.5272 Y30.4205
S255
G1 X69.5623 Y30.4437
S255
G1 X69.5721 Y30.4515
S255
G1 X70.0037 Y30.8830
S255
G1 X70.0087 Y30.8887
S255
G1 X70.0133 Y30.8947
S255
G1 X70.0391 Y30.9339
S255
G1 X70.0426 Y30.9404
S255
G1 X70.0457 Y30.9471
S255
G1 X70.0482 Y30.9540
S255
G1 X70.0502 Y30.9610
S255
G1 X70.0593 Y31.0073
S255
G1 X70.0605 Y31.0169
S255
G1 X70.0607 Y31.0241
S255
G1 X70.0607 Y35.6778
S255
G1 X70.0605 Y35.6853
S255
G1 X70.0547 Y35.7256
S255
G1 X70.0531 Y35.7330
S255
G1 X70.0510 Y35.7401
S255
G1 X70.0473 Y35.7495
S255
G1 X70.0320 Y35.7813
S255
G1 X70.0272 Y35.7896
S255
G1 X70.0231 Y35.7956
S255
G1 X70.0153 Y35.8048
S255
G1 X69.9892 Y35.8317
S255
G1 X69.9332 Y35.8758
S255
G1 X69.8391 Y35.9703
S255
G1 X69.7567 Y36.0751
S255
G1 X69.6877 Y36.1897
S255
G1 X69.6328 Y36.3114
S255
G1 X69.5932 Y36.4385
S255
G1 X69.5690 Y36.5698
S255
G1 X69.5610 Y36.7030
S255
G1 X69.5690 Y36.8362
S255
G1 X69.5932 Y36.9670
S255
G1 X69.6328 Y37.0947
S255
G1 X69.6877 Y37.2162
S255
G1 X69.7567 Y37.3304
S255
G1 X69.8391 Y37.4357
S255
G1 X69.9332 Y37.5297
S255
G1 X70.0385 Y37.6121
S255
G1 X70.1526 Y37.6811
S255
G1 X70.2742 Y37.7361
S255
G1 X70.4012 Y37.7756
S255
G1 X70.5326 Y37.7994
S255
G1 X70.6720 Y37.8080
S255
G1 X71.0595 Y37.8080
S255
G1 X71.1989 Y37.7994
S255
G1 X71.3304 Y37.7756
S255
G1 X71.4578 Y37.7361
S255
G1 X71.5793 Y37.6811
S255
G1 X71.6934 Y37.6122
S255
G1 X71.7983 Y37.5297
S255
G1 X71.8928 Y37.4357
S255
G1 X71.9748 Y37.3304
S255
G1 X72.0443 Y37.2162
S255
G1 X72.0987 Y37.0948
S255
G1 X72.1383 Y36.9670
S255
G1 X72.1625 Y36.8362
S255
G1 X72.1704 Y36.7030
S255
G1 X72.1625 Y36.5698
S255
G1 X72.1383 Y36.4385
S255
G1 X72.0987 Y36.3112
S255
G1 X72.0442 Y36.1897
S255
G1 X71.9748 Y36.0751
S255
G1 X71.8928 Y35.9703
S255
G1 X71.7984 Y35.8759
S255
G1 X71.7485 Y35.8371
S255
G1 X71.7415 Y35.8311
S255
G1 X71.7142 Y35.8021
S255
G1 X71.7065 Y35.7922
S255
G1 X71.7025 Y35.7858
S255
G1 X71.6989 Y35.7791
S255
G1 X71.6847 Y35.7495
S255
G1 X71.6810 Y35.7401
S255
G1 X71.6789 Y35.7330
S255
G1 X71.6773 Y35.7256
S255
G1 X71.6715 Y35.6853
S255
G1 X71.6713 Y35.6778
S255
G1 X71.6713 Y30.6122
S255
G1 X71.6665 Y30.5208
S255
G1 X71.6643 Y30.5013
S255
G1 X71.6417 Y30.3915
S255
G1 X71.6051 Y30.2877
S255
G1 X71.5541 Y30.1894
S255
G1 X71.5057 Y30.1181
S255
G1 X71.4926 Y30.1016
S255
G1 X71.4315 Y30.0338
S255
G1 X70.4232 Y29.0255
S255
G1 X70.3554 Y28.9644
S255
G1 X70.3389 Y28.9513
S255
G1 X70.2676 Y28.9028
S255
G1 X70.1693 Y28.8519
S255
G1 X70.0655 Y28.8153
S255
G1 X69.9557 Y28.7927
S255
G1 X69.9362 Y28.7905
S255
G1 X69.8448 Y28.7857
S255
G1 X69.2607 Y28.7857
S255
G1 X69.2529 Y28.7852
S255
G1 X69.2427 Y28.7836
S255
G1 X69.1992 Y28.7744
S255
G1 X69.1897 Y28.7717
S255
G1 X69.1784 Y28.7670
S255
G1 X69.1677 Y28.7610
S255
G1 X69.1291 Y28.7333
S255
G1 X69.1197 Y28.7257
S255
G1 X69.1129 Y28.7187
S255
G1 X69.0049 Y28.5975
S255
G1 X68.8879 Y28.4928
S255
G1 X68.7594 Y28.4017
S255
G1 X68.6214 Y28.3254
S255
G1 X68.4758 Y28.2652
S255
G1 X68.3245 Y28.2215
S255
G1 X68.2933 Y28.2162
S255
G1 X68.2435 Y28.2284
S255
G1 X68.1319 Y28.2450
S255
G1 X68.1245 Y28.2456
S255
G1 X68.0118 Y28.2510
S255
G1 X67.8991 Y28.2456
S255
G1 X67.8917 Y28.2450
S255
G1 X67.7801 Y28.2284
S255
G1 X67.7303 Y28.2162
S255
G1 X67.6991 Y28.2215
S255
G1 X67.5478 Y28.2652
S255
G1 X67.4022 Y28.3254
S255
G1 X67.2642 Y28.4017
S255
G1 X67.1357 Y28.4928
S255
G1 X67.0189 Y28.5973
S255
G1 X67.0060 Y28.6119
S255
G1 X66.9975 Y28.6201
S255
G1 X66.9570 Y28.6502
S255
G1 X66.9467 Y28.6565
S255
G1 X66.9358 Y28.6616
S255
G1 X66.9244 Y28.6653
S255
G1 X66.8800 Y28.6755
S255
G1 X66.8676 Y28.6772
S255
G1 X66.8576 Y28.6775
S255
G1 X66.8476 Y28.6768
S255
G1 X66.7973 Y28.6680
S255
G1 X66.7904 Y28.6661
S255
G1 X66.7836 Y28.6638
S255
G1 X66.7769 Y28.6610
S255
G1 X66.7685 Y28.6565
S255
G1 X66.7282 Y28.6302
S255
G1 X66.7221 Y28.6256
S255
G1 X66.7145 Y28.6188
S255
G1 X66.0150 Y27.9198
S255
G1 X66.0083 Y27.9123
S255
G1 X66.0037 Y27.9063
S255
G1 X65.9791 Y27.8692
S255
G1 X65.9755 Y27.8628
S255
G1 X65.9713 Y27.8539
S255
G1 X65.9688 Y27.8470
S255
G1 X65.9668 Y27.8400
S255
G1 X65.9577 Y27.7937
S255
G1 X65.9567 Y27.7865
S255
G1 X65.9563 Y27.7769
S255
G1 X65.9564 Y21.2403
S255
G1 X65.9577 Y21.2283
S255
G1 X65.9657 Y21.1868
S255
G1 X65.9681 Y21.1773
S255
G1 X65.9713 Y21.1681
S255
G1 X65.9755 Y21.1592
S255
G1 X65.9805 Y21.1508
S255
G1 X66.0037 Y21.1157
S255
G1 X66.0083 Y21.1097
S255
G1 X66.0133 Y21.1040
S255
G1 X66.8240 Y20.2933
S255
G1 X66.8297 Y20.2883
S255
G1 X66.8357 Y20.2837
S255
G1 X66.8708 Y20.2605
S255
G1 X66.8814 Y20.2544
S255
G1 X66.8903 Y20.2504
S255
G1 X66.8973 Y20.2481
S255
G1 X66.9044 Y20.2462
S255
G1 X66.9459 Y20.2381
S255
G1 X66.9555 Y20.2367
S255
G1 X66.9651 Y20.2363
S255
G1 X67.0518 Y20.2364
S255
G1 X67.0617 Y20.2374
S255
G1 X67.0922 Y20.2419
S255
G1 X67.1044 Y20.2445
S255
G1 X67.1115 Y20.2468
S255
G1 X67.1185 Y20.2497
S255
G1 X67.1504 Y20.2651
S255
G1 X67.1591 Y20.2701
S255
G1 X67.1692 Y20.2775
S255
G1 X67.1986 Y20.3049
S255
G1 X67.2061 Y20.3135
S255
G1 X67.2449 Y20.3634
S255
G1 X67.3394 Y20.4579
S255
G1 X67.4442 Y20.5404
S255
G1 X67.5581 Y20.6092
S255
G1 X67.6803 Y20.6637
S255
G1 X67.8075 Y20.7038
S255
G1 X67.9388 Y20.7275
S255
G1 X68.0720 Y20.7359
S255
G1 X68.2052 Y20.7275
S255
G1 X68.3360 Y20.7038
S255
G1 X68.4637 Y20.6637
S255
G1 X68.5853 Y20.6092
S255
G1 X68.6994 Y20.5403
S255
G1 X68.8046 Y20.4579
S255
G1 X68.8987 Y20.3633
S255
G1 X68.9812 Y20.2584
S255
G1 X69.0501 Y20.1443
S255
G1 X69.1051 Y20.0228
S255
G1 X69.1446 Y19.8953
S255
G1 X69.1684 Y19.7644
S255
G1 X69.1770 Y19.6250
S255
G1 X69.1770 Y19.2370
S255
G1 X69.1684 Y19.0976
S255
G1 X69.1446 Y18.9666
S255
G1 X69.1051 Y18.8392
S255
G1 X69.0501 Y18.7176
S255
G1 X68.9811 Y18.6035
S255
G1 X68.8987 Y18.4982
S255
G1 X68.8047 Y18.4041
S255
G1 X68.7003 Y18.3223
S255
G1 X68.6928 Y18.3150
S255
G1 X68.6670 Y18.2870
S255
G1 X68.6611 Y18.2788
S255
G1 X68.6561 Y18.2701
S255
G1 X68.6407 Y18.2382
S255
G1 X68.6371 Y18.2290
S255
G1 X68.6350 Y18.2219
S255
G1 X68.6330 Y18.2122
S255
G1 X68.6281 Y18.1797
S255
G1 X68.6273 Y18.1696
S255
G1 X68.6274 Y12.7028
S255
G1 X68.6287 Y12.6908
S255
G1 X68.6373 Y12.6470
S255
G1 X68.6406 Y12.6352
S255
G1 X68.6454 Y12.6239
S255
G1 X68.6515 Y12.6133
S255
G1 X68.6778 Y12.5742
S255
G1 X68.6843 Y12.5666
S255
G1 X68.6897 Y12.5613
S255
G1 X68.6955 Y12.5565
S255
G1 X68.7016 Y12.5521
S255
G1 X68.7367 Y12.5289
S255
G1 X68.7431 Y12.5252
S255
G1 X68.7519 Y12.5211
S255
G1 X68.7588 Y12.5186
S255
G1 X68.7683 Y12.5160
S255
G1 X68.8122 Y12.5074
S255
G1 X68.8194 Y12.5065
S255
G1 X68.8266 Y12.5060
S255
G1 X68.8339 Y12.5061
S255
G1 X68.8411 Y12.5068
S255
G1 X68.8869 Y12.5155
S255
G1 X68.8987 Y12.5186
S255
G1 X68.9077 Y12.5221
S255
G1 X68.9186 Y12.5276
S255
G1 X68.9557 Y12.5521
S255
G1 X68.9618 Y12.5565
S255
G1 X68.9695 Y12.5630
S255
G1 X68.9903 Y12.5838
S255
G1 X69.0947 Y12.6657
S255
G1 X69.1004 Y12.6711
S255
G1 X69.1231 Y12.6953
S255
G1 X69.1310 Y12.7050
S255
G1 X69.1377 Y12.7157
S255
G1 X69.1532 Y12.7476
S255
G1 X69.1562 Y12.7544
S255
G1 X69.1594 Y12.7639
S255
G1 X69.1611 Y12.7712
S255
G1 X69.1666 Y12.8066
S255
G1 X69.1674 Y12.8140
S255
G1 X69.1677 Y12.8214
S255
G1 X69.1677 Y14.4699
S255
G1 X69.1754 Y14.5648
S255
G1 X69.1956 Y14.6493
S255
G1 X69.2287 Y14.7297
S255
G1 X69.2742 Y14.8039
S255
G1 X69.3361 Y14.8757
S255
G1 X70.6346 Y16.1748
S255
G1 X70.6394 Y16.1803
S255
G1 X70.6438 Y16.1860
S255
G1 X70.6671 Y16.2205
S255
G1 X70.6710 Y16.2269
S255
G1 X70.6755 Y16.2358
S255
G1 X70.6791 Y16.2451
S255
G1 X70.6811 Y16.2523
S255
G1 X70.6903 Y16.2987
S255
G1 X70.6912 Y16.3058
S255
G1 X70.6917 Y16.3154
S255
G1 X70.6917 Y23.1816
S255
G1 X70.6912 Y23.1912
S255
G1 X70.6898 Y23.2007
S255
G1 X70.6811 Y23.2447
S255
G1 X70.6783 Y23.2542
S255
G1 X70.6755 Y23.2612
S255
G1 X70.6722 Y23.2679
S255
G1 X70.6671 Y23.2765
S255
G1 X70.6438 Y23.3110
S255
G1 X70.6363 Y23.3204
S255
G1 X70.0599 Y23.8969
S255
G1 X70.0546 Y23.9019
S255
G1 X70.0470 Y23.9078
S255
G1 X70.0083 Y23.9337
S255
G1 X70.0017 Y23.9374
S255
G1 X69.9949 Y23.9405
S255
G1 X69.9879 Y23.9431
S255
G1 X69.9807 Y23.9451
S255
G1 X69.9343 Y23.9543
S255
G1 X69.9224 Y23.9556
S255
G1 X69.4263 Y23.9557
S255
G1 X69.4189 Y23.9554
S255
G1 X69.4116 Y23.9546
S255
G1 X69.3741 Y23.9481
S255
G1 X69.3647 Y23.9460
S255
G1 X69.3556 Y23.9430
S255
G1 X69.3490 Y23.9402
S255
G1 X69.3425 Y23.9369
S255
G1 X69.3073 Y23.9161
S255
G1 X69.2971 Y23.9088
S255
G1 X69.2896 Y23.9021
S255
G1 X69.2829 Y23.8946
S255
G1 X69.2600 Y23.8667
S255
G1 X69.2539 Y23.8583
S255
G1 X69.2499 Y23.8517
S255
G1 X69.2013 Y23.7636
S255
G1 X69.1103 Y23.6352
S255
G1 X69.0050 Y23.5176
S255
G1 X68.8879 Y23.4128
S255
G1 X68.7594 Y23.3217
S255
G1 X68.6214 Y23.2454
S255
G1 X68.4758 Y23.1852
S255
G1 X68.3245 Y23.1415
S255
G1 X68.2933 Y23.1362
S255
G1 X68.2435 Y23.1484
S255
G1 X68.1319 Y23.1650
S255
G1 X68.1245 Y23.1656
S255
G1 X68.0118 Y23.1710
S255
G1 X67.8991 Y23.1656
S255
G1 X67.8917 Y23.1650
S255
G1 X67.7801 Y23.1484
S255
G1 X67.7303 Y23.1362
S255
G1 X67.6991 Y23.1415
S255
G1 X67.5478 Y23.1852
S255
G1 X67.4022 Y23.2454
S255
G1 X67.2642 Y23.3217
S255
G1 X67.1357 Y23.4128
S255
G1 X67.0186 Y23.5176
S255
G1 X66.9133 Y23.6352
S255
G1 X66.8223 Y23.7637
S255
G1 X66.7459 Y23.9017
S255
G1 X66.6857 Y24.0472
S255
G1 X66.6421 Y24.1984
S255
G1 X66.6160 Y24.3540
S255
G1 X66.6070 Y24.5110
S255
G1 X66.6160 Y24.6685
S255
G1 X66.6421 Y24.8241
S255
G1 X66.6857 Y24.9753
S255
G1 X66.7459 Y25.1208
S255
G1 X66.8222 Y25.2583
S255
G1 X66.9133 Y25.3868
S255
G1 X67.0187 Y25.5045
S255
G1 X67.1358 Y25.6098
S255
G1 X67.2641 Y25.7007
S255
G1 X67.4022 Y25.7766
S255
G1 X67.5479 Y25.8374
S255
G1 X67.6990 Y25.8809
S255
G1 X67.7294 Y25.8860
S255
G1 X67.7801 Y25.8736
S255
G1 X67.8917 Y25.8570
S255
G1 X67.8991 Y25.8564
S255
G1 X68.0118 Y25.8510
S255
G1 X68.1245 Y25.8564
S255
G1 X68.1319 Y25.8570
S255
G1 X68.2435 Y25.8736
S255
G1 X68.2942 Y25.8860
S255
G1 X68.3246 Y25.8809
S255
G1 X68.4757 Y25.8374
S255
G1 X68.6214 Y25.7766
S255
G1 X68.7595 Y25.7007
S255
G1 X68.8878 Y25.6098
S255
G1 X69.0049 Y25.5045
S255
G1 X69.1103 Y25.3868
S255
G1 X69.2013 Y25.2584
S255
G1 X69.2525 Y25.1659
S255
G1 X69.2584 Y25.1573
S255
G1 X69.2845 Y25.1255
S255
G1 X69.2933 Y25.1165
S255
G1 X69.2991 Y25.1116
S255
G1 X69.3052 Y25.1072
S255
G1 X69.3425 Y25.0851
S255
G1 X69.3535 Y25.0798
S255
G1 X69.3626 Y25.0766
S255
G1 X69.3720 Y25.0743
S255
G1 X69.4123 Y25.0674
S255
G1 X69.4244 Y25.0663
S255
G1 X70.2229 Y25.0663
S255
G1 X70.3178 Y25.0586
S255
G1 X70.4023 Y25.0384
S255
G1 X70.4827 Y25.0053
S255
G1 X70.5569 Y24.9598
S255
G1 X70.6287 Y24.8979
S255
G1 X71.6339 Y23.8927
S255
G1 X71.6958 Y23.8209
S255
G1 X71.7413 Y23.7467
S255
G1 X71.7744 Y23.6663
S255
G1 X71.7946 Y23.5818
S255
G1 X71.8023 Y23.4869
S255
G1 X71.8023 Y16.0101
S255
G1 X71.7946 Y15.9152
S255
G1 X71.7744 Y15.8307
S255
G1 X71.7413 Y15.7503
S255
G1 X71.6958 Y15.6761
S255
G1 X71.6339 Y15.6042
S255
G1 X70.3354 Y14.3052
S255
G1 X70.3306 Y14.2997
S255
G1 X70.3261 Y14.2939
S255
G1 X70.3029 Y14.2594
S255
G1 X70.2978 Y14.2509
S255
G1 X70.2935 Y14.2419
S255
G1 X70.2909 Y14.2349
S255
G1 X70.2883 Y14.2253
S255
G1 X70.2797 Y14.1813
S255
G1 X70.2784 Y14.1694
S255
G1 X70.2783 Y12.8209
S255
G1 X70.2786 Y12.8133
S255
G1 X70.2795 Y12.8058
S255
G1 X70.2840 Y12.7758
S255
G1 X70.2860 Y12.7661
S255
G1 X70.2889 Y12.7567
S255
G1 X70.2917 Y12.7498
S255
G1 X70.3071 Y12.7179
S255
G1 X70.3135 Y12.7071
S255
G1 X70.3212 Y12.6972
S255
G1 X70.3456 Y12.6711
S255
G1 X70.3533 Y12.6640
S255
G1 X70.4557 Y12.5838
S255
G1 X70.5497 Y12.4898
S255
G1 X70.6321 Y12.3845
S255
G1 X70.7011 Y12.2703
S255
G1 X70.7561 Y12.1488
S255
G1 X70.7956 Y12.0213
S255
G1 X70.8194 Y11.8904
S255
G1 X70.8280 Y11.7510
S255
G1 X70.8280 Y11.3629
S255
G1 X70.8239 Y11.2914
S255
G1 X70.8249 Y11.2790
S255
G1 X70.8308 Y11.2365
S255
G1 X70.8329 Y11.2270
S255
G1 X70.8367 Y11.2154
S255
G1 X70.8420 Y11.2044
S255
G1 X70.8671 Y11.1636
S255
G1 X70.8728 Y11.1556
S255
G1 X70.8793 Y11.1483
S255
G1 X70.8864 Y11.1416
S255
G1 X70.8922 Y11.1371
S255
G1 X70.9294 Y11.1104
S255
G1 X70.9380 Y11.1054
S255
G1 X70.9471 Y11.1013
S255
G1 X70.9590 Y11.0974
S255
G1 X71.0034 Y11.0872
S255
G1 X71.0155 Y11.0855
S255
G1 X71.0278 Y11.0852
S255
G1 X71.0400 Y11.0865
S255
G1 X71.0844 Y11.0951
S255
G1 X71.0938 Y11.0976
S255
G1 X71.1030 Y11.1010
S255
G1 X71.1096 Y11.1042
S255
G1 X71.1159 Y11.1079
S255
G1 X71.1520 Y11.1315
S255
G1 X71.1603 Y11.1376
S255
G1 X71.1679 Y11.1444
S255
G1 X98.7697 Y38.7462
S255
G1 X69.9449 Y0.5007
S255
G1 X69.9449 Y2.7600
S255
G1 X69.9446 Y2.7677
S255
G1 X69.9433 Y2.7780
S255
G1 X69.9341 Y2.8216
S255
G1 X69.9313 Y2.8313
S255
G1 X69.9286 Y2.8383
S255
G1 X69.9253 Y2.8451
S255
G1 X69.9215 Y2.8516
S255
G1 X69.8983 Y2.8868
S255
G1 X69.8910 Y2.8965
S255
G1 X69.8843 Y2.9036
S255
G1 X69.8788 Y2.9085
S255
G1 X69.8730 Y2.9130
S255
G1 X69.8380 Y2.9368
S255
G1 X69.8294 Y2.9419
S255
G1 X69.8204 Y2.9462
S255
G1 X69.8110 Y2.9496
S255
G1 X69.8013 Y2.9520
S255
G1 X69.7603 Y2.9601
S255
G1 X69.7531 Y2.9611
S255
G1 X69.7459 Y2.9615
S255
G1 X69.7338 Y2.9611
S255
G1 X69.7242 Y2.9597
S255
G1 X69.6826 Y2.9516
S255
G1 X69.6753 Y2.9497
S255
G1 X69.6682 Y2.9472
S255
G1 X69.6590 Y2.9431
S255
G1 X69.6502 Y2.9381
S255
G1 X69.6132 Y2.9130
S255
G1 X69.6039 Y2.9056
S255
G1 X68.7238 Y2.0261
S255
G1 X68.6519 Y1.9642
S255
G1 X68.5777 Y1.9187
S255
G1 X68.4973 Y1.8856
S255
G1 X68.4128 Y1.8654
S255
G1 X68.3179 Y1.8577
S255
G1 X64.0161 Y1.8577
S255
G1 X63.9212 Y1.8654
S255
G1 X63.8367 Y1.8856
S255
G1 X63.7569 Y1.9185
S255
G1 X63.7312 Y1.9347
S255
G1 X63.7223 Y1.9397
S255
G1 X63.7131 Y1.9437
S255
G1 X63.6757 Y1.9577
S255
G1 X63.6689 Y1.9599
S255
G1 X63.6618 Y1.9615
S255
G1 X63.6499 Y1.9631
S255
G1 X63.6062 Y1.9633
S255
G1 X63.5989 Y1.9631
S255
G1 X63.5916 Y1.9623
S255
G1 X63.5797 Y1.9598
S255
G1 X63.5705 Y1.9567
S255
G1 X63.5337 Y1.9427
S255
G1 X63.5272 Y1.9397
S255
G1 X63.5209 Y1.9363
S255
G1 X63.4924 Y1.9186
S255
G1 X63.4122 Y1.8856
S255
G1 X63.3277 Y1.8654
S255
G1 X63.2328 Y1.8577
S255
G1 X60.5873 Y1.8577
S255
G1 X60.5323 Y1.8772
S255
G1 X60.4490 Y1.8982
S255
G1 X60.4417 Y1.8995
S255
G1 X60.3568 Y1.9119
S255
G1 X60.2710 Y1.9160
S255
G1 X59.8710 Y1.9160
S255
G1 X59.7828 Y1.9117
S255
G1 X59.6978 Y1.8992
S255
G1 X59.6906 Y1.8976
S255
G1 X59.6121 Y1.8779
S255
G1 X59.5547 Y1.8577
S255
G1 X54.2371 Y1.8577
S255
G1 X54.1422 Y1.8654
S255
G1 X54.0577 Y1.8856
S255
G1 X53.9773 Y1.9187
S255
G1 X53.9029 Y1.9643
S255
G1 X53.8495 Y2.0100
S255
G1 X53.8436 Y2.0146
S255
G1 X53.8353 Y2.0201
S255
G1 X53.7980 Y2.0418
S255
G1 X53.7914 Y2.0448
S255
G1 X53.7846 Y2.0473
S255
G1 X53.7730 Y2.0503
S255
G1 X53.7332 Y2.0573
S255
G1 X53.7258 Y2.0581
S255
G1 X53.7185 Y2.0583
S255
G1 X53.7111 Y2.0581
S255
G1 X53.7037 Y2.0573
S255
G1 X53.6639 Y2.0503
S255
G1 X53.6569 Y2.0487
S255
G1 X53.6500 Y2.0465
S255
G1 X53.6389 Y2.0418
S255
G1 X53.6016 Y2.0201
S255
G1 X53.5933 Y2.0146
S255
G1 X53.5875 Y2.0100
S255
G1 X53.5340 Y1.9643
S255
G1 X53.4597 Y1.9187
S255
G1 X53.3792 Y1.8856
S255
G1 X53.2947 Y1.8654
S255
G1 X53.1998 Y1.8577
S255
G1 X50.6813 Y1.8577
S255
G1 X50.6263 Y1.8772
S255
G1 X50.5430 Y1.8982
S255
G1 X50.5357 Y1.8995
S255
G1 X50.4508 Y1.9119
S255
G1 X50.3650 Y1.9160
S255
G1 X49.9650 Y1.9160
S255
G1 X49.8768 Y1.9117
S255
G1 X49.7918 Y1.8992
S255
G1 X49.7846 Y1.8976
S255
G1 X49.7061 Y1.8779
S255
G1 X49.6487 Y1.8577
S255
G1 X44.0771 Y1.8577
S255
G1 X43.9822 Y1.8654
S255
G1 X43.8977 Y1.8856
S255
G1 X43.8173 Y1.9187
S255
G1 X43.7430 Y1.9642
S255
G1 X43.6860 Y2.0128
S255
G1 X43.6760 Y2.0193
S255
G1 X43.6386 Y2.0405
S255
G1 X43.6320 Y2.0435
S255
G1 X43.6251 Y2.0461
S255
G1 X43.6132 Y2.0493
S255
G1 X43.5690 Y2.0560
S255
G1 X43.5571 Y2.0568
S255
G1 X43.5452 Y2.0562
S255
G1 X43.5358 Y2.0547
S255
G1 X43.4944 Y2.0449
S255
G1 X43.4848 Y2.0419
S255
G1 X43.4779 Y2.0389
S255
G1 X43.4690 Y2.0343
S255
G1 X43.4311 Y2.0093
S255
G1 X43.4232 Y2.0032
S255
G1 X43.4176 Y1.9981
S255
G1 X43.3187 Y1.8991
S255
G1 X43.2468 Y1.8372
S255
G1 X43.1727 Y1.7917
S255
G1 X43.0922 Y1.7586
S255
G1 X43.0077 Y1.7384
S255
G1 X42.9128 Y1.7307
S255
G1 X40.7506 Y1.7307
S255
G1 X40.7050 Y1.7643
S255
G1 X40.6314 Y1.8085
S255
G1 X40.6249 Y1.8119
S255
G1 X40.5517 Y1.8465
S255
G1 X40.5448 Y1.8493
S255
G1 X40.4663 Y1.8772
S255
G1 X40.3806 Y1.8987
S255
G1 X40.2932 Y1.9117
S255
G1 X40.2075 Y1.9160
S255
G1 X39.8050 Y1.9160
S255
G1 X39.7168 Y1.9117
S255
G1 X39.6343 Y1.8995
S255
G1 X39.6246 Y1.8976
S255
G1 X39.5414 Y1.8765
S255
G1 X39.4606 Y1.8475
S255
G1 X39.3829 Y1.8109
S255
G1 X39.3765 Y1.8073
S255
G1 X39.3070 Y1.7657
S255
G1 X39.2594 Y1.7307
S255
G1 X34.1711 Y1.7307
S255
G1 X34.0762 Y1.7384
S255
G1 X33.9917 Y1.7586
S255
G1 X33.9113 Y1.7917
S255
G1 X33.8371 Y1.8372
S255
G1 X33.7652 Y1.8991
S255
G1 X33.2655 Y2.3988
S255
G1 X33.2036 Y2.4706
S255
G1 X33.1581 Y2.5450
S255
G1 X33.1490 Y2.5665
S255
G1 X33.1433 Y2.5769
S255
G1 X33.1173 Y2.6160
S255
G1 X33.1126 Y2.6219
S255
G1 X33.1057 Y2.6292
S255
G1 X33.1000 Y2.6342
S255
G1 X33.0940 Y2.6388
S255
G1 X33.0543 Y2.6649
S255
G1 X32.9045 Y2.7473
S255
G1 X32.7761 Y2.8383
S255
G1 X32.6585 Y2.9436
S255
G1 X32.5537 Y3.0607
S255
G1 X32.4627 Y3.1892
S255
G1 X32.3863 Y3.3272
S255
G1 X32.3261 Y3.4727
S255
G1 X32.2825 Y3.6241
S255
G1 X32.2559 Y3.7795
S255
G1 X32.2474 Y3.9365
S255
G1 X32.2559 Y4.0940
S255
G1 X32.2825 Y4.2494
S255
G1 X32.3261 Y4.4007
S255
G1 X32.3863 Y4.5463
S255
G1 X32.4627 Y4.6843
S255
G1 X32.5537 Y4.8128
S255
G1 X32.6585 Y4.9299
S255
G1 X32.7757 Y5.0348
S255
G1 X32.7872 Y5.0428
S255
G1 X32.7950 Y5.0491
S255
G1 X32.8004 Y5.0543
S255
G1 X32.8306 Y5.0858
S255
G1 X32.8353 Y5.0915
S255
G1 X32.8395 Y5.0976
S255
G1 X32.8432 Y5.1039
S255
G1 X32.8474 Y5.1127
S255
G1 X32.8643 Y5.1557
S255
G1 X32.8676 Y5.1678
S255
G1 X32.8690 Y5.1777
S255
G1 X32.8695 Y5.1877
S255
G1 X32.8695 Y5.2283
S255
G1 X32.8688 Y5.2383
S255
G1 X32.8670 Y5.2481
S255
G1 X32.8635 Y5.2601
S255
G1 X32.8474 Y5.3008
S255
G1 X32.8432 Y5.3096
S255
G1 X32.8367 Y5.3200
S255
G1 X32.8290 Y5.3295
S255
G1 X32.7968 Y5.3627
S255
G1 X32.7892 Y5.3692
S255
G1 X32.7757 Y5.3787
S255
G1 X32.6585 Y5.4836
S255
G1 X32.5537 Y5.6007
S255
G1 X32.4627 Y5.7292
S255
G1 X32.3863 Y5.8672
S255
G1 X32.3261 Y6.0127
S255
G1 X32.2825 Y6.1641
S255
G1 X32.2559 Y6.3195
S255
G1 X32.2474 Y6.4765
S255
G1 X32.2559 Y6.6340
S255
G1 X32.2825 Y6.7894
S255
G1 X32.3261 Y6.9407
S255
G1 X32.3863 Y7.0863
S255
G1 X32.4627 Y7.2243
S255
G1 X32.5537 Y7.3528
S255
G1 X32.6585 Y7.4699
S255
G1 X32.7761 Y7.5752
S255
G1 X32.9046 Y7.6662
S255
G1 X32.9936 Y7.7153
S255
G1 X33.0003 Y7.7193
S255
G1 X33.0086 Y7.7255
S255
G1 X33.0366 Y7.7483
S255
G1 X33.0458 Y7.7569
S255
G1 X33.0523 Y7.7645
S255
G1 X33.0581 Y7.7728
S255
G1 X33.0789 Y7.8080
S255
G1 X33.0841 Y7.8188
S255
G1 X33.0866 Y7.8256
S255
G1 X33.0891 Y7.8349
S255
G1 X33.0966 Y7.8771
S255
G1 X33.0974 Y7.8844
S255
G1 X33.0976 Y7.8917
S255
G1 X33.0997 Y12.9464
S255
G1 X33.1074 Y13.0409
S255
G1 X33.1276 Y13.1256
S255
G1 X33.1612 Y13.2061
S255
G1 X33.2062 Y13.2800
S255
G1 X33.2681 Y13.3517
S255
G1 X35.1622 Y15.2459
S255
G1 X35.2341 Y15.3078
S255
G1 X35.3083 Y15.3533
S255
G1 X35.3887 Y15.3864
S255
G1 X35.4732 Y15.4066
S255
G1 X35.5681 Y15.4143
S255
G1 X45.1185 Y15.4144
S255
G1 X45.1262 Y15.4148
S255
G1 X45.1338 Y15.4159
S255
G1 X45.1779 Y15.4250
S255
G1 X45.1875 Y15.4275
S255
G1 X45.1990 Y15.4319
S255
G1 X45.2078 Y15.4364
S255
G1 X45.2161 Y15.4418
S255
G1 X45.2526 Y15.4681
S255
G1 X45.2600 Y15.4743
S255
G1 X45.2651 Y15.4794
S255
G1 X45.2714 Y15.4868
S255
G1 X45.2782 Y15.4968
S255
G1 X45.3014 Y15.5381
S255
G1 X45.3046 Y15.5447
S255
G1 X45.3073 Y15.5515
S255
G1 X45.3101 Y15.5609
S255
G1 X45.3120 Y15.5705
S255
G1 X45.3170 Y15.6223
S255
G1 X45.3170 Y15.6296
S255
G1 X45.3166 Y15.6369
S255
G1 X45.3156 Y15.6442
S255
G1 X45.3141 Y15.6513
S255
G1 X45.2989 Y15.6985
S255
G1 X45.2953 Y15.7078
S255
G1 X45.2907 Y15.7168
S255
G1 X45.2868 Y15.7231
S255
G1 X45.2808 Y15.7311
S255
G1 X45.2469 Y15.7681
S255
G1 X45.2383 Y15.7760
S255
G1 X45.1048 Y15.8710
S255
G1 X44.9958 Y15.9687
S255
G1 X44.8981 Y16.0777
S255
G1 X44.8135 Y16.1973
S255
G1 X44.7936 Y16.2325
S255
G1 X44.7887 Y16.2403
S255
G1 X44.7623 Y16.2738
S255
G1 X44.7559 Y16.2810
S255
G1 X44.7469 Y16.2892
S255
G1 X44.7371 Y16.2961
S255
G1 X44.7019 Y16.3169
S255
G1 X44.6910 Y16.3221
S255
G1 X44.6819 Y16.3254
S255
G1 X44.6725 Y16.3277
S255
G1 X44.6273 Y16.3352
S255
G1 X44.6176 Y16.3357
S255
G1 X37.9811 Y16.3357
S255
G1 X37.8862 Y16.3434
S255
G1 X37.8017 Y16.3636
S255
G1 X37.7213 Y16.3967
S255
G1 X37.6471 Y16.4422
S255
G1 X37.5752 Y16.5041
S255
G1 X36.0621 Y18.0172
S255
G1 X36.0002 Y18.0891
S255
G1 X35.9547 Y18.1633
S255
G1 X35.9216 Y18.2437
S255
G1 X35.9014 Y18.3282
S255
G1 X35.8937 Y18.4231
S255
G1 X35.8937 Y35.1709
S255
G1 X35.9014 Y35.2658
S255
G1 X35.9216 Y35.3503
S255
G1 X35.9547 Y35.4307
S255
G1 X36.0002 Y35.5049
S255
G1 X36.0621 Y35.5767
S255
G1 X37.7022 Y37.2169
S255
G1 X37.7741 Y37.2788
S255
G1 X37.8483 Y37.3243
S255
G1 X37.9287 Y37.3574
S255
G1 X38.0132 Y37.3776
S255
G1 X38.1081 Y37.3853
S255
G1 X42.2697 Y37.3853
S255
G1 X42.2770 Y37.3856
S255
G1 X42.2866 Y37.3868
S255
G1 X42.3324 Y37.3959
S255
G1 X42.3417 Y37.3987
S255
G1 X42.3529 Y37.4035
S255
G1 X42.3634 Y37.4095
S255
G1 X42.4005 Y37.4342
S255
G1 X42.4099 Y37.4420
S255
G1 X42.4182 Y37.4509
S255
G1 X42.4241 Y37.4587
S255
G1 X42.4465 Y37.4917
S255
G1 X42.4529 Y37.5027
S255
G1 X42.4561 Y37.5097
S255
G1 X42.5124 Y37.6462
S255
G1 X42.5830 Y37.7743
S255
G1 X42.6680 Y37.8933
S255
G1 X42.7652 Y38.0027
S255
G1 X42.8746 Y38.0999
S255
G1 X42.9941 Y38.1849
S255
G1 X43.1219 Y38.2557
S255
G1 X43.2572 Y38.3117
S255
G1 X43.3978 Y38.3518
S255
G1 X43.5419 Y38.3764
S255
G1 X43.6880 Y38.3849
S255
G1 X43.8341 Y38.3764
S255
G1 X43.9783 Y38.3518
S255
G1 X44.1193 Y38.3117
S255
G1 X44.2540 Y38.2557
S255
G1 X44.3819 Y38.1849
S255
G1 X44.5014 Y38.0999
S255
G1 X44.6108 Y38.0027
S255
G1 X44.7079 Y37.8934
S255
G1 X44.7937 Y37.7728
S255
G1 X44.7982 Y37.7670
S255
G1 X44.8047 Y37.7598
S255
G1 X44.8344 Y37.7317
S255
G1 X44.8421 Y37.7252
S255
G1 X44.8482 Y37.7208
S255
G1 X44.8569 Y37.7157
S255
G1 X44.8660 Y37.7115
S255
G1 X44.9087 Y37.6947
S255
G1 X44.9161 Y37.6927
S255
G1 X44.9235 Y37.6913
S255
G1 X44.9362 Y37.6902
S255
G1 X44.9823 Y37.6902
S255
G1 X44.9923 Y37.6912
S255
G1 X45.0021 Y37.6932
S255
G1 X45.0140 Y37.6971
S255
G1 X45.0545 Y37.7132
S255
G1 X45.0654 Y37.7189
S255
G1 X45.0715 Y37.7230
S255
G1 X45.0773 Y37.7274
S255
G1 X45.1102 Y37.7587
S255
G1 X45.1180 Y37.7673
S255
G1 X45.2080 Y37.8933
S255
G1 X45.3052 Y38.0023
S255
G1 X45.4146 Y38.0999
S255
G1 X45.5340 Y38.1843
S255
G1 X45.6619 Y38.2551
S255
G1 X45.7973 Y38.3113
S255
G1 X45.9379 Y38.3519
S255
G1 X46.0817 Y38.3764
S255
G1 X46.2280 Y38.3844
S255
G1 X46.3743 Y38.3764
S255
G1 X46.5181 Y38.3519
S255
G1 X46.6592 Y38.3113
S255
G1 X46.7940 Y38.2552
S255
G1 X46.9220 Y38.1843
S255
G1 X47.0414 Y38.0999
S255
G1 X47.1508 Y38.0023
S255
G1 X47.2480 Y37.8933
S255
G1 X47.3337 Y37.7728
S255
G1 X47.3397 Y37.7651
S255
G1 X47.3465 Y37.7581
S255
G1 X47.3780 Y37.7284
S255
G1 X47.3877 Y37.7211
S255
G1 X47.3961 Y37.7161
S255
G1 X47.4049 Y37.7120
S255
G1 X47.4473 Y37.6947
S255
G1 X47.4544 Y37.6926
S255
G1 X47.4616 Y37.6911
S255
G1 X47.4738 Y37.6897
S255
G1 X47.5222 Y37.6897
S255
G1 X47.5320 Y37.6907
S255
G1 X47.5416 Y37.6926
S255
G1 X47.5533 Y37.6963
S255
G1 X47.5956 Y37.7139
S255
G1 X47.6062 Y37.7198
S255
G1 X47.6161 Y37.7269
S255
G1 X47.6495 Y37.7581
S255
G1 X47.6578 Y37.7670
S255
G1 X47.6623 Y37.7728
S255
G1 X47.7480 Y37.8933
S255
G1 X47.8452 Y38.0023
S255
G1 X47.9546 Y38.0999
S255
G1 X48.0743 Y38.1846
S255
G1 X48.1095 Y38.2044
S255
G1 X48.1173 Y38.2093
S255
G1 X48.1508 Y38.2358
S255
G1 X48.1597 Y38.2439
S255
G1 X48.1662 Y38.2511
S255
G1 X48.1732 Y38.2610
S255
G1 X48.1939 Y38.2961
S255
G1 X48.1972 Y38.3026
S255
G1 X48.2000 Y38.3093
S255
G1 X48.2030 Y38.3185
S255
G1 X48.2051 Y38.3279
S255
G1 X48.2116 Y38.3659
S255
G1 X48.2124 Y38.3731
S255
G1 X48.2127 Y38.3804
S255
G1 X48.2127 Y47.5656
S255
G1 X48.2122 Y47.5752
S255
G1 X48.2108 Y47.5847
S255
G1 X48.2027 Y47.6262
S255
G1 X48.2008 Y47.6335
S255
G1 X48.1984 Y47.6406
S255
G1 X48.1944 Y47.6497
S255
G1 X48.1894 Y47.6584
S255
G1 X48.1635 Y47.6968
S255
G1 X48.1591 Y47.7024
S255
G1 X48.1543 Y47.7076
S255
G1 X48.1025 Y47.7599
S255
G1 X48.0952 Y47.7666
S255
G1 X48.0872 Y47.7725
S255
G1 X48.0480 Y47.7975
S255
G1 X48.0393 Y47.8022
S255
G1 X48.0301 Y47.8060
S255
G1 X48.0231 Y47.8082
S255
G1 X48.0158 Y47.8099
S255
G1 X47.9723 Y47.8175
S255
G1 X47.9625 Y47.8187
S255
G1 X47.9501 Y47.8189
S255
G1 X47.9403 Y47.8179
S255
G1 X47.9331 Y47.8165
S255
G1 X47.8905 Y47.8058
S255
G1 X47.8791 Y47.8021
S255
G1 X47.8703 Y47.7983
S255
G1 X47.8620 Y47.7936
S255
G1 X47.8560 Y47.7895
S255
G1 X47.8191 Y47.7612
S255
G1 X47.8136 Y47.7563
S255
G1 X47.8084 Y47.7510
S255
G1 X47.8006 Y47.7415
S255
G1 X47.7941 Y47.7310
S255
G1 X47.7720 Y47.6900
S255
G1 X47.7673 Y47.6782
S255
G1 X47.7592 Y47.6518
S255
G1 X47.7309 Y47.5990
S255
G1 X47.6931 Y47.5528
S255
G1 X47.6471 Y47.5152
S255
G1 X47.5940 Y47.4871
S255
G1 X47.4778 Y47.4507
S255
G1 X47.4711 Y47.4479
S255
G1 X47.4647 Y47.4447
S255
G1 X47.4584 Y47.4411
S255
G1 X47.4525 Y47.4370
S255
G1 X47.4432 Y47.4292
S255
G1 X47.4095 Y47.3970
S255
G1 X47.4031 Y47.3899
S255
G1 X47.3973 Y47.3822
S255
G1 X47.3923 Y47.3739
S255
G1 X47.3872 Y47.3630
S255
G1 X47.3701 Y47.3196
S255
G1 X47.3678 Y47.3125
S255
G1 X47.3660 Y47.3053
S255
G1 X47.3645 Y47.2955
S255
G1 X47.3640 Y47.2832
S255
G1 X47.3677 Y47.2292
S255
G1 X47.3693 Y47.2196
S255
G1 X47.3719 Y47.2101
S255
G1 X47.3754 Y47.2010
S255
G1 X47.3785 Y47.1944
S255
G1 X47.4027 Y47.1510
S255
G1 X47.4095 Y47.1409
S255
G1 X47.4142 Y47.1353
S255
G1 X47.4979 Y47.0414
S255
G1 X47.5829 Y46.9219
S255
G1 X47.6537 Y46.7941
S255
G1 X47.7097 Y46.6588
S255
G1 X47.7498 Y46.5182
S255
G1 X47.7744 Y46.3741
S255
G1 X47.7829 Y46.2280
S255
G1 X47.7744 Y46.0818
S255
G1 X47.7498 Y45.9372
S255
G1 X47.7098 Y45.7967
S255
G1 X47.6537 Y45.6619
S255
G1 X47.5829 Y45.5335
S255
G1 X47.4979 Y45.4142
S255
G1 X47.4008 Y45.3052
S255
G1 X47.2919 Y45.2081
S255
G1 X47.1709 Y45.1224
S255
G1 X47.1651 Y45.1179
S255
G1 X47.1561 Y45.1095
S255
G1 X47.1247 Y45.0759
S255
G1 X47.1174 Y45.0657
S255
G1 X47.1115 Y45.0546
S255
G1 X47.0944 Y45.0121
S255
G1 X47.0907 Y44.9999
S255
G1 X47.0889 Y44.9899
S255
G1 X47.0882 Y44.9798
S255
G1 X47.0882 Y44.9362
S255
G1 X47.0889 Y44.9260
S255
G1 X47.0907 Y44.9161
S255
G1 X47.0935 Y44.9063
S255
G1 X47.1105 Y44.8637
S255
G1 X47.1137 Y44.8569
S255
G1 X47.1188 Y44.8482
S255
G1 X47.1232 Y44.8421
S255
G1 X47.1280 Y44.8363
S255
G1 X47.1578 Y44.8047
S255
G1 X47.1651 Y44.7981
S255
G1 X47.1709 Y44.7936
S255
G1 X47.2918 Y44.7080
S255
G1 X47.4007 Y44.6104
S255
G1 X47.4979 Y44.5013
S255
G1 X47.5829 Y44.3819
S255
G1 X47.6537 Y44.2541
S255
G1 X47.7097 Y44.1188
S255
G1 X47.7498 Y43.9782
S255
G1 X47.7744 Y43.8341
S255
G1 X47.7829 Y43.6880
S255
G1 X47.7744 Y43.5418
S255
G1 X47.7498 Y43.3972
S255
G1 X47.7098 Y43.2567
S255
G1 X47.6537 Y43.1219
S255
G1 X47.5829 Y42.9935
S255
G1 X47.4979 Y42.8742
S255
G1 X47.4008 Y42.7652
S255
G1 X47.2918 Y42.6680
S255
G1 X47.1724 Y42.5831
S255
G1 X47.0440 Y42.5123
S255
G1 X46.9092 Y42.4562
S255
G1 X46.7687 Y42.4161
S255
G1 X46.6241 Y42.3915
S255
G1 X46.4725 Y42.3829
S255
G1 X45.9835 Y42.3829
S255
G1 X45.8318 Y42.3915
S255
G1 X45.6873 Y42.4161
S255
G1 X45.5468 Y42.4562
S255
G1 X45.4119 Y42.5123
S255
G1 X45.2837 Y42.5830
S255
G1 X45.1647 Y42.6680
S255
G1 X45.0552 Y42.7653
S255
G1 X44.9581 Y42.8742
S255
G1 X44.8733 Y42.9933
S255
G1 X44.8532 Y43.0302
S255
G1 X44.8481 Y43.0381
S255
G1 X44.8194 Y43.0735
S255
G1 X44.8143 Y43.0791
S255
G1 X44.8087 Y43.0842
S255
G1 X44.8028 Y43.0889
S255
G1 X44.7966 Y43.0931
S255
G1 X44.7593 Y43.1150
S255
G1 X44.7528 Y43.1182
S255
G1 X44.7438 Y43.1216
S255
G1 X44.7321 Y43.1247
S255
G1 X44.6947 Y43.1312
S255
G1 X44.6874 Y43.1322
S255
G1 X44.6776 Y43.1327
S255
G1 X43.5739 Y43.1326
S255
G1 X43.5643 Y43.1316
S255
G1 X43.5239 Y43.1247
S255
G1 X43.5145 Y43.1224
S255
G1 X43.5054 Y43.1192
S255
G1 X43.4945 Y43.1139
S255
G1 X43.4593 Y43.0932
S255
G1 X43.4495 Y43.0862
S255
G1 X43.4405 Y43.0780
S255
G1 X43.4341 Y43.0708
S255
G1 X43.4118 Y43.0428
S255
G1 X43.4062 Y43.0351
S255
G1 X43.3533 Y42.9408
S255
G1 X43.2621 Y42.8121
S255
G1 X43.1574 Y42.6946
S255
G1 X43.0398 Y42.5898
S255
G1 X42.9113 Y42.4982
S255
G1 X42.7734 Y42.4224
S255
G1 X42.6277 Y42.3622
S255
G1 X42.4764 Y42.3185
S255
G1 X42.3213 Y42.2920
S255
G1 X42.1640 Y42.2830
S255
G1 X42.0067 Y42.2920
S255
G1 X41.8515 Y42.3185
S255
G1 X41.6997 Y42.3622
S255
G1 X41.5541 Y42.4224
S255
G1 X41.4167 Y42.4982
S255
G1 X41.2882 Y42.5898
S255
G1 X41.1706 Y42.6946
S255
G1 X41.0658 Y42.8122
S255
G1 X40.9742 Y42.9407
S255
G1 X40.9231 Y43.0331
S255
G1 X40.9171 Y43.0416
S255
G1 X40.8927 Y43.0716
S255
G1 X40.8878 Y43.0772
S255
G1 X40.8825 Y43.0823
S255
G1 X40.8769 Y43.0871
S255
G1 X40.8688 Y43.0927
S255
G1 X40.8319 Y43.1148
S255
G1 X40.8230 Y43.1190
S255
G1 X40.8113 Y43.1230
S255
G1 X40.8017 Y43.1251
S255
G1 X40.7637 Y43.1316
S255
G1 X40.7565 Y43.1324
S255
G1 X40.7492 Y43.1327
S255
G1 X39.1754 Y43.1327
S255
G1 X39.1658 Y43.1322
S255
G1 X39.1587 Y43.1313
S255
G1 X39.1172 Y43.1232
S255
G1 X39.1075 Y43.1208
S255
G1 X39.1004 Y43.1184
S255
G1 X39.0936 Y43.1155
S255
G1 X39.0826 Y43.1094
S255
G1 X39.0460 Y43.0848
S255
G1 X39.0384 Y43.0789
S255
G1 X39.0331 Y43.0739
S255
G1 X34.9417 Y38.9831
S255
G1 X34.8699 Y38.9212
S255
G1 X34.7957 Y38.8757
S255
G1 X34.7153 Y38.8426
S255
G1 X34.6308 Y38.8224
S255
G1 X34.5359 Y38.8147
S255
G1 X2.9291 Y38.8147
S255
G1 X2.8342 Y38.8224
S255
G1 X2.7497 Y38.8426
S255
G1 X2.6693 Y38.8757
S255
G1 X2.5951 Y38.9212
S255
G1 X2.5232 Y38.9831
S255
G1 X1.2641 Y40.2422
S255
G1 X1.2022 Y40.3141
S255
G1 X1.1567 Y40.3883
S255
G1 X1.1236 Y40.4687
S255
G1 X1.1034 Y40.5532
S255
G1 X1.0957 Y40.6481
S255
G1 X1.0957 Y45.2039
S255
G1 X1.1034 Y45.2988
S255
G1 X1.1236 Y45.3833
S255
G1 X1.1567 Y45.4637
S255
G1 X1.2022 Y45.5379
S255
G1 X1.2641 Y45.6097
S255
G1 X2.0152 Y46.3609
S255
G1 X2.0871 Y46.4228
S255
G1 X2.1613 Y46.4683
S255
G1 X2.2417 Y46.5014
S255
G1 X2.3043 Y46.5165
S255
G1 X2.3164 Y46.5206
S255
G1 X2.3587 Y46.5404
S255
G1 X2.3653 Y46.5439
S255
G1 X2.3757 Y46.5506
S255
G1 X2.3851 Y46.5586
S255
G1 X2.3919 Y46.5658
S255
G1 X2.4193 Y46.5978
S255
G1 X2.4270 Y46.6080
S255
G1 X2.4309 Y46.6145
S255
G1 X2.4902 Y46.7218
S255
G1 X2.5817 Y46.8502
S255
G1 X2.6865 Y46.9674
S255
G1 X2.8041 Y47.0727
S255
G1 X2.9327 Y47.1638
S255
G1 X3.0702 Y47.2401
S255
G1 X3.2157 Y47.3003
S255
G1 X3.3674 Y47.3439
S255
G1 X3.5225 Y47.3700
S255
G1 X3.6799 Y47.3790
S255
G1 X3.8374 Y47.3700
S255
G1 X3.9925 Y47.3439
S255
G1 X4.1437 Y47.3003
S255
G1 X4.2893 Y47.2401
S255
G1 X4.4273 Y47.1638
S255
G1 X4.5558 Y47.0727
S255
G1 X4.6734 Y46.9674
S255
G1 X4.7782 Y46.8503
S255
G1 X4.8692 Y46.7218
S255
G1 X4.9036 Y46.6597
S255
G1 X4.9086 Y46.6516
S255
G1 X4.9158 Y46.6422
S255
G1 X4.9494 Y46.6042
S255
G1 X4.9550 Y46.5992
S255
G1 X4.9609 Y46.5945
S255
G1 X4.9715 Y46.5879
S255
G1 X5.0173 Y46.5667
S255
G1 X5.0242 Y46.5639
S255
G1 X5.0338 Y46.5609
S255
G1 X5.0437 Y46.5589
S255
G1 X5.0536 Y46.5579
S255
G1 X5.1063 Y46.5579
S255
G1 X5.1188 Y46.5593
S255
G1 X5.1286 Y46.5615
S255
G1 X5.1404 Y46.5657
S255
G1 X5.1863 Y46.5867
S255
G1 X5.1971 Y46.5931
S255
G1 X5.2069 Y46.6008
S255
G1 X5.2157 Y46.6097
S255
G1 X5.2457 Y46.6440
S255
G1 X5.2514 Y46.6516
S255
G1 X5.2564 Y46.6597
S255
G1 X5.2908 Y46.7218
S255
G1 X5.3818 Y46.8503
S255
G1 X5.4866 Y46.9674
S255
G1 X5.6042 Y47.0727
S255
G1 X5.7327 Y47.1638
S255
G1 X5.8707 Y47.2401
S255
G1 X6.0163 Y47.3003
S255
G1 X6.1675 Y47.3439
S255
G1 X6.3226 Y47.3700
S255
G1 X6.4800 Y47.3790
S255
G1 X6.6375 Y47.3700
S255
G1 X6.7926 Y47.3439
S255
G1 X6.9438 Y47.3003
S255
G1 X7.0894 Y47.2401
S255
G1 X7.2274 Y47.1638
S255
G1 X7.3559 Y47.0727
S255
G1 X7.4735 Y46.9674
S255
G1 X7.5783 Y46.8503
S255
G1 X7.6693 Y46.7218
S255
G1 X7.7185 Y46.6332
S255
G1 X7.7224 Y46.6266
S255
G1 X7.7285 Y46.6183
S255
G1 X7.7514 Y46.5904
S255
G1 X7.7597 Y46.5814
S255
G1 X7.7672 Y46.5749
S255
G1 X7.7752 Y46.5692
S255
G1 X7.8099 Y46.5484
S255
G1 X7.8165 Y46.5450
S255
G1 X7.8233 Y46.5421
S255
G1 X7.8327 Y46.5390
S255
G1 X7.8399 Y46.5373
S255
G1 X7.8803 Y46.5304
S255
G1 X7.8900 Y46.5294
S255
G1 X26.1539 Y46.5293
S255
G1 X26.2488 Y46.5216
S255
G1 X26.3333 Y46.5014
S255
G1 X26.4137 Y46.4683
S255
G1 X26.4879 Y46.4228
S255
G1 X26.5597 Y46.3609
S255
G1 X30.7781 Y42.1431
S255
G1 X30.7853 Y42.1366
S255
G1 X30.7911 Y42.1321
S255
G1 X30.8277 Y42.1076
S255
G1 X30.8341 Y42.1038
S255
G1 X30.8408 Y42.1005
S255
G1 X30.8501 Y42.0969
S255
G1 X30.8573 Y42.0949
S255
G1 X30.9037 Y42.0857
S255
G1 X30.9108 Y42.0848
S255
G1 X30.9204 Y42.0843
S255
G1 X33.3416 Y42.0843
S255
G1 X33.3512 Y42.0848
S255
G1 X33.3583 Y42.0857
S255
G1 X33.4022 Y42.0943
S255
G1 X33.4095 Y42.0962
S255
G1 X33.4189 Y42.0995
S255
G1 X33.4257 Y42.1026
S255
G1 X33.4322 Y42.1063
S255
G1 X33.4709 Y42.1321
S255
G1 X33.4767 Y42.1366
S255
G1 X33.4839 Y42.1431
S255
G1 X36.7239 Y45.3831
S255
G1 X36.7304 Y45.3903
S255
G1 X36.7348 Y45.3960
S255
G1 X36.7594 Y45.4326
S255
G1 X36.7644 Y45.4413
S255
G1 X36.7693 Y45.4528
S255
G1 X36.7727 Y45.4648
S255
G1 X36.7813 Y45.5087
S255
G1 X36.7822 Y45.5158
S255
G1 X36.7827 Y45.5254
S255
G1 X36.7827 Y48.5059
S255
G1 X36.7904 Y48.6008
S255
G1 X36.8106 Y48.6853
S255
G1 X36.8437 Y48.7657
S255
G1 X36.8892 Y48.8399
S255
G1 X36.9511 Y48.9117
S255
G1 X42.4012 Y54.3619
S255
G1 X42.4731 Y54.4238
S255
G1 X42.5473 Y54.4693
S255
G1 X42.6277 Y54.5024
S255
G1 X42.7122 Y54.5226
S255
G1 X42.8071 Y54.5303
S255
G1 X58.5389 Y54.5303
S255
G1 X58.6338 Y54.5226
S255
G1 X58.7183 Y54.5024
S255
G1 X58.7987 Y54.4693
S255
G1 X58.8729 Y54.4238
S255
G1 X58.9447 Y54.3619
S255
G1 X63.9251 Y49.3821
S255
G1 X63.9304 Y49.3771
S255
G1 X63.9381 Y49.3711
S255
G1 X63.9747 Y49.3466
S255
G1 X63.9811 Y49.3428
S255
G1 X63.9878 Y49.3395
S255
G1 X63.9971 Y49.3359
S255
G1 X64.0043 Y49.3339
S255
G1 X64.0507 Y49.3247
S255
G1 X64.0578 Y49.3238
S255
G1 X64.0674 Y49.3233
S255
G1 X66.6572 Y49.3233
S255
G1 X66.6645 Y49.3236
S255
G1 X66.6717 Y49.3244
S255
G1 X66.7120 Y49.3313
S255
G1 X66.7215 Y49.3336
S255
G1 X66.7306 Y49.3368
S255
G1 X66.7415 Y49.3421
S255
G1 X66.7787 Y49.3641
S255
G1 X66.7884 Y49.3714
S255
G1 X66.7971 Y49.3797
S255
G1 X66.8242 Y49.4132
S255
G1 X66.8312 Y49.4231
S255
G1 X66.8822 Y49.5153
S255
G1 X66.9738 Y49.6438
S255
G1 X67.0786 Y49.7614
S255
G1 X67.1961 Y49.8662
S255
G1 X67.2215 Y49.8842
S255
G1 X67.2308 Y49.8921
S255
G1 X67.2674 Y49.9324
S255
G1 X67.2718 Y49.9381
S255
G1 X67.2757 Y49.9441
S255
G1 X67.2812 Y49.9546
S255
G1 X67.2847 Y49.9635
S255
G1 X67.2992 Y50.0060
S255
G1 X67.3022 Y50.0181
S255
G1 X67.3035 Y50.0281
S255
G1 X67.3038 Y50.0356
S255
G1 X67.3036 Y50.0431
S255
G1 X67.2993 Y50.0877
S255
G1 X67.2973 Y50.1001
S255
G1 X67.2946 Y50.1097
S255
G1 X67.2910 Y50.1191
S255
G1 X67.2864 Y50.1280
S255
G1 X67.2638 Y50.1672
S255
G1 X67.2583 Y50.1753
S255
G1 X67.2537 Y50.1810
S255
G1 X67.2451 Y50.1898
S255
G1 X67.2375 Y50.1959
S255
G1 X67.2014 Y50.2223
S255
G1 X67.1929 Y50.2276
S255
G1 X67.1861 Y50.2310
S255
G1 X67.1744 Y50.2355
S255
G1 X67.1647 Y50.2380
S255
G1 X67.1205 Y50.2471
S255
G1 X67.1104 Y50.2484
S255
G1 X67.1027 Y50.2487
S255
G1 X64.5212 Y50.2487
S255
G1 X64.4298 Y50.2535
S255
G1 X64.4103 Y50.2557
S255
G1 X64.3005 Y50.2783
S255
G1 X64.1967 Y50.3149
S255
G1 X64.0984 Y50.3658
S255
G1 X64.0271 Y50.4143
S255
G1 X64.0106 Y50.4274
S255
G1 X63.9428 Y50.4885
S255
G1 X56.8758 Y57.5560
S255
G1 X56.8683 Y57.5627
S255
G1 X56.8602 Y57.5687
S255
G1 X56.8251 Y57.5919
S255
G1 X56.8188 Y57.5955
S255
G1 X56.8099 Y57.5997
S255
G1 X56.8007 Y57.6029
S255
G1 X56.7912 Y57.6053
S255
G1 X56.7497 Y57.6133
S255
G1 X56.7425 Y57.6143
S255
G1 X56.7353 Y57.6147
S255
G1 X51.0626 Y57.6147
S255
G1 X51.0551 Y57.6145
S255
G1 X51.0151 Y57.6086
S255
G1 X51.0079 Y57.6070
S255
G1 X51.0007 Y57.6049
S255
G1 X50.9915 Y57.6013
S255
G1 X50.9596 Y57.5859
S255
G1 X50.9530 Y57.5823
S255
G1 X50.9468 Y57.5781
S255
G1 X50.9389 Y57.5718
S255
G1 X50.9109 Y57.5456
S255
G1 X50.9040 Y57.5376
S255
G1 X50.8646 Y57.4871
S255
G1 X50.7707 Y57.3931
S255
G1 X50.6654 Y57.3107
S255
G1 X50.5512 Y57.2417
S255
G1 X50.4297 Y57.1868
S255
G1 X50.3022 Y57.1472
S255
G1 X50.1712 Y57.1234
S255
G1 X50.0380 Y57.1151
S255
G1 X49.9048 Y57.1234
S255
G1 X49.7733 Y57.1472
S255
G1 X49.6464 Y57.1868
S255
G1 X49.5247 Y57.2417
S255
G1 X49.4101 Y57.3107
S255
G1 X49.3053 Y57.3931
S255
G1 X49.2110 Y57.4870
S255
G1 X49.1678 Y57.5426
S255
G1 X49.1613 Y57.5493
S255
G1 X49.1389 Y57.5701
S255
G1 X49.1292 Y57.5781
S255
G1 X49.1230 Y57.5823
S255
G1 X49.1164 Y57.5859
S255
G1 X49.0845 Y57.6013
S255
G1 X49.0751 Y57.6050
S255
G1 X49.0680 Y57.6071
S255
G1 X49.0606 Y57.6087
S255
G1 X49.0277 Y57.6136
S255
G1 X49.0178 Y57.6146
S255
G1 X39.6601 Y57.6147
S255
G1 X39.6505 Y57.6143
S255
G1 X39.6433 Y57.6133
S255
G1 X39.5994 Y57.6048
S255
G1 X39.5923 Y57.6029
S255
G1 X39.5854 Y57.6006
S255
G1 X39.5742 Y57.5955
S255
G1 X39.5658 Y57.5905
S255
G1 X39.5307 Y57.5673
S255
G1 X39.5247 Y57.5627
S255
G1 X39.5172 Y57.5560
S255
G1 X32.8680 Y50.9068
S255
G1 X32.8629 Y50.9012
S255
G1 X32.8567 Y50.8933
S255
G1 X32.8296 Y50.8519
S255
G1 X32.8263 Y50.8454
S255
G1 X32.8234 Y50.8386
S255
G1 X32.8211 Y50.8317
S255
G1 X32.8192 Y50.8246
S255
G1 X32.8107 Y50.7807
S255
G1 X32.8097 Y50.7735
S255
G1 X32.8093 Y50.7639
S255
G1 X32.8093 Y47.4797
S255
G1 X32.8101 Y47.4670
S255
G1 X32.8200 Y47.4177
S255
G1 X32.8225 Y47.4080
S255
G1 X32.8260 Y47.3986
S255
G1 X32.8292 Y47.3918
S255
G1 X32.8330 Y47.3853
S255
G1 X32.8372 Y47.3790
S255
G1 X32.8635 Y47.3431
S255
G1 X32.8712 Y47.3342
S255
G1 X32.9974 Y47.2214
S255
G1 X33.1021 Y47.1039
S255
G1 X33.1933 Y46.9753
S255
G1 X33.2696 Y46.8373
S255
G1 X33.3298 Y46.6917
S255
G1 X33.3735 Y46.5404
S255
G1 X33.4000 Y46.3850
S255
G1 X33.4085 Y46.2280
S255
G1 X33.4000 Y46.0705
S255
G1 X33.3735 Y45.9155
S255
G1 X33.3298 Y45.7637
S255
G1 X33.2696 Y45.6182
S255
G1 X33.1933 Y45.4807
S255
G1 X33.1021 Y45.3521
S255
G1 X32.9974 Y45.2346
S255
G1 X32.8798 Y45.1298
S255
G1 X32.7513 Y45.0382
S255
G1 X32.6134 Y44.9624
S255
G1 X32.4677 Y44.9022
S255
G1 X32.3164 Y44.8585
S255
G1 X32.2854 Y44.8532
S255
G1 X32.2357 Y44.8654
S255
G1 X32.1241 Y44.8820
S255
G1 X32.1167 Y44.8826
S255
G1 X32.0040 Y44.8880
S255
G1 X31.8913 Y44.8826
S255
G1 X31.8839 Y44.8820
S255
G1 X31.7723 Y44.8654
S255
G1 X31.7226 Y44.8532
S255
G1 X31.6915 Y44.8585
S255
G1 X31.5397 Y44.9022
S255
G1 X31.3941 Y44.9624
S255
G1 X31.2567 Y45.0382
S255
G1 X31.1282 Y45.1298
S255
G1 X31.0106 Y45.2346
S255
G1 X30.9058 Y45.3522
S255
G1 X30.8142 Y45.4807
S255
G1 X30.7384 Y45.6181
S255
G1 X30.6782 Y45.7637
S255
G1 X30.6345 Y45.9155
S255
G1 X30.6080 Y46.0707
S255
G1 X30.5990 Y46.2280
S255
G1 X30.6080 Y46.3848
S255
G1 X30.6345 Y46.5404
S255
G1 X30.6782 Y46.6917
S255
G1 X30.7384 Y46.8374
S255
G1 X30.8142 Y46.9753
S255
G1 X30.9058 Y47.1038
S255
G1 X31.0106 Y47.2214
S255
G1 X31.1317 Y47.3293
S255
G1 X31.1384 Y47.3359
S255
G1 X31.1445 Y47.3431
S255
G1 X31.1723 Y47.3811
S255
G1 X31.1776 Y47.3896
S255
G1 X31.1820 Y47.3986
S255
G1 X31.1855 Y47.4080
S255
G1 X31.1875 Y47.4153
S255
G1 X31.1967 Y47.4594
S255
G1 X31.1979 Y47.4670
S255
G1 X31.1987 Y47.4797
S255
G1 X31.1987 Y49.6926
S255
G1 X31.1983 Y49.7023
S255
G1 X31.1968 Y49.7119
S255
G1 X31.1887 Y49.7530
S255
G1 X31.1868 Y49.7601
S255
G1 X31.1844 Y49.7672
S255
G1 X31.1804 Y49.7762
S255
G1 X31.1755 Y49.7848
S255
G1 X31.1510 Y49.8214
S255
G1 X31.1452 Y49.8288
S255
G1 X30.6730 Y50.3064
S255
G1 X30.6674 Y50.3117
S255
G1 X30.6613 Y50.3166
S255
G1 X30.6219 Y50.3427
S255
G1 X30.6131 Y50.3477
S255
G1 X30.6038 Y50.3517
S255
G1 X30.5917 Y50.3553
S255
G1 X30.5501 Y50.3640
S255
G1 X30.5401 Y50.3656
S255
G1 X30.5300 Y50.3661
S255
G1 X26.5500 Y50.3736
S255
G1 X26.5404 Y50.3727
S255
G1 X26.5050 Y50.3667
S255
G1 X26.4978 Y50.3652
S255
G1 X26.4908 Y50.3632
S255
G1 X26.4840 Y50.3607
S255
G1 X26.4773 Y50.3577
S255
G1 X26.4429 Y50.3397
S255
G1 X26.4363 Y50.3356
S255
G1 X26.4300 Y50.3310
S255
G1 X26.3544 Y50.2717
S255
G1 X26.2403 Y50.2024
S255
G1 X26.1190 Y50.1480
S255
G1 X25.9912 Y50.1083
S255
G1 X25.8597 Y50.0841
S255
G1 X25.7205 Y50.0755
S255
G1 X25.3330 Y50.0755
S255
G1 X25.1937 Y50.0841
S255
G1 X25.0623 Y50.1083
S255
G1 X24.9351 Y50.1479
S255
G1 X24.8136 Y50.2024
S255
G1 X24.6995 Y50.2718
S255
G1 X24.5942 Y50.3538
S255
G1 X24.5001 Y50.4483
S255
G1 X24.4176 Y50.5532
S255
G1 X24.3487 Y50.6673
S255
G1 X24.2938 Y50.7888
S255
G1 X24.2542 Y50.9164
S255
G1 X24.2300 Y51.0478
S255
G1 X24.2220 Y51.1810
S255
G1 X24.2300 Y51.3142
S255
G1 X24.2542 Y51.4450
S255
G1 X24.2938 Y51.5727
S255
G1 X24.3487 Y51.6942
S255
G1 X24.4176 Y51.8083
S255
G1 X24.5001 Y51.9132
S255
G1 X24.5943 Y52.0078
S255
G1 X24.6995 Y52.0901
S255
G1 X24.8135 Y52.1590
S255
G1 X24.9352 Y52.2136
S255
G1 X25.0623 Y52.2536
S255
G1 X25.1936 Y52.2774
S255
G1 X25.3330 Y52.2860
S255
G1 X25.7205 Y52.2860
S255
G1 X25.8599 Y52.2774
S255
G1 X25.9912 Y52.2536
S255
G1 X26.1188 Y52.2136
S255
G1 X26.2405 Y52.1590
S255
G1 X26.3545 Y52.0902
S255
G1 X26.4350 Y52.0269
S255
G1 X26.4408 Y52.0227
S255
G1 X26.4490 Y52.0177
S255
G1 X26.4802 Y52.0008
S255
G1 X26.4871 Y51.9976
S255
G1 X26.4942 Y51.9949
S255
G1 X26.5016 Y51.9928
S255
G1 X26.5090 Y51.9912
S255
G1 X26.5444 Y51.9853
S255
G1 X26.5538 Y51.9843
S255
G1 X31.5745 Y51.9741
S255
G1 X31.5849 Y51.9746
S255
G1 X31.5926 Y51.9757
S255
G1 X31.6367 Y51.9848
S255
G1 X31.6440 Y51.9868
S255
G1 X31.6511 Y51.9894
S255
G1 X31.6625 Y51.9948
S255
G1 X31.7041 Y52.0220
S255
G1 X31.7121 Y52.0282
S255
G1 X31.7176 Y52.0333
S255
G1 X38.6698 Y58.9855
S255
G1 X38.7376 Y59.0466
S255
G1 X38.7541 Y59.0597
S255
G1 X38.8254 Y59.1081
S255
G1 X38.9237 Y59.1591
S255
G1 X39.0275 Y59.1957
S255
G1 X39.1373 Y59.2183
S255
G1 X39.1568 Y59.2205
S255
G1 X39.2482 Y59.2253
S255
G1 X49.0152 Y59.2253
S255
G1 X49.0224 Y59.2257
S255
G1 X49.0318 Y59.2271
S255
G1 X49.0854 Y59.2390
S255
G1 X49.0945 Y59.2422
S255
G1 X49.1011 Y59.2451
S255
G1 X49.1075 Y59.2485
S255
G1 X49.1155 Y59.2538
S255
G1 X49.1564 Y59.2862
S255
G1 X49.1653 Y59.2947
S255
G1 X49.1702 Y59.3004
S255
G1 X49.2230 Y59.3664
S255
G1 X49.2275 Y59.3724
S255
G1 X49.2327 Y59.3810
S255
G1 X49.2548 Y59.4242
S255
G1 X49.2585 Y59.4335
S255
G1 X49.2612 Y59.4432
S255
G1 X49.2632 Y59.4555
S255
G1 X49.2667 Y59.5035
S255
G1 X49.2663 Y59.5157
S255
G1 X49.2644 Y59.5278
S255
G1 X49.2618 Y59.5373
S255
G1 X49.2464 Y59.5805
S255
G1 X49.2412 Y59.5919
S255
G1 X49.2347 Y59.6025
S255
G1 X49.2268 Y59.6122
S255
G1 X49.1944 Y59.6473
S255
G1 X49.1890 Y59.6520
S255
G1 X49.1814 Y59.6577
S255
G1 X49.1753 Y59.6615
S255
G1 X49.1668 Y59.6658
S255
G1 X49.1297 Y59.6826
S255
G1 X49.1204 Y59.6862
S255
G1 X49.1084 Y59.6895
S255
G1 X49.1010 Y59.6907
S255
G1 X49.0935 Y59.6913
S255
G1 X49.0473 Y59.6925
S255
G1 X49.0372 Y59.6919
S255
G1 X49.0296 Y59.6909
S255
G1 X48.9007 Y59.6675
S255
G1 X48.7680 Y59.6591
S255
G1 X48.6348 Y59.6675
S255
G1 X48.5032 Y59.6913
S255
G1 X48.3758 Y59.7308
S255
G1 X48.2543 Y59.7858
S255
G1 X48.1402 Y59.8547
S255
G1 X48.0353 Y59.9372
S255
G1 X47.9407 Y60.0313
S255
G1 X47.8583 Y60.1365
S255
G1 X47.7894 Y60.2506
S255
G1 X47.7349 Y60.3722
S255
G1 X47.6948 Y60.4999
S255
G1 X47.6711 Y60.6307
S255
G1 X47.6625 Y60.7700
S255
G1 X47.6625 Y61.6580
S255
G1 X47.6711 Y61.7973
S255
G1 X47.6948 Y61.9281
S255
G1 X47.7349 Y62.0558
S255
G1 X47.7894 Y62.1774
S255
G1 X47.8583 Y62.2915
S255
G1 X47.9407 Y62.3966
S255
G1 X48.0352 Y62.4907
S255
G1 X48.1397 Y62.5727
S255
G1 X48.1472 Y62.5799
S255
G1 X48.1730 Y62.6080
S255
G1 X48.1789 Y62.6161
S255
G1 X48.1839 Y62.6248
S255
G1 X48.1993 Y62.6568
S255
G1 X48.2029 Y62.6660
S255
G1 X48.2056 Y62.6756
S255
G1 X48.2070 Y62.6830
S255
G1 X48.2119 Y62.7159
S255
G1 X48.2126 Y62.7259
S255
G1 X48.2127 Y76.0136
S255
G1 X48.2122 Y76.0232
S255
G1 X48.2108 Y76.0327
S255
G1 X48.2027 Y76.0742
S255
G1 X48.2008 Y76.0815
S255
G1 X48.1984 Y76.0886
S255
G1 X48.1944 Y76.0977
S255
G1 X48.1881 Y76.1085
S255
G1 X48.1648 Y76.1430
S255
G1 X48.1604 Y76.1487
S255
G1 X48.1539 Y76.1559
S255
G1 X37.8401 Y86.4702
S255
G1 X37.7782 Y86.5421
S255
G1 X37.7327 Y86.6163
S255
G1 X37.6996 Y86.6967
S255
G1 X37.6794 Y86.7812
S255
G1 X37.6717 Y86.8761
S255
G1 X37.6717 Y88.9970
S255
G1 X37.6707 Y89.0109
S255
G1 X37.6639 Y89.0520
S255
G1 X37.6614 Y89.0613
S255
G1 X37.6590 Y89.0680
S255
G1 X37.6561 Y89.0746
S255
G1 X37.6527 Y89.0810
S255
G1 X37.6315 Y89.1173
S255
G1 X37.6238 Y89.1272
S255
G1 X37.6168 Y89.1343
S255
G1 X37.5871 Y89.1606
S255
G1 X37.5788 Y89.1668
S255
G1 X37.4905 Y89.2200
S255
G1 X37.3726 Y89.3110
S255
G1 X37.2655 Y89.4148
S255
G1 X37.1712 Y89.5303
S255
G1 X37.0909 Y89.6554
S255
G1 X37.0249 Y89.7894
S255
G1 X36.9749 Y89.9294
S255
G1 X36.9414 Y90.0747
S255
G1 X36.9244 Y90.2230
S255
G1 X36.9244 Y90.3715
S255
G1 X36.9414 Y90.5198
S255
G1 X36.9749 Y90.6651
S255
G1 X37.0248 Y90.8050
S255
G1 X37.0909 Y90.9386
S255
G1 X37.1712 Y91.0643
S255
G1 X37.2655 Y91.1797
S255
G1 X37.3725 Y91.2834
S255
G1 X37.4906 Y91.3741
S255
G1 X37.6181 Y91.4515
S255
G1 X37.7532 Y91.5132
S255
G1 X37.8953 Y91.5590
S255
G1 X38.0411 Y91.5888
S255
G1 X38.1897 Y91.6015
S255
G1 X38.3383 Y91.5972
S255
G1 X38.4860 Y91.5760
S255
G1 X38.6299 Y91.5383
S255
G1 X38.7691 Y91.4840
S255
G1 X38.9008 Y91.4146
S255
G1 X39.0238 Y91.3307
S255
G1 X39.1361 Y91.2331
S255
G1 X39.2371 Y91.1231
S255
G1 X39.3244 Y91.0028
S255
G1 X39.3980 Y90.8730
S255
G1 X39.4560 Y90.7358
S255
G1 X39.4980 Y90.5929
S255
G1 X39.5230 Y90.4462
S255
G1 X39.5315 Y90.2970
S255
G1 X39.5230 Y90.1483
S255
G1 X39.4980 Y90.0016
S255
G1 X39.4560 Y89.8587
S255
G1 X39.3980 Y89.7215
S255
G1 X39.3244 Y89.5917
S255
G1 X39.2371 Y89.4714
S255
G1 X39.1361 Y89.3614
S255
G1 X39.0237 Y89.2637
S255
G1 X38.8512 Y89.1456
S255
G1 X38.8417 Y89.1382
S255
G1 X38.8365 Y89.1333
S255
G1 X38.8316 Y89.1280
S255
G1 X38.8258 Y89.1204
S255
G1 X38.8219 Y89.1143
S255
G1 X38.7996 Y89.0766
S255
G1 X38.7949 Y89.0656
S255
G1 X38.7915 Y89.0542
S255
G1 X38.7835 Y89.0110
S255
G1 X38.7826 Y89.0032
S255
G1 X38.7823 Y88.9955
S255
G1 X38.7823 Y87.1790
S255
G1 X38.7828 Y87.1718
S255
G1 X38.7837 Y87.1647
S255
G1 X38.7918 Y87.1232
S255
G1 X38.7935 Y87.1159
S255
G1 X38.7966 Y87.1064
S255
G1 X38.7995 Y87.0996
S255
G1 X38.8042 Y87.0908
S255
G1 X38.8288 Y87.0540
S255
G1 X38.8346 Y87.0463
S255
G1 X38.8411 Y87.0391
S255
G1 X49.1549 Y76.7247
S255
G1 X49.2168 Y76.6529
S255
G1 X49.2623 Y76.5787
S255
G1 X49.2954 Y76.4983
S255
G1 X49.3156 Y76.4138
S255
G1 X49.3233 Y76.3189
S255
G1 X49.3234 Y62.7228
S255
G1 X49.3245 Y62.7128
S255
G1 X49.3294 Y62.6803
S255
G1 X49.3310 Y62.6731
S255
G1 X49.3331 Y62.6659
S255
G1 X49.3367 Y62.6567
S255
G1 X49.3521 Y62.6248
S255
G1 X49.3571 Y62.6161
S255
G1 X49.3630 Y62.6080
S255
G1 X49.3887 Y62.5799
S255
G1 X49.3961 Y62.5728
S255
G1 X49.5002 Y62.4908
S255
G1 X49.5948 Y62.3966
S255
G1 X49.6771 Y62.2915
S255
G1 X49.7460 Y62.1774
S255
G1 X49.8005 Y62.0558
S255
G1 X49.8440 Y61.9167
S255
G1 X49.8472 Y61.9080
S255
G1 X49.8523 Y61.8976
S255
G1 X49.8743 Y61.8583
S255
G1 X49.8799 Y61.8500
S255
G1 X49.8846 Y61.8441
S255
G1 X49.8915 Y61.8369
S255
G1 X49.8990 Y61.8304
S255
G1 X49.9376 Y61.8020
S255
G1 X49.9438 Y61.7981
S255
G1 X49.9503 Y61.7945
S255
G1 X49.9592 Y61.7906
S255
G1 X49.9686 Y61.7876
S255
G1 X50.0150 Y61.7772
S255
G1 X50.0248 Y61.7756
S255
G1 X50.0346 Y61.7749
S255
G1 X50.0420 Y61.7751
S255
G1 X50.0519 Y61.7761
S255
G1 X50.1056 Y61.7872
S255
G1 X50.1147 Y61.7900
S255
G1 X50.1235 Y61.7937
S255
G1 X50.1320 Y61.7982
S255
G1 X50.1399 Y61.8035
S255
G1 X50.1764 Y61.8304
S255
G1 X50.1822 Y61.8352
S255
G1 X50.1876 Y61.8404
S255
G1 X50.1941 Y61.8480
S255
G1 X50.1998 Y61.8562
S255
G1 X50.2232 Y61.8976
S255
G1 X50.2274 Y61.9059
S255
G1 X50.2308 Y61.9145
S255
G1 X50.2749 Y62.0558
S255
G1 X50.3294 Y62.1774
S255
G1 X50.3983 Y62.2915
S255
G1 X50.4807 Y62.3966
S255
G1 X50.5752 Y62.4907
S255
G1 X50.6797 Y62.5727
S255
G1 X50.6872 Y62.5799
S255
G1 X50.7130 Y62.6080
S255
G1 X50.7189 Y62.6161
S255
G1 X50.7239 Y62.6248
S255
G1 X50.7393 Y62.6568
S255
G1 X50.7429 Y62.6660
S255
G1 X50.7450 Y62.6732
S255
G1 X50.7466 Y62.6805
S255
G1 X50.7516 Y62.7135
S255
G1 X50.7526 Y62.7234
S255
G1 X50.7527 Y76.1919
S255
G1 X50.7604 Y76.2868
S255
G1 X50.7806 Y76.3713
S255
G1 X50.8137 Y76.4517
S255
G1 X50.8592 Y76.5259
S255
G1 X50.9211 Y76.5977
S255
G1 X61.1079 Y86.7851
S255
G1 X61.1129 Y86.7904
S255
G1 X61.1188 Y86.7980
S255
G1 X61.1421 Y86.8325
S255
G1 X61.1472 Y86.8411
S255
G1 X61.1515 Y86.8501
S255
G1 X61.1548 Y86.8595
S255
G1 X61.1572 Y86.8692
S255
G1 X61.1653 Y86.9107
S255
G1 X61.1662 Y86.9178
S255
G1 X61.1667 Y86.9250
S255
G1 X61.1667 Y88.8700
S255
G1 X61.1657 Y88.8839
S255
G1 X61.1583 Y88.9273
S255
G1 X61.1549 Y88.9388
S255
G1 X61.1511 Y88.9476
S255
G1 X61.1305 Y88.9840
S255
G1 X61.1265 Y88.9903
S255
G1 X61.1220 Y88.9963
S255
G1 X61.1171 Y89.0020
S255
G1 X61.1118 Y89.0073
S255
G1 X61.0821 Y89.0336
S255
G1 X61.0738 Y89.0398
S255
G1 X60.9855 Y89.0930
S255
G1 X60.8676 Y89.1840
S255
G1 X60.7605 Y89.2878
S255
G1 X60.6662 Y89.4033
S255
G1 X60.5859 Y89.5284
S255
G1 X60.5199 Y89.6624
S255
G1 X60.4699 Y89.8024
S255
G1 X60.4364 Y89.9477
S255
G1 X60.4194 Y90.0960
S255
G1 X60.4194 Y90.2445
S255
G1 X60.4364 Y90.3928
S255
G1 X60.4699 Y90.5381
S255
G1 X60.5198 Y90.6780
S255
G1 X60.5859 Y90.8116
S255
G1 X60.6662 Y90.9373
S255
G1 X60.7605 Y91.0527
S255
G1 X60.8675 Y91.1564
S255
G1 X60.9857 Y91.2472
S255
G1 X61.0344 Y91.2769
S255
G1 X61.0422 Y91.2822
S255
G1 X61.0496 Y91.2882
S255
G1 X61.0828 Y91.3198
S255
G1 X61.0878 Y91.3249
S255
G1 X61.0939 Y91.3323
S255
G1 X61.0979 Y91.3382
S255
G1 X61.1027 Y91.3464
S255
G1 X61.1067 Y91.3551
S255
G1 X61.1247 Y91.4004
S255
G1 X61.1275 Y91.4101
S255
G1 X61.1289 Y91.4175
S255
G1 X61.1298 Y91.4250
S255
G1 X61.1301 Y91.4325
S255
G1 X61.1278 Y91.4837
S255
G1 X61.1270 Y91.4911
S255
G1 X61.1256 Y91.4985
S255
G1 X61.1222 Y91.5104
S255
G1 X61.1172 Y91.5218
S255
G1 X61.0940 Y91.5648
S255
G1 X61.0872 Y91.5752
S255
G1 X61.0791 Y91.5847
S255
G1 X61.0700 Y91.5931
S255
G1 X61.0315 Y91.6225
S255
G1 X61.0233 Y91.6279
S255
G1 X61.0168 Y91.6314
S255
G1 X61.0078 Y91.6352
S255
G1 X60.9960 Y91.6388
S255
G1 X60.9487 Y91.6490
S255
G1 X60.9370 Y91.6505
S255
G1 X60.8691 Y91.6507
S255
G1 X60.8619 Y91.6505
S255
G1 X60.8499 Y91.6489
S255
G1 X60.8037 Y91.6396
S255
G1 X60.7967 Y91.6374
S255
G1 X60.7898 Y91.6347
S255
G1 X60.7832 Y91.6315
S255
G1 X60.7768 Y91.6279
S255
G1 X60.7397 Y91.6033
S255
G1 X60.7337 Y91.5987
S255
G1 X60.7262 Y91.5920
S255
G1 X58.3277 Y89.1929
S255
G1 X58.3226 Y89.1872
S255
G1 X58.3180 Y89.1810
S255
G1 X58.2932 Y89.1434
S255
G1 X58.2885 Y89.1353
S255
G1 X58.2845 Y89.1268
S255
G1 X58.2695 Y89.0882
S255
G1 X58.2307 Y89.0102
S255
G1 X58.2204 Y88.9922
S255
G1 X58.1707 Y88.9191
S255
G1 X58.1576 Y88.9026
S255
G1 X58.0965 Y88.8348
S255
G1 X55.9446 Y86.6829
S255
G1 X55.8795 Y86.6237
S255
G1 X55.7866 Y86.5589
S255
G1 X55.7697 Y86.5488
S255
G1 X55.6688 Y86.5004
S255
G1 X55.5634 Y86.4668
S255
G1 X55.4808 Y86.4513
S255
G1 X55.3662 Y86.4437
S255
G1 X48.7732 Y86.4437
S255
G1 X48.6818 Y86.4485
S255
G1 X48.6615 Y86.4508
S255
G1 X48.5741 Y86.4673
S255
G1 X48.5539 Y86.4726
S255
G1 X48.4695 Y86.5009
S255
G1 X48.4505 Y86.5089
S255
G1 X48.3709 Y86.5484
S255
G1 X48.3534 Y86.5589
S255
G1 X48.2604 Y86.6238
S255
G1 X48.1948 Y86.6830
S255
G1 X46.9329 Y87.9453
S255
G1 X46.8573 Y88.0312
S255
G1 X46.7965 Y88.1234
S255
G1 X46.7592 Y88.1988
S255
G1 X46.7223 Y88.3031
S255
G1 X46.6997 Y88.4127
S255
G1 X46.6976 Y88.4321
S255
G1 X46.6921 Y88.5620
S255
G1 X46.6907 Y88.5713
S255
G1 X46.6815 Y88.6153
S255
G1 X46.6788 Y88.6247
S255
G1 X46.6753 Y88.6337
S255
G1 X46.6709 Y88.6423
S255
G1 X46.6657 Y88.6505
S255
G1 X46.6388 Y88.6865
S255
G1 X46.6326 Y88.6941
S255
G1 X46.6256 Y88.7010
S255
G1 X46.5742 Y88.7472
S255
G1 X46.4765 Y88.8563
S255
G1 X46.3921 Y88.9755
S255
G1 X46.3213 Y89.1040
S255
G1 X46.2651 Y89.2390
S255
G1 X46.2245 Y89.3795
S255
G1 X46.2000 Y89.5237
S255
G1 X46.1918 Y89.6754
S255
G1 X46.1918 Y90.6646
S255
G1 X46.2000 Y90.8162
S255
G1 X46.2245 Y90.9605
S255
G1 X46.2651 Y91.1010
S255
G1 X46.3213 Y91.2360
S255
G1 X46.3791 Y91.3409
S255
G1 X46.3826 Y91.3479
S255
G1 X46.3864 Y91.3576
S255
G1 X46.4005 Y91.4040
S255
G1 X46.4022 Y91.4111
S255
G1 X46.4037 Y91.4207
S255
G1 X46.4042 Y91.4279
S255
G1 X46.4040 Y91.4376
S255
G1 X46.3967 Y91.4905
S255
G1 X46.3939 Y91.5028
S255
G1 X46.3895 Y91.5146
S255
G1 X46.3837 Y91.5257
S255
G1 X46.3577 Y91.5665
S255
G1 X46.3519 Y91.5742
S255
G1 X46.3471 Y91.5796
S255
G1 X45.5355 Y92.3908
S255
G1 X45.4744 Y92.4586
S255
G1 X45.4613 Y92.4751
S255
G1 X45.4128 Y92.5464
S255
G1 X45.3619 Y92.6447
S255
G1 X45.3253 Y92.7485
S255
G1 X45.3027 Y92.8583
S255
G1 X45.3005 Y92.8778
S255
G1 X45.2957 Y92.9692
S255
G1 X45.2955 Y93.1230
S255
G1 X45.2939 Y93.1348
S255
G1 X45.2843 Y93.1792
S255
G1 X45.2819 Y93.1885
S255
G1 X45.2794 Y93.1952
S255
G1 X45.2744 Y93.2060
S255
G1 X45.2694 Y93.2142
S255
G1 X45.2361 Y93.2583
S255
G1 X45.2276 Y93.2669
S255
G1 X45.1913 Y93.2981
S255
G1 X45.0910 Y93.4078
S255
G1 X45.0032 Y93.5287
S255
G1 X44.9300 Y93.6585
S255
G1 X44.8720 Y93.7953
S255
G1 X44.8300 Y93.9382
S255
G1 X44.8045 Y94.0854
S255
G1 X44.7960 Y94.2340
S255
G1 X44.8045 Y94.3826
S255
G1 X44.8300 Y94.5293
S255
G1 X44.8720 Y94.6723
S255
G1 X44.9300 Y94.8096
S255
G1 X45.0032 Y94.9393
S255
G1 X45.0909 Y95.0601
S255
G1 X45.1914 Y95.1695
S255
G1 X45.3041 Y95.2672
S255
G1 X45.4273 Y95.3512
S255
G1 X45.5590 Y95.4210
S255
G1 X45.6975 Y95.4747
S255
G1 X45.8419 Y95.5125
S255
G1 X45.9892 Y95.5337
S255
G1 X46.1383 Y95.5380
S255
G1 X46.2865 Y95.5252
S255
G1 X46.4327 Y95.4960
S255
G1 X46.5741 Y95.4498
S255
G1 X46.7096 Y95.3879
S255
G1 X46.8375 Y95.3111
S255
G1 X46.9553 Y95.2201
S255
G1 X47.0619 Y95.1163
S255
G1 X47.1564 Y95.0006
S255
G1 X47.2370 Y94.8756
S255
G1 X47.3026 Y94.7417
S255
G1 X47.3526 Y94.6014
S255
G1 X47.3866 Y94.4561
S255
G1 X47.4036 Y94.3085
S255
G1 X47.4036 Y94.1594
S255
G1 X47.3866 Y94.0114
S255
G1 X47.3526 Y93.8665
S255
G1 X47.3026 Y93.7258
S255
G1 X47.2370 Y93.5924
S255
G1 X47.1563 Y93.4668
S255
G1 X47.0832 Y93.3772
S255
G1 X47.0774 Y93.3693
S255
G1 X47.0541 Y93.3284
S255
G1 X47.0509 Y93.3218
S255
G1 X47.0482 Y93.3150
S255
G1 X47.0454 Y93.3057
S255
G1 X47.0435 Y93.2962
S255
G1 X47.0383 Y93.2543
S255
G1 X47.0379 Y93.2472
S255
G1 X47.0379 Y93.2400
S255
G1 X47.0388 Y93.2305
S255
G1 X47.0406 Y93.2211
S255
G1 X47.0498 Y93.1827
S255
G1 X47.0536 Y93.1712
S255
G1 X47.0577 Y93.1623
S255
G1 X47.0626 Y93.1539
S255
G1 X47.0861 Y93.1195
S255
G1 X47.0950 Y93.1088
S255
G1 X48.0635 Y92.1402
S255
G1 X48.1246 Y92.0724
S255
G1 X48.1377 Y92.0559
S255
G1 X48.1861 Y91.9846
S255
G1 X48.2380 Y91.8845
S255
G1 X48.2453 Y91.8662
S255
G1 X48.2915 Y91.7289
S255
G1 X48.2964 Y91.7177
S255
G1 X48.3026 Y91.7071
S255
G1 X48.3085 Y91.6992
S255
G1 X48.3283 Y91.6753
S255
G1 X48.3351 Y91.6680
S255
G1 X48.4194 Y91.5926
S255
G1 X48.5170 Y91.4837
S255
G1 X48.6013 Y91.3645
S255
G1 X48.6722 Y91.2360
S255
G1 X48.7284 Y91.1010
S255
G1 X48.7689 Y90.9605
S255
G1 X48.7934 Y90.8161
S255
G1 X48.8021 Y90.6645
S255
G1 X48.8021 Y89.6755
S255
G1 X48.7934 Y89.5239
S255
G1 X48.7689 Y89.3795
S255
G1 X48.7284 Y89.2390
S255
G1 X48.6722 Y89.1040
S255
G1 X48.6014 Y88.9756
S255
G1 X48.5249 Y88.8680
S255
G1 X48.5207 Y88.8616
S255
G1 X48.5159 Y88.8525
S255
G1 X48.5007 Y88.8200
S255
G1 X48.4961 Y88.8083
S255
G1 X48.4930 Y88.7962
S255
G1 X48.4916 Y88.7862
S255
G1 X48.4884 Y88.7487
S255
G1 X48.4882 Y88.7387
S255
G1 X48.4888 Y88.7313
S255
G1 X48.4910 Y88.7190
S255
G1 X48.5021 Y88.6778
S255
G1 X48.5065 Y88.6665
S255
G1 X48.5123 Y88.6558
S255
G1 X48.5368 Y88.6201
S255
G1 X48.5416 Y88.6140
S255
G1 X48.5469 Y88.6083
S255
G1 X49.0459 Y88.1095
S255
G1 X49.0557 Y88.1017
S255
G1 X49.0908 Y88.0785
S255
G1 X49.0973 Y88.0745
S255
G1 X49.1040 Y88.0711
S255
G1 X49.1110 Y88.0682
S255
G1 X49.1207 Y88.0651
S255
G1 X49.1647 Y88.0558
S255
G1 X49.1748 Y88.0543
S255
G1 X49.1851 Y88.0537
S255
G1 X51.2872 Y88.0537
S255
G1 X51.2966 Y88.0542
S255
G1 X51.3059 Y88.0555
S255
G1 X51.3530 Y88.0657
S255
G1 X51.3599 Y88.0678
S255
G1 X51.3688 Y88.0714
S255
G1 X51.3752 Y88.0746
S255
G1 X51.3833 Y88.0796
S255
G1 X51.4208 Y88.1063
S255
G1 X51.4266 Y88.1109
S255
G1 X51.4337 Y88.1178
S255
G1 X51.4386 Y88.1233
S255
G1 X51.4444 Y88.1313
S255
G1 X51.4701 Y88.1727
S255
G1 X51.4734 Y88.1793
S255
G1 X51.4771 Y88.1885
S255
G1 X51.4793 Y88.1956
S255
G1 X51.4809 Y88.2028
S255
G1 X51.4876 Y88.2507
S255
G1 X51.4882 Y88.2579
S255
G1 X51.4882 Y88.2651
S255
G1 X51.4874 Y88.2747
S255
G1 X51.4858 Y88.2841
S255
G1 X51.4727 Y88.3312
S255
G1 X51.4704 Y88.3380
S255
G1 X51.4676 Y88.3447
S255
G1 X51.4643 Y88.3511
S255
G1 X51.4605 Y88.3572
S255
G1 X51.4548 Y88.3650
S255
G1 X51.4289 Y88.3970
S255
G1 X51.4222 Y88.4045
S255
G1 X51.4148 Y88.4113
S255
G1 X51.3619 Y88.4548
S255
G1 X51.3239 Y88.5013
S255
G1 X51.2957 Y88.5535
S255
G1 X51.2786 Y88.6105
S255
G1 X51.2718 Y88.6798
S255
G1 X51.2718 Y91.6602
S255
G1 X51.2786 Y91.7295
S255
G1 X51.2957 Y91.7865
S255
G1 X51.3239 Y91.8387
S255
G1 X51.3618 Y91.8851
S255
G1 X51.4081 Y91.9230
S255
G1 X51.4603 Y91.9512
S255
G1 X51.5174 Y91.9683
S255
G1 X51.5866 Y91.9750
S255
G1 X51.7769 Y91.9750
S255
G1 X51.7843 Y91.9753
S255
G1 X51.7917 Y91.9761
S255
G1 X51.8270 Y91.9815
S255
G1 X51.8363 Y91.9839
S255
G1 X51.8432 Y91.9862
S255
G1 X51.8521 Y91.9901
S255
G1 X51.8837 Y92.0061
S255
G1 X51.8918 Y92.0111
S255
G1 X51.8994 Y92.0170
S255
G1 X51.9302 Y92.0458
S255
G1 X51.9347 Y92.0509
S255
G1 X51.9516 Y92.0727
S255
G1 X52.0125 Y92.1402
S255
G1 X52.9811 Y93.1084
S255
G1 X52.9859 Y93.1138
S255
G1 X52.9903 Y93.1196
S255
G1 X53.0125 Y93.1525
S255
G1 X53.0186 Y93.1628
S255
G1 X53.0225 Y93.1714
S255
G1 X53.0262 Y93.1827
S255
G1 X53.0360 Y93.2235
S255
G1 X53.0376 Y93.2334
S255
G1 X53.0382 Y93.2433
S255
G1 X53.0375 Y93.2557
S255
G1 X53.0318 Y93.2971
S255
G1 X53.0292 Y93.3087
S255
G1 X53.0252 Y93.3198
S255
G1 X53.0211 Y93.3284
S255
G1 X53.0034 Y93.3614
S255
G1 X52.9984 Y93.3697
S255
G1 X52.9926 Y93.3775
S255
G1 X52.9191 Y93.4669
S255
G1 X52.8389 Y93.5924
S255
G1 X52.7729 Y93.7259
S255
G1 X52.7229 Y93.8664
S255
G1 X52.6894 Y94.0112
S255
G1 X52.6724 Y94.1594
S255
G1 X52.6724 Y94.3085
S255
G1 X52.6894 Y94.4563
S255
G1 X52.7229 Y94.6016
S255
G1 X52.7729 Y94.7416
S255
G1 X52.8389 Y94.8756
S255
G1 X52.9192 Y95.0007
S255
G1 X53.0135 Y95.1163
S255
G1 X53.1055 Y95.2058
S255
G1 X53.1120 Y95.2128
S255
G1 X53.1179 Y95.2205
S255
G1 X53.1446 Y95.2596
S255
G1 X53.1481 Y95.2658
S255
G1 X53.1510 Y95.2724
S255
G1 X53.1535 Y95.2791
S255
G1 X53.1555 Y95.2859
S255
G1 X53.1652 Y95.3332
S255
G1 X53.1662 Y95.3408
S255
G1 X53.1667 Y95.3509
S255
G1 X53.1636 Y96.3303
S255
G1 X53.1631 Y96.3399
S255
G1 X53.1612 Y96.3518
S255
G1 X53.1510 Y96.3974
S255
G1 X53.1482 Y96.4068
S255
G1 X53.1454 Y96.4136
S255
G1 X53.1398 Y96.4245
S255
G1 X53.1344 Y96.4327
S255
G1 X53.1013 Y96.4747
S255
G1 X53.0962 Y96.4800
S255
G1 X53.0908 Y96.4848
S255
G1 X52.8495 Y96.6844
S255
G1 X52.8435 Y96.6890
S255
G1 X52.8351 Y96.6944
S255
G1 X52.8046 Y96.7116
S255
G1 X52.7981 Y96.7150
S255
G1 X52.7914 Y96.7179
S255
G1 X52.7845 Y96.7203
S255
G1 X52.7751 Y96.7227
S255
G1 X52.7357 Y96.7296
S255
G1 X52.7282 Y96.7305
S255
G1 X52.7207 Y96.7307
S255
G1 X52.6085 Y96.7307
S255
G1 X52.5987 Y96.7303
S255
G1 X52.5913 Y96.7293
S255
G1 X52.5516 Y96.7222
S255
G1 X52.5423 Y96.7197
S255
G1 X52.5333 Y96.7162
S255
G1 X52.5247 Y96.7120
S255
G1 X52.4895 Y96.6912
S255
G1 X52.4793 Y96.6839
S255
G1 X52.4718 Y96.6771
S255
G1 X52.4650 Y96.6697
S255
G1 X52.4379 Y96.6362
S255
G1 X52.4329 Y96.6283
S255
G1 X52.4128 Y96.5914
S255
G1 X52.3280 Y96.4722
S255
G1 X52.2308 Y96.3632
S255
G1 X52.1214 Y96.2656
S255
G1 X52.0020 Y96.1811
S255
G1 X51.8741 Y96.1103
S255
G1 X51.7387 Y96.0542
S255
G1 X51.5981 Y96.0136
S255
G1 X51.4543 Y95.9891
S255
G1 X51.3080 Y95.9811
S255
G1 X51.1617 Y95.9891
S255
